MODULE xyz_R223
    PROC xyz23()
     MoveJ [[5.030,11.824,-92.127],[9.73406E-05,-0.156597,-0.987662,-8.78936E-05],[-1,-1,-3,1],[9E+09,9E+09,9E+09,9E+09,9E+09,9E+09]],v50,z0,T2_R2\WObj:=DHI_WO_R2;
     MoveJ [[5.230,11.792,-92.134],[9.73406E-05,-0.156597,-0.987662,-8.78936E-05],[-1,-1,-3,1],[9E+09,9E+09,9E+09,9E+09,9E+09,9E+09]],v50,z0,T2_R2\WObj:=DHI_WO_R2;
     MoveJ [[5.430,11.761,-92.140],[9.73406E-05,-0.156597,-0.987662,-8.78936E-05],[-1,-1,-3,1],[9E+09,9E+09,9E+09,9E+09,9E+09,9E+09]],v50,z0,T2_R2\WObj:=DHI_WO_R2;
     MoveJ [[5.640,11.727,-92.146],[9.73406E-05,-0.156597,-0.987662,-8.78936E-05],[-1,-1,-3,1],[9E+09,9E+09,9E+09,9E+09,9E+09,9E+09]],v50,z0,T2_R2\WObj:=DHI_WO_R2;
     MoveJ [[5.840,11.694,-92.153],[9.73406E-05,-0.156597,-0.987662,-8.78936E-05],[-1,-1,-3,1],[9E+09,9E+09,9E+09,9E+09,9E+09,9E+09]],v50,z0,T2_R2\WObj:=DHI_WO_R2;
     MoveJ [[6.040,11.663,-92.160],[9.73406E-05,-0.156597,-0.987662,-8.78936E-05],[-1,-1,-3,1],[9E+09,9E+09,9E+09,9E+09,9E+09,9E+09]],v50,z0,T2_R2\WObj:=DHI_WO_R2;
     MoveJ [[6.240,11.632,-92.166],[9.73406E-05,-0.156597,-0.987662,-8.78936E-05],[-1,-1,-3,1],[9E+09,9E+09,9E+09,9E+09,9E+09,9E+09]],v50,z0,T2_R2\WObj:=DHI_WO_R2;
     MoveJ [[6.450,11.603,-92.173],[9.73406E-05,-0.156597,-0.987662,-8.78936E-05],[-1,-1,-3,1],[9E+09,9E+09,9E+09,9E+09,9E+09,9E+09]],v50,z0,T2_R2\WObj:=DHI_WO_R2;
     MoveJ [[6.650,11.575,-92.180],[9.73406E-05,-0.156597,-0.987662,-8.78936E-05],[-1,-1,-3,1],[9E+09,9E+09,9E+09,9E+09,9E+09,9E+09]],v50,z0,T2_R2\WObj:=DHI_WO_R2;
     MoveJ [[6.840,11.547,-92.187],[9.73406E-05,-0.156597,-0.987662,-8.78936E-05],[-1,-1,-3,1],[9E+09,9E+09,9E+09,9E+09,9E+09,9E+09]],v50,z0,T2_R2\WObj:=DHI_WO_R2;
     MoveJ [[7.040,11.521,-92.193],[9.73406E-05,-0.156597,-0.987662,-8.78936E-05],[-1,-1,-3,1],[9E+09,9E+09,9E+09,9E+09,9E+09,9E+09]],v50,z0,T2_R2\WObj:=DHI_WO_R2;
     MoveJ [[7.240,11.494,-92.200],[9.73406E-05,-0.156597,-0.987662,-8.78936E-05],[-1,-1,-3,1],[9E+09,9E+09,9E+09,9E+09,9E+09,9E+09]],v50,z0,T2_R2\WObj:=DHI_WO_R2;
     MoveJ [[7.440,11.467,-92.208],[9.73406E-05,-0.156597,-0.987662,-8.78936E-05],[-1,-1,-3,1],[9E+09,9E+09,9E+09,9E+09,9E+09,9E+09]],v50,z0,T2_R2\WObj:=DHI_WO_R2;
     MoveJ [[7.660,11.438,-92.215],[9.73406E-05,-0.156597,-0.987662,-8.78936E-05],[-1,-1,-3,1],[9E+09,9E+09,9E+09,9E+09,9E+09,9E+09]],v50,z0,T2_R2\WObj:=DHI_WO_R2;
     MoveJ [[7.870,11.409,-92.223],[9.73406E-05,-0.156597,-0.987662,-8.78936E-05],[-1,-1,-3,1],[9E+09,9E+09,9E+09,9E+09,9E+09,9E+09]],v50,z0,T2_R2\WObj:=DHI_WO_R2;
     MoveJ [[8.070,11.383,-92.230],[9.73406E-05,-0.156597,-0.987662,-8.78936E-05],[-1,-1,-3,1],[9E+09,9E+09,9E+09,9E+09,9E+09,9E+09]],v50,z0,T2_R2\WObj:=DHI_WO_R2;
     MoveJ [[8.270,11.357,-92.237],[9.73406E-05,-0.156597,-0.987662,-8.78936E-05],[-1,-1,-3,1],[9E+09,9E+09,9E+09,9E+09,9E+09,9E+09]],v50,z0,T2_R2\WObj:=DHI_WO_R2;
     MoveJ [[8.470,11.331,-92.244],[9.73406E-05,-0.156597,-0.987662,-8.78936E-05],[-1,-1,-3,1],[9E+09,9E+09,9E+09,9E+09,9E+09,9E+09]],v50,z0,T2_R2\WObj:=DHI_WO_R2;
     MoveJ [[8.660,11.307,-92.251],[9.73406E-05,-0.156597,-0.987662,-8.78936E-05],[-1,-1,-3,1],[9E+09,9E+09,9E+09,9E+09,9E+09,9E+09]],v50,z0,T2_R2\WObj:=DHI_WO_R2;
     MoveJ [[8.870,11.282,-92.258],[9.73406E-05,-0.156597,-0.987662,-8.78936E-05],[-1,-1,-3,1],[9E+09,9E+09,9E+09,9E+09,9E+09,9E+09]],v50,z0,T2_R2\WObj:=DHI_WO_R2;
     MoveJ [[9.070,11.258,-92.265],[9.73406E-05,-0.156597,-0.987662,-8.78936E-05],[-1,-1,-3,1],[9E+09,9E+09,9E+09,9E+09,9E+09,9E+09]],v50,z0,T2_R2\WObj:=DHI_WO_R2;
     MoveJ [[9.270,11.233,-92.272],[9.73406E-05,-0.156597,-0.987662,-8.78936E-05],[-1,-1,-3,1],[9E+09,9E+09,9E+09,9E+09,9E+09,9E+09]],v50,z0,T2_R2\WObj:=DHI_WO_R2;
     MoveJ [[9.470,11.210,-92.279],[9.73406E-05,-0.156597,-0.987662,-8.78936E-05],[-1,-1,-3,1],[9E+09,9E+09,9E+09,9E+09,9E+09,9E+09]],v50,z0,T2_R2\WObj:=DHI_WO_R2;
     MoveJ [[9.680,11.185,-92.286],[9.73406E-05,-0.156597,-0.987662,-8.78936E-05],[-1,-1,-3,1],[9E+09,9E+09,9E+09,9E+09,9E+09,9E+09]],v50,z0,T2_R2\WObj:=DHI_WO_R2;
     MoveJ [[9.880,11.160,-92.294],[9.73406E-05,-0.156597,-0.987662,-8.78936E-05],[-1,-1,-3,1],[9E+09,9E+09,9E+09,9E+09,9E+09,9E+09]],v50,z0,T2_R2\WObj:=DHI_WO_R2;
     MoveJ [[10.080,11.136,-92.300],[9.73406E-05,-0.156597,-0.987662,-8.78936E-05],[-1,-1,-3,1],[9E+09,9E+09,9E+09,9E+09,9E+09,9E+09]],v50,z0,T2_R2\WObj:=DHI_WO_R2;
     MoveJ [[10.280,11.113,-92.308],[9.73406E-05,-0.156597,-0.987662,-8.78936E-05],[-1,-1,-3,1],[9E+09,9E+09,9E+09,9E+09,9E+09,9E+09]],v50,z0,T2_R2\WObj:=DHI_WO_R2;
     MoveJ [[10.480,11.089,-92.315],[9.73406E-05,-0.156597,-0.987662,-8.78936E-05],[-1,-1,-3,1],[9E+09,9E+09,9E+09,9E+09,9E+09,9E+09]],v50,z0,T2_R2\WObj:=DHI_WO_R2;
     MoveJ [[10.690,11.067,-92.322],[9.73406E-05,-0.156597,-0.987662,-8.78936E-05],[-1,-1,-3,1],[9E+09,9E+09,9E+09,9E+09,9E+09,9E+09]],v50,z0,T2_R2\WObj:=DHI_WO_R2;
     MoveJ [[10.880,11.046,-92.329],[9.73406E-05,-0.156597,-0.987662,-8.78936E-05],[-1,-1,-3,1],[9E+09,9E+09,9E+09,9E+09,9E+09,9E+09]],v50,z0,T2_R2\WObj:=DHI_WO_R2;
     MoveJ [[11.080,11.024,-92.336],[9.73406E-05,-0.156597,-0.987662,-8.78936E-05],[-1,-1,-3,1],[9E+09,9E+09,9E+09,9E+09,9E+09,9E+09]],v50,z0,T2_R2\WObj:=DHI_WO_R2;
     MoveJ [[11.280,11.003,-92.343],[9.73406E-05,-0.156597,-0.987662,-8.78936E-05],[-1,-1,-3,1],[9E+09,9E+09,9E+09,9E+09,9E+09,9E+09]],v50,z0,T2_R2\WObj:=DHI_WO_R2;
     MoveJ [[11.480,10.982,-92.350],[9.73406E-05,-0.156597,-0.987662,-8.78936E-05],[-1,-1,-3,1],[9E+09,9E+09,9E+09,9E+09,9E+09,9E+09]],v50,z0,T2_R2\WObj:=DHI_WO_R2;
     MoveJ [[11.690,10.960,-92.357],[9.73406E-05,-0.156597,-0.987662,-8.78936E-05],[-1,-1,-3,1],[9E+09,9E+09,9E+09,9E+09,9E+09,9E+09]],v50,z0,T2_R2\WObj:=DHI_WO_R2;
     MoveJ [[11.900,10.937,-92.364],[9.73406E-05,-0.156597,-0.987662,-8.78936E-05],[-1,-1,-3,1],[9E+09,9E+09,9E+09,9E+09,9E+09,9E+09]],v50,z0,T2_R2\WObj:=DHI_WO_R2;
     MoveJ [[12.100,10.916,-92.371],[9.73406E-05,-0.156597,-0.987662,-8.78936E-05],[-1,-1,-3,1],[9E+09,9E+09,9E+09,9E+09,9E+09,9E+09]],v50,z0,T2_R2\WObj:=DHI_WO_R2;
     MoveJ [[12.300,10.895,-92.378],[9.73406E-05,-0.156597,-0.987662,-8.78936E-05],[-1,-1,-3,1],[9E+09,9E+09,9E+09,9E+09,9E+09,9E+09]],v50,z0,T2_R2\WObj:=DHI_WO_R2;
     MoveJ [[12.500,10.874,-92.385],[9.73406E-05,-0.156597,-0.987662,-8.78936E-05],[-1,-1,-3,1],[9E+09,9E+09,9E+09,9E+09,9E+09,9E+09]],v50,z0,T2_R2\WObj:=DHI_WO_R2;
     MoveJ [[12.700,10.856,-92.392],[9.73406E-05,-0.156597,-0.987662,-8.78936E-05],[-1,-1,-3,1],[9E+09,9E+09,9E+09,9E+09,9E+09,9E+09]],v50,z0,T2_R2\WObj:=DHI_WO_R2;
     MoveJ [[12.900,10.837,-92.399],[9.73406E-05,-0.156597,-0.987662,-8.78936E-05],[-1,-1,-3,1],[9E+09,9E+09,9E+09,9E+09,9E+09,9E+09]],v50,z0,T2_R2\WObj:=DHI_WO_R2;
     MoveJ [[13.100,10.818,-92.406],[9.73406E-05,-0.156597,-0.987662,-8.78936E-05],[-1,-1,-3,1],[9E+09,9E+09,9E+09,9E+09,9E+09,9E+09]],v50,z0,T2_R2\WObj:=DHI_WO_R2;
     MoveJ [[13.300,10.799,-92.413],[9.73406E-05,-0.156597,-0.987662,-8.78936E-05],[-1,-1,-3,1],[9E+09,9E+09,9E+09,9E+09,9E+09,9E+09]],v50,z0,T2_R2\WObj:=DHI_WO_R2;
     MoveJ [[13.500,10.781,-92.421],[9.73406E-05,-0.156597,-0.987662,-8.78936E-05],[-1,-1,-3,1],[9E+09,9E+09,9E+09,9E+09,9E+09,9E+09]],v50,z0,T2_R2\WObj:=DHI_WO_R2;
     MoveJ [[13.700,10.762,-92.428],[9.73406E-05,-0.156597,-0.987662,-8.78936E-05],[-1,-1,-3,1],[9E+09,9E+09,9E+09,9E+09,9E+09,9E+09]],v50,z0,T2_R2\WObj:=DHI_WO_R2;
     MoveJ [[13.910,10.743,-92.435],[9.73406E-05,-0.156597,-0.987662,-8.78936E-05],[-1,-1,-3,1],[9E+09,9E+09,9E+09,9E+09,9E+09,9E+09]],v50,z0,T2_R2\WObj:=DHI_WO_R2;
     MoveJ [[14.110,10.724,-92.442],[9.73406E-05,-0.156597,-0.987662,-8.78936E-05],[-1,-1,-3,1],[9E+09,9E+09,9E+09,9E+09,9E+09,9E+09]],v50,z0,T2_R2\WObj:=DHI_WO_R2;
     MoveJ [[14.320,10.705,-92.449],[9.73406E-05,-0.156597,-0.987662,-8.78936E-05],[-1,-1,-3,1],[9E+09,9E+09,9E+09,9E+09,9E+09,9E+09]],v50,z0,T2_R2\WObj:=DHI_WO_R2;
     MoveJ [[14.520,10.688,-92.456],[9.73406E-05,-0.156597,-0.987662,-8.78936E-05],[-1,-1,-3,1],[9E+09,9E+09,9E+09,9E+09,9E+09,9E+09]],v50,z0,T2_R2\WObj:=DHI_WO_R2;
     MoveJ [[14.720,10.671,-92.463],[9.73406E-05,-0.156597,-0.987662,-8.78936E-05],[-1,-1,-3,1],[9E+09,9E+09,9E+09,9E+09,9E+09,9E+09]],v50,z0,T2_R2\WObj:=DHI_WO_R2;
     MoveJ [[14.920,10.655,-92.470],[9.73406E-05,-0.156597,-0.987662,-8.78936E-05],[-1,-1,-3,1],[9E+09,9E+09,9E+09,9E+09,9E+09,9E+09]],v50,z0,T2_R2\WObj:=DHI_WO_R2;
     MoveJ [[15.320,10.622,-92.484],[9.73406E-05,-0.156597,-0.987662,-8.78936E-05],[-1,-1,-3,1],[9E+09,9E+09,9E+09,9E+09,9E+09,9E+09]],v50,z0,T2_R2\WObj:=DHI_WO_R2;
     MoveJ [[15.720,10.590,-92.498],[9.73406E-05,-0.156597,-0.987662,-8.78936E-05],[-1,-1,-3,1],[9E+09,9E+09,9E+09,9E+09,9E+09,9E+09]],v50,z0,T2_R2\WObj:=DHI_WO_R2;
     MoveJ [[15.920,10.574,-92.505],[9.73406E-05,-0.156597,-0.987662,-8.78936E-05],[-1,-1,-3,1],[9E+09,9E+09,9E+09,9E+09,9E+09,9E+09]],v50,z0,T2_R2\WObj:=DHI_WO_R2;
     MoveJ [[16.330,10.541,-92.520],[9.73406E-05,-0.156597,-0.987662,-8.78936E-05],[-1,-1,-3,1],[9E+09,9E+09,9E+09,9E+09,9E+09,9E+09]],v50,z0,T2_R2\WObj:=DHI_WO_R2;
     MoveJ [[16.530,10.527,-92.527],[9.73406E-05,-0.156597,-0.987662,-8.78936E-05],[-1,-1,-3,1],[9E+09,9E+09,9E+09,9E+09,9E+09,9E+09]],v50,z0,T2_R2\WObj:=DHI_WO_R2;
     MoveJ [[16.730,10.513,-92.534],[9.73406E-05,-0.156597,-0.987662,-8.78936E-05],[-1,-1,-3,1],[9E+09,9E+09,9E+09,9E+09,9E+09,9E+09]],v50,z0,T2_R2\WObj:=DHI_WO_R2;
     MoveJ [[16.930,10.499,-92.541],[9.73406E-05,-0.156597,-0.987662,-8.78936E-05],[-1,-1,-3,1],[9E+09,9E+09,9E+09,9E+09,9E+09,9E+09]],v50,z0,T2_R2\WObj:=DHI_WO_R2;
     MoveJ [[17.130,10.485,-92.548],[9.73406E-05,-0.156597,-0.987662,-8.78936E-05],[-1,-1,-3,1],[9E+09,9E+09,9E+09,9E+09,9E+09,9E+09]],v50,z0,T2_R2\WObj:=DHI_WO_R2;
     MoveJ [[17.330,10.471,-92.555],[9.73406E-05,-0.156597,-0.987662,-8.78936E-05],[-1,-1,-3,1],[9E+09,9E+09,9E+09,9E+09,9E+09,9E+09]],v50,z0,T2_R2\WObj:=DHI_WO_R2;
     MoveJ [[17.530,10.457,-92.562],[9.73406E-05,-0.156597,-0.987662,-8.78936E-05],[-1,-1,-3,1],[9E+09,9E+09,9E+09,9E+09,9E+09,9E+09]],v50,z0,T2_R2\WObj:=DHI_WO_R2;
     MoveJ [[17.730,10.444,-92.569],[9.73406E-05,-0.156597,-0.987662,-8.78936E-05],[-1,-1,-3,1],[9E+09,9E+09,9E+09,9E+09,9E+09,9E+09]],v50,z0,T2_R2\WObj:=DHI_WO_R2;
     MoveJ [[17.940,10.430,-92.576],[9.73406E-05,-0.156597,-0.987662,-8.78936E-05],[-1,-1,-3,1],[9E+09,9E+09,9E+09,9E+09,9E+09,9E+09]],v50,z0,T2_R2\WObj:=DHI_WO_R2;
     MoveJ [[18.140,10.416,-92.583],[9.73406E-05,-0.156597,-0.987662,-8.78936E-05],[-1,-1,-3,1],[9E+09,9E+09,9E+09,9E+09,9E+09,9E+09]],v50,z0,T2_R2\WObj:=DHI_WO_R2;
     MoveJ [[18.340,10.403,-92.590],[9.73406E-05,-0.156597,-0.987662,-8.78936E-05],[-1,-1,-3,1],[9E+09,9E+09,9E+09,9E+09,9E+09,9E+09]],v50,z0,T2_R2\WObj:=DHI_WO_R2;
     MoveJ [[18.540,10.391,-92.597],[9.73406E-05,-0.156597,-0.987662,-8.78936E-05],[-1,-1,-3,1],[9E+09,9E+09,9E+09,9E+09,9E+09,9E+09]],v50,z0,T2_R2\WObj:=DHI_WO_R2;
     MoveJ [[18.740,10.380,-92.604],[9.73406E-05,-0.156597,-0.987662,-8.78936E-05],[-1,-1,-3,1],[9E+09,9E+09,9E+09,9E+09,9E+09,9E+09]],v50,z0,T2_R2\WObj:=DHI_WO_R2;
     MoveJ [[18.940,10.368,-92.611],[9.73406E-05,-0.156597,-0.987662,-8.78936E-05],[-1,-1,-3,1],[9E+09,9E+09,9E+09,9E+09,9E+09,9E+09]],v50,z0,T2_R2\WObj:=DHI_WO_R2;
     MoveJ [[19.140,10.357,-92.618],[9.73406E-05,-0.156597,-0.987662,-8.78936E-05],[-1,-1,-3,1],[9E+09,9E+09,9E+09,9E+09,9E+09,9E+09]],v50,z0,T2_R2\WObj:=DHI_WO_R2;
     MoveJ [[19.340,10.345,-92.625],[9.73406E-05,-0.156597,-0.987662,-8.78936E-05],[-1,-1,-3,1],[9E+09,9E+09,9E+09,9E+09,9E+09,9E+09]],v50,z0,T2_R2\WObj:=DHI_WO_R2;
     MoveJ [[19.540,10.334,-92.632],[9.73406E-05,-0.156597,-0.987662,-8.78936E-05],[-1,-1,-3,1],[9E+09,9E+09,9E+09,9E+09,9E+09,9E+09]],v50,z0,T2_R2\WObj:=DHI_WO_R2;
     MoveJ [[19.740,10.323,-92.639],[9.73406E-05,-0.156597,-0.987662,-8.78936E-05],[-1,-1,-3,1],[9E+09,9E+09,9E+09,9E+09,9E+09,9E+09]],v50,z0,T2_R2\WObj:=DHI_WO_R2;
     MoveJ [[19.940,10.312,-92.646],[9.73406E-05,-0.156597,-0.987662,-8.78936E-05],[-1,-1,-3,1],[9E+09,9E+09,9E+09,9E+09,9E+09,9E+09]],v50,z0,T2_R2\WObj:=DHI_WO_R2;
     MoveJ [[20.150,10.300,-92.653],[9.73406E-05,-0.156597,-0.987662,-8.78936E-05],[-1,-1,-3,1],[9E+09,9E+09,9E+09,9E+09,9E+09,9E+09]],v50,z0,T2_R2\WObj:=DHI_WO_R2;
     MoveJ [[20.350,10.290,-92.660],[9.73406E-05,-0.156597,-0.987662,-8.78936E-05],[-1,-1,-3,1],[9E+09,9E+09,9E+09,9E+09,9E+09,9E+09]],v50,z0,T2_R2\WObj:=DHI_WO_R2;
     MoveJ [[20.550,10.281,-92.667],[9.73406E-05,-0.156597,-0.987662,-8.78936E-05],[-1,-1,-3,1],[9E+09,9E+09,9E+09,9E+09,9E+09,9E+09]],v50,z0,T2_R2\WObj:=DHI_WO_R2;
     MoveJ [[20.750,10.272,-92.674],[9.73406E-05,-0.156597,-0.987662,-8.78936E-05],[-1,-1,-3,1],[9E+09,9E+09,9E+09,9E+09,9E+09,9E+09]],v50,z0,T2_R2\WObj:=DHI_WO_R2;
     MoveJ [[20.950,10.262,-92.681],[9.73406E-05,-0.156597,-0.987662,-8.78936E-05],[-1,-1,-3,1],[9E+09,9E+09,9E+09,9E+09,9E+09,9E+09]],v50,z0,T2_R2\WObj:=DHI_WO_R2;
     MoveJ [[21.150,10.253,-92.688],[9.73406E-05,-0.156597,-0.987662,-8.78936E-05],[-1,-1,-3,1],[9E+09,9E+09,9E+09,9E+09,9E+09,9E+09]],v50,z0,T2_R2\WObj:=DHI_WO_R2;
     MoveJ [[21.350,10.244,-92.695],[9.73406E-05,-0.156597,-0.987662,-8.78936E-05],[-1,-1,-3,1],[9E+09,9E+09,9E+09,9E+09,9E+09,9E+09]],v50,z0,T2_R2\WObj:=DHI_WO_R2;
     MoveJ [[21.550,10.236,-92.702],[9.73406E-05,-0.156597,-0.987662,-8.78936E-05],[-1,-1,-3,1],[9E+09,9E+09,9E+09,9E+09,9E+09,9E+09]],v50,z0,T2_R2\WObj:=DHI_WO_R2;
     MoveJ [[21.750,10.227,-92.709],[9.73406E-05,-0.156597,-0.987662,-8.78936E-05],[-1,-1,-3,1],[9E+09,9E+09,9E+09,9E+09,9E+09,9E+09]],v50,z0,T2_R2\WObj:=DHI_WO_R2;
     MoveJ [[21.950,10.218,-92.716],[9.73406E-05,-0.156597,-0.987662,-8.78936E-05],[-1,-1,-3,1],[9E+09,9E+09,9E+09,9E+09,9E+09,9E+09]],v50,z0,T2_R2\WObj:=DHI_WO_R2;
     MoveJ [[22.160,10.209,-92.723],[9.73406E-05,-0.156597,-0.987662,-8.78936E-05],[-1,-1,-3,1],[9E+09,9E+09,9E+09,9E+09,9E+09,9E+09]],v50,z0,T2_R2\WObj:=DHI_WO_R2;
     MoveJ [[22.360,10.201,-92.731],[9.73406E-05,-0.156597,-0.987662,-8.78936E-05],[-1,-1,-3,1],[9E+09,9E+09,9E+09,9E+09,9E+09,9E+09]],v50,z0,T2_R2\WObj:=DHI_WO_R2;
     MoveJ [[22.560,10.195,-92.738],[9.73406E-05,-0.156597,-0.987662,-8.78936E-05],[-1,-1,-3,1],[9E+09,9E+09,9E+09,9E+09,9E+09,9E+09]],v50,z0,T2_R2\WObj:=DHI_WO_R2;
     MoveJ [[22.760,10.188,-92.745],[9.73406E-05,-0.156597,-0.987662,-8.78936E-05],[-1,-1,-3,1],[9E+09,9E+09,9E+09,9E+09,9E+09,9E+09]],v50,z0,T2_R2\WObj:=DHI_WO_R2;
     MoveJ [[22.960,10.181,-92.752],[9.73406E-05,-0.156597,-0.987662,-8.78936E-05],[-1,-1,-3,1],[9E+09,9E+09,9E+09,9E+09,9E+09,9E+09]],v50,z0,T2_R2\WObj:=DHI_WO_R2;
     MoveJ [[23.160,10.174,-92.759],[9.73406E-05,-0.156597,-0.987662,-8.78936E-05],[-1,-1,-3,1],[9E+09,9E+09,9E+09,9E+09,9E+09,9E+09]],v50,z0,T2_R2\WObj:=DHI_WO_R2;
     MoveJ [[23.360,10.168,-92.766],[9.73406E-05,-0.156597,-0.987662,-8.78936E-05],[-1,-1,-3,1],[9E+09,9E+09,9E+09,9E+09,9E+09,9E+09]],v50,z0,T2_R2\WObj:=DHI_WO_R2;
     MoveJ [[23.560,10.161,-92.773],[9.73406E-05,-0.156597,-0.987662,-8.78936E-05],[-1,-1,-3,1],[9E+09,9E+09,9E+09,9E+09,9E+09,9E+09]],v50,z0,T2_R2\WObj:=DHI_WO_R2;
     MoveJ [[23.760,10.155,-92.780],[9.73406E-05,-0.156597,-0.987662,-8.78936E-05],[-1,-1,-3,1],[9E+09,9E+09,9E+09,9E+09,9E+09,9E+09]],v50,z0,T2_R2\WObj:=DHI_WO_R2;
     MoveJ [[23.960,10.148,-92.787],[9.73406E-05,-0.156597,-0.987662,-8.78936E-05],[-1,-1,-3,1],[9E+09,9E+09,9E+09,9E+09,9E+09,9E+09]],v50,z0,T2_R2\WObj:=DHI_WO_R2;
     MoveJ [[24.170,10.142,-92.794],[9.73406E-05,-0.156597,-0.987662,-8.78936E-05],[-1,-1,-3,1],[9E+09,9E+09,9E+09,9E+09,9E+09,9E+09]],v50,z0,T2_R2\WObj:=DHI_WO_R2;
     MoveJ [[24.370,10.137,-92.801],[9.73406E-05,-0.156597,-0.987662,-8.78936E-05],[-1,-1,-3,1],[9E+09,9E+09,9E+09,9E+09,9E+09,9E+09]],v50,z0,T2_R2\WObj:=DHI_WO_R2;
     MoveJ [[24.570,10.133,-92.808],[9.73406E-05,-0.156597,-0.987662,-8.78936E-05],[-1,-1,-3,1],[9E+09,9E+09,9E+09,9E+09,9E+09,9E+09]],v50,z0,T2_R2\WObj:=DHI_WO_R2;
     MoveJ [[24.770,10.128,-92.815],[9.73406E-05,-0.156597,-0.987662,-8.78936E-05],[-1,-1,-3,1],[9E+09,9E+09,9E+09,9E+09,9E+09,9E+09]],v50,z0,T2_R2\WObj:=DHI_WO_R2;
     MoveJ [[24.970,10.123,-92.821],[9.73406E-05,-0.156597,-0.987662,-8.78936E-05],[-1,-1,-3,1],[9E+09,9E+09,9E+09,9E+09,9E+09,9E+09]],v50,z0,T2_R2\WObj:=DHI_WO_R2;
     MoveJ [[25.170,10.119,-92.828],[9.73406E-05,-0.156597,-0.987662,-8.78936E-05],[-1,-1,-3,1],[9E+09,9E+09,9E+09,9E+09,9E+09,9E+09]],v50,z0,T2_R2\WObj:=DHI_WO_R2;
     MoveJ [[25.370,10.113,-92.835],[9.73406E-05,-0.156597,-0.987662,-8.78936E-05],[-1,-1,-3,1],[9E+09,9E+09,9E+09,9E+09,9E+09,9E+09]],v50,z0,T2_R2\WObj:=DHI_WO_R2;
     MoveJ [[25.570,10.108,-92.841],[9.73406E-05,-0.156597,-0.987662,-8.78936E-05],[-1,-1,-3,1],[9E+09,9E+09,9E+09,9E+09,9E+09,9E+09]],v50,z0,T2_R2\WObj:=DHI_WO_R2;
     MoveJ [[25.770,10.102,-92.848],[9.73406E-05,-0.156597,-0.987662,-8.78936E-05],[-1,-1,-3,1],[9E+09,9E+09,9E+09,9E+09,9E+09,9E+09]],v50,z0,T2_R2\WObj:=DHI_WO_R2;
     MoveJ [[25.970,10.096,-92.854],[9.73406E-05,-0.156597,-0.987662,-8.78936E-05],[-1,-1,-3,1],[9E+09,9E+09,9E+09,9E+09,9E+09,9E+09]],v50,z0,T2_R2\WObj:=DHI_WO_R2;
     MoveJ [[26.170,10.091,-92.861],[9.73406E-05,-0.156597,-0.987662,-8.78936E-05],[-1,-1,-3,1],[9E+09,9E+09,9E+09,9E+09,9E+09,9E+09]],v50,z0,T2_R2\WObj:=DHI_WO_R2;
     MoveJ [[26.370,10.086,-92.867],[9.73406E-05,-0.156597,-0.987662,-8.78936E-05],[-1,-1,-3,1],[9E+09,9E+09,9E+09,9E+09,9E+09,9E+09]],v50,z0,T2_R2\WObj:=DHI_WO_R2;
     MoveJ [[26.770,10.077,-92.879],[9.73406E-05,-0.156597,-0.987662,-8.78936E-05],[-1,-1,-3,1],[9E+09,9E+09,9E+09,9E+09,9E+09,9E+09]],v50,z0,T2_R2\WObj:=DHI_WO_R2;
     MoveJ [[26.970,10.071,-92.885],[9.73406E-05,-0.156597,-0.987662,-8.78936E-05],[-1,-1,-3,1],[9E+09,9E+09,9E+09,9E+09,9E+09,9E+09]],v50,z0,T2_R2\WObj:=DHI_WO_R2;
     MoveJ [[27.170,10.066,-92.890],[9.73406E-05,-0.156597,-0.987662,-8.78936E-05],[-1,-1,-3,1],[9E+09,9E+09,9E+09,9E+09,9E+09,9E+09]],v50,z0,T2_R2\WObj:=DHI_WO_R2;
     MoveJ [[27.570,10.054,-92.901],[9.73406E-05,-0.156597,-0.987662,-8.78936E-05],[-1,-1,-3,1],[9E+09,9E+09,9E+09,9E+09,9E+09,9E+09]],v50,z0,T2_R2\WObj:=DHI_WO_R2;
     MoveJ [[27.770,10.047,-92.907],[9.73406E-05,-0.156597,-0.987662,-8.78936E-05],[-1,-1,-3,1],[9E+09,9E+09,9E+09,9E+09,9E+09,9E+09]],v50,z0,T2_R2\WObj:=DHI_WO_R2;
     MoveJ [[27.970,10.040,-92.912],[9.73406E-05,-0.156597,-0.987662,-8.78936E-05],[-1,-1,-3,1],[9E+09,9E+09,9E+09,9E+09,9E+09,9E+09]],v50,z0,T2_R2\WObj:=DHI_WO_R2;
     MoveJ [[28.170,10.034,-92.917],[9.73406E-05,-0.156597,-0.987662,-8.78936E-05],[-1,-1,-3,1],[9E+09,9E+09,9E+09,9E+09,9E+09,9E+09]],v50,z0,T2_R2\WObj:=DHI_WO_R2;
     MoveJ [[28.370,10.029,-92.922],[9.73406E-05,-0.156597,-0.987662,-8.78936E-05],[-1,-1,-3,1],[9E+09,9E+09,9E+09,9E+09,9E+09,9E+09]],v50,z0,T2_R2\WObj:=DHI_WO_R2;
     MoveJ [[28.770,10.017,-92.932],[9.73406E-05,-0.156597,-0.987662,-8.78936E-05],[-1,-1,-3,1],[9E+09,9E+09,9E+09,9E+09,9E+09,9E+09]],v50,z0,T2_R2\WObj:=DHI_WO_R2;
     MoveJ [[29.170,10.004,-92.941],[9.73406E-05,-0.156597,-0.987662,-8.78936E-05],[-1,-1,-3,1],[9E+09,9E+09,9E+09,9E+09,9E+09,9E+09]],v50,z0,T2_R2\WObj:=DHI_WO_R2;
     MoveJ [[29.570,9.990,-92.949],[9.73406E-05,-0.156597,-0.987662,-8.78936E-05],[-1,-1,-3,1],[9E+09,9E+09,9E+09,9E+09,9E+09,9E+09]],v50,z0,T2_R2\WObj:=DHI_WO_R2;
     MoveJ [[29.970,9.973,-92.957],[9.73406E-05,-0.156597,-0.987662,-8.78936E-05],[-1,-1,-3,1],[9E+09,9E+09,9E+09,9E+09,9E+09,9E+09]],v50,z0,T2_R2\WObj:=DHI_WO_R2;
     MoveJ [[30.370,9.957,-92.964],[9.73406E-05,-0.156597,-0.987662,-8.78936E-05],[-1,-1,-3,1],[9E+09,9E+09,9E+09,9E+09,9E+09,9E+09]],v50,z0,T2_R2\WObj:=DHI_WO_R2;
     MoveJ [[30.760,9.939,-92.971],[9.73406E-05,-0.156597,-0.987662,-8.78936E-05],[-1,-1,-3,1],[9E+09,9E+09,9E+09,9E+09,9E+09,9E+09]],v50,z0,T2_R2\WObj:=DHI_WO_R2;
     MoveJ [[30.970,9.929,-92.974],[9.73406E-05,-0.156597,-0.987662,-8.78936E-05],[-1,-1,-3,1],[9E+09,9E+09,9E+09,9E+09,9E+09,9E+09]],v50,z0,T2_R2\WObj:=DHI_WO_R2;
     MoveJ [[31.170,9.932,-92.977],[9.73406E-05,-0.156597,-0.987662,-8.78936E-05],[-1,-1,-3,1],[9E+09,9E+09,9E+09,9E+09,9E+09,9E+09]],v50,z0,T2_R2\WObj:=DHI_WO_R2;
     MoveJ [[31.570,9.947,-92.982],[9.73406E-05,-0.156597,-0.987662,-8.78936E-05],[-1,-1,-3,1],[9E+09,9E+09,9E+09,9E+09,9E+09,9E+09]],v50,z0,T2_R2\WObj:=DHI_WO_R2;
     MoveJ [[31.970,9.960,-92.987],[9.73406E-05,-0.156597,-0.987662,-8.78936E-05],[-1,-1,-3,1],[9E+09,9E+09,9E+09,9E+09,9E+09,9E+09]],v50,z0,T2_R2\WObj:=DHI_WO_R2;
     MoveJ [[32.360,9.971,-92.991],[9.73406E-05,-0.156597,-0.987662,-8.78936E-05],[-1,-1,-3,1],[9E+09,9E+09,9E+09,9E+09,9E+09,9E+09]],v50,z0,T2_R2\WObj:=DHI_WO_R2;
     MoveJ [[32.760,9.980,-92.994],[9.73406E-05,-0.156597,-0.987662,-8.78936E-05],[-1,-1,-3,1],[9E+09,9E+09,9E+09,9E+09,9E+09,9E+09]],v50,z0,T2_R2\WObj:=DHI_WO_R2;
     MoveJ [[33.160,9.987,-92.997],[9.73406E-05,-0.156597,-0.987662,-8.78936E-05],[-1,-1,-3,1],[9E+09,9E+09,9E+09,9E+09,9E+09,9E+09]],v50,z0,T2_R2\WObj:=DHI_WO_R2;
     MoveJ [[33.560,9.992,-92.999],[9.73406E-05,-0.156597,-0.987662,-8.78936E-05],[-1,-1,-3,1],[9E+09,9E+09,9E+09,9E+09,9E+09,9E+09]],v50,z0,T2_R2\WObj:=DHI_WO_R2;
     MoveJ [[33.960,9.995,-93.000],[9.73406E-05,-0.156597,-0.987662,-8.78936E-05],[-1,-1,-3,1],[9E+09,9E+09,9E+09,9E+09,9E+09,9E+09]],v50,z0,T2_R2\WObj:=DHI_WO_R2;
     MoveJ [[34.290,9.995,-93.000],[9.73406E-05,-0.156597,-0.987662,-8.78936E-05],[-1,-1,-3,1],[9E+09,9E+09,9E+09,9E+09,9E+09,9E+09]],v50,z0,T2_R2\WObj:=DHI_WO_R2;
     MoveJ [[37.760,9.995,-93.000],[9.73406E-05,-0.156597,-0.987662,-8.78936E-05],[-1,-1,-3,1],[9E+09,9E+09,9E+09,9E+09,9E+09,9E+09]],v50,z0,T2_R2\WObj:=DHI_WO_R2;
     MoveJ [[37.760,9.996,-93.000],[9.73406E-05,-0.156597,-0.987662,-8.78936E-05],[-1,-1,-3,1],[9E+09,9E+09,9E+09,9E+09,9E+09,9E+09]],v50,z0,T2_R2\WObj:=DHI_WO_R2;
     MoveJ [[37.780,10.095,-93.000],[9.73406E-05,-0.156597,-0.987662,-8.78936E-05],[-1,-1,-3,1],[9E+09,9E+09,9E+09,9E+09,9E+09,9E+09]],v50,z0,T2_R2\WObj:=DHI_WO_R2;
     MoveJ [[37.820,10.285,-93.000],[9.73406E-05,-0.156597,-0.987662,-8.78936E-05],[-1,-1,-3,1],[9E+09,9E+09,9E+09,9E+09,9E+09,9E+09]],v50,z0,T2_R2\WObj:=DHI_WO_R2;
     MoveJ [[37.860,10.475,-93.000],[9.73406E-05,-0.156597,-0.987662,-8.78936E-05],[-1,-1,-3,1],[9E+09,9E+09,9E+09,9E+09,9E+09,9E+09]],v50,z0,T2_R2\WObj:=DHI_WO_R2;
     MoveJ [[37.900,10.665,-93.000],[9.73406E-05,-0.156597,-0.987662,-8.78936E-05],[-1,-1,-3,1],[9E+09,9E+09,9E+09,9E+09,9E+09,9E+09]],v50,z0,T2_R2\WObj:=DHI_WO_R2;
     MoveJ [[37.980,11.046,-93.000],[9.73406E-05,-0.156597,-0.987662,-8.78936E-05],[-1,-1,-3,1],[9E+09,9E+09,9E+09,9E+09,9E+09,9E+09]],v50,z0,T2_R2\WObj:=DHI_WO_R2;
     MoveJ [[38.010,11.236,-93.000],[9.73406E-05,-0.156597,-0.987662,-8.78936E-05],[-1,-1,-3,1],[9E+09,9E+09,9E+09,9E+09,9E+09,9E+09]],v50,z0,T2_R2\WObj:=DHI_WO_R2;
     MoveJ [[38.090,11.616,-93.000],[9.73406E-05,-0.156597,-0.987662,-8.78936E-05],[-1,-1,-3,1],[9E+09,9E+09,9E+09,9E+09,9E+09,9E+09]],v50,z0,T2_R2\WObj:=DHI_WO_R2;
     MoveJ [[38.130,11.806,-93.000],[9.73406E-05,-0.156597,-0.987662,-8.78936E-05],[-1,-1,-3,1],[9E+09,9E+09,9E+09,9E+09,9E+09,9E+09]],v50,z0,T2_R2\WObj:=DHI_WO_R2;
     MoveJ [[38.230,12.274,-93.000],[9.73406E-05,-0.156597,-0.987662,-8.78936E-05],[-1,-1,-3,1],[9E+09,9E+09,9E+09,9E+09,9E+09,9E+09]],v50,z0,T2_R2\WObj:=DHI_WO_R2;
     MoveJ [[38.250,12.376,-93.000],[9.73406E-05,-0.156597,-0.987662,-8.78936E-05],[-1,-1,-3,1],[9E+09,9E+09,9E+09,9E+09,9E+09,9E+09]],v50,z0,T2_R2\WObj:=DHI_WO_R2;
     MoveJ [[38.320,12.756,-93.000],[9.73406E-05,-0.156597,-0.987662,-8.78936E-05],[-1,-1,-3,1],[9E+09,9E+09,9E+09,9E+09,9E+09,9E+09]],v50,z0,T2_R2\WObj:=DHI_WO_R2;
     MoveJ [[38.360,12.946,-93.000],[9.73406E-05,-0.156597,-0.987662,-8.78936E-05],[-1,-1,-3,1],[9E+09,9E+09,9E+09,9E+09,9E+09,9E+09]],v50,z0,T2_R2\WObj:=DHI_WO_R2;
     MoveJ [[38.470,13.517,-93.000],[9.73406E-05,-0.156597,-0.987662,-8.78936E-05],[-1,-1,-3,1],[9E+09,9E+09,9E+09,9E+09,9E+09,9E+09]],v50,z0,T2_R2\WObj:=DHI_WO_R2;
     MoveJ [[38.510,13.707,-93.000],[9.73406E-05,-0.156597,-0.987662,-8.78936E-05],[-1,-1,-3,1],[9E+09,9E+09,9E+09,9E+09,9E+09,9E+09]],v50,z0,T2_R2\WObj:=DHI_WO_R2;
     MoveJ [[38.550,13.897,-93.000],[9.73406E-05,-0.156597,-0.987662,-8.78936E-05],[-1,-1,-3,1],[9E+09,9E+09,9E+09,9E+09,9E+09,9E+09]],v50,z0,T2_R2\WObj:=DHI_WO_R2;
     MoveJ [[38.610,14.179,-93.000],[9.73406E-05,-0.156597,-0.987662,-8.78936E-05],[-1,-1,-3,1],[9E+09,9E+09,9E+09,9E+09,9E+09,9E+09]],v50,z0,T2_R2\WObj:=DHI_WO_R2;
     MoveJ [[38.620,14.277,-93.000],[9.73406E-05,-0.156597,-0.987662,-8.78936E-05],[-1,-1,-3,1],[9E+09,9E+09,9E+09,9E+09,9E+09,9E+09]],v50,z0,T2_R2\WObj:=DHI_WO_R2;
     MoveJ [[38.700,14.657,-93.000],[9.73406E-05,-0.156597,-0.987662,-8.78936E-05],[-1,-1,-3,1],[9E+09,9E+09,9E+09,9E+09,9E+09,9E+09]],v50,z0,T2_R2\WObj:=DHI_WO_R2;
     MoveJ [[38.740,14.847,-93.000],[9.73406E-05,-0.156597,-0.987662,-8.78936E-05],[-1,-1,-3,1],[9E+09,9E+09,9E+09,9E+09,9E+09,9E+09]],v50,z0,T2_R2\WObj:=DHI_WO_R2;
     MoveJ [[38.920,15.798,-93.000],[9.73406E-05,-0.156597,-0.987662,-8.78936E-05],[-1,-1,-3,1],[9E+09,9E+09,9E+09,9E+09,9E+09,9E+09]],v50,z0,T2_R2\WObj:=DHI_WO_R2;
     MoveJ [[38.960,15.988,-93.000],[9.73406E-05,-0.156597,-0.987662,-8.78936E-05],[-1,-1,-3,1],[9E+09,9E+09,9E+09,9E+09,9E+09,9E+09]],v50,z0,T2_R2\WObj:=DHI_WO_R2;
     MoveJ [[38.990,16.136,-93.000],[9.73406E-05,-0.156597,-0.987662,-8.78936E-05],[-1,-1,-3,1],[9E+09,9E+09,9E+09,9E+09,9E+09,9E+09]],v50,z0,T2_R2\WObj:=DHI_WO_R2;
     MoveJ [[39.030,16.368,-93.000],[9.73406E-05,-0.156597,-0.987662,-8.78936E-05],[-1,-1,-3,1],[9E+09,9E+09,9E+09,9E+09,9E+09,9E+09]],v50,z0,T2_R2\WObj:=DHI_WO_R2;
     MoveJ [[39.070,16.558,-93.000],[9.73406E-05,-0.156597,-0.987662,-8.78936E-05],[-1,-1,-3,1],[9E+09,9E+09,9E+09,9E+09,9E+09,9E+09]],v50,z0,T2_R2\WObj:=DHI_WO_R2;
     MoveJ [[39.280,17.699,-93.000],[9.73406E-05,-0.156597,-0.987662,-8.78936E-05],[-1,-1,-3,1],[9E+09,9E+09,9E+09,9E+09,9E+09,9E+09]],v50,z0,T2_R2\WObj:=DHI_WO_R2;
     MoveJ [[39.310,17.889,-93.000],[9.73406E-05,-0.156597,-0.987662,-8.78936E-05],[-1,-1,-3,1],[9E+09,9E+09,9E+09,9E+09,9E+09,9E+09]],v50,z0,T2_R2\WObj:=DHI_WO_R2;
     MoveJ [[39.350,18.079,-93.000],[9.73406E-05,-0.156597,-0.987662,-8.78936E-05],[-1,-1,-3,1],[9E+09,9E+09,9E+09,9E+09,9E+09,9E+09]],v50,z0,T2_R2\WObj:=DHI_WO_R2;
     MoveJ [[39.520,19.029,-93.000],[9.73406E-05,-0.156597,-0.987662,-8.78936E-05],[-1,-1,-3,1],[9E+09,9E+09,9E+09,9E+09,9E+09,9E+09]],v50,z0,T2_R2\WObj:=DHI_WO_R2;
     MoveJ [[39.550,19.219,-93.000],[9.73406E-05,-0.156597,-0.987662,-8.78936E-05],[-1,-1,-3,1],[9E+09,9E+09,9E+09,9E+09,9E+09,9E+09]],v50,z0,T2_R2\WObj:=DHI_WO_R2;
     MoveJ [[39.680,19.980,-93.000],[9.73406E-05,-0.156597,-0.987662,-8.78936E-05],[-1,-1,-3,1],[9E+09,9E+09,9E+09,9E+09,9E+09,9E+09]],v50,z0,T2_R2\WObj:=DHI_WO_R2;
     MoveJ [[39.720,20.170,-93.000],[9.73406E-05,-0.156597,-0.987662,-8.78936E-05],[-1,-1,-3,1],[9E+09,9E+09,9E+09,9E+09,9E+09,9E+09]],v50,z0,T2_R2\WObj:=DHI_WO_R2;
     MoveJ [[39.810,20.740,-93.000],[9.73406E-05,-0.156597,-0.987662,-8.78936E-05],[-1,-1,-3,1],[9E+09,9E+09,9E+09,9E+09,9E+09,9E+09]],v50,z0,T2_R2\WObj:=DHI_WO_R2;
     MoveJ [[39.840,20.930,-93.000],[9.73406E-05,-0.156597,-0.987662,-8.78936E-05],[-1,-1,-3,1],[9E+09,9E+09,9E+09,9E+09,9E+09,9E+09]],v50,z0,T2_R2\WObj:=DHI_WO_R2;
     MoveJ [[39.960,21.690,-93.000],[9.73406E-05,-0.156597,-0.987662,-8.78936E-05],[-1,-1,-3,1],[9E+09,9E+09,9E+09,9E+09,9E+09,9E+09]],v50,z0,T2_R2\WObj:=DHI_WO_R2;
     MoveJ [[40.000,21.880,-93.000],[9.73406E-05,-0.156597,-0.987662,-8.78936E-05],[-1,-1,-3,1],[9E+09,9E+09,9E+09,9E+09,9E+09,9E+09]],v50,z0,T2_R2\WObj:=DHI_WO_R2;
     MoveJ [[40.110,22.641,-93.000],[9.73406E-05,-0.156597,-0.987662,-8.78936E-05],[-1,-1,-3,1],[9E+09,9E+09,9E+09,9E+09,9E+09,9E+09]],v50,z0,T2_R2\WObj:=DHI_WO_R2;
     MoveJ [[40.130,22.739,-93.000],[9.73406E-05,-0.156597,-0.987662,-8.78936E-05],[-1,-1,-3,1],[9E+09,9E+09,9E+09,9E+09,9E+09,9E+09]],v50,z0,T2_R2\WObj:=DHI_WO_R2;
     MoveJ [[40.250,23.591,-93.000],[9.73406E-05,-0.156597,-0.987662,-8.78936E-05],[-1,-1,-3,1],[9E+09,9E+09,9E+09,9E+09,9E+09,9E+09]],v50,z0,T2_R2\WObj:=DHI_WO_R2;
     MoveJ [[40.280,23.781,-93.000],[9.73406E-05,-0.156597,-0.987662,-8.78936E-05],[-1,-1,-3,1],[9E+09,9E+09,9E+09,9E+09,9E+09,9E+09]],v50,z0,T2_R2\WObj:=DHI_WO_R2;
     MoveJ [[40.360,24.352,-93.000],[9.73406E-05,-0.156597,-0.987662,-8.78936E-05],[-1,-1,-3,1],[9E+09,9E+09,9E+09,9E+09,9E+09,9E+09]],v50,z0,T2_R2\WObj:=DHI_WO_R2;
     MoveJ [[40.380,24.542,-93.000],[9.73406E-05,-0.156597,-0.987662,-8.78936E-05],[-1,-1,-3,1],[9E+09,9E+09,9E+09,9E+09,9E+09,9E+09]],v50,z0,T2_R2\WObj:=DHI_WO_R2;
     MoveJ [[40.480,25.302,-93.000],[9.73406E-05,-0.156597,-0.987662,-8.78936E-05],[-1,-1,-3,1],[9E+09,9E+09,9E+09,9E+09,9E+09,9E+09]],v50,z0,T2_R2\WObj:=DHI_WO_R2;
     MoveJ [[40.500,25.492,-93.000],[9.73406E-05,-0.156597,-0.987662,-8.78936E-05],[-1,-1,-3,1],[9E+09,9E+09,9E+09,9E+09,9E+09,9E+09]],v50,z0,T2_R2\WObj:=DHI_WO_R2;
     MoveJ [[40.570,26.062,-93.000],[9.73406E-05,-0.156597,-0.987662,-8.78936E-05],[-1,-1,-3,1],[9E+09,9E+09,9E+09,9E+09,9E+09,9E+09]],v50,z0,T2_R2\WObj:=DHI_WO_R2;
     MoveJ [[40.590,26.252,-93.000],[9.73406E-05,-0.156597,-0.987662,-8.78936E-05],[-1,-1,-3,1],[9E+09,9E+09,9E+09,9E+09,9E+09,9E+09]],v50,z0,T2_R2\WObj:=DHI_WO_R2;
     MoveJ [[40.670,27.013,-93.000],[9.73406E-05,-0.156597,-0.987662,-8.78936E-05],[-1,-1,-3,1],[9E+09,9E+09,9E+09,9E+09,9E+09,9E+09]],v50,z0,T2_R2\WObj:=DHI_WO_R2;
     MoveJ [[40.690,27.203,-93.000],[9.73406E-05,-0.156597,-0.987662,-8.78936E-05],[-1,-1,-3,1],[9E+09,9E+09,9E+09,9E+09,9E+09,9E+09]],v50,z0,T2_R2\WObj:=DHI_WO_R2;
     MoveJ [[40.740,27.773,-93.000],[9.73406E-05,-0.156597,-0.987662,-8.78936E-05],[-1,-1,-3,1],[9E+09,9E+09,9E+09,9E+09,9E+09,9E+09]],v50,z0,T2_R2\WObj:=DHI_WO_R2;
     MoveJ [[40.760,27.963,-93.000],[9.73406E-05,-0.156597,-0.987662,-8.78936E-05],[-1,-1,-3,1],[9E+09,9E+09,9E+09,9E+09,9E+09,9E+09]],v50,z0,T2_R2\WObj:=DHI_WO_R2;
     MoveJ [[40.810,28.533,-93.000],[9.73406E-05,-0.156597,-0.987662,-8.78936E-05],[-1,-1,-3,1],[9E+09,9E+09,9E+09,9E+09,9E+09,9E+09]],v50,z0,T2_R2\WObj:=DHI_WO_R2;
     MoveJ [[40.820,28.724,-93.000],[9.73406E-05,-0.156597,-0.987662,-8.78936E-05],[-1,-1,-3,1],[9E+09,9E+09,9E+09,9E+09,9E+09,9E+09]],v50,z0,T2_R2\WObj:=DHI_WO_R2;
     MoveJ [[40.870,29.484,-93.000],[9.73406E-05,-0.156597,-0.987662,-8.78936E-05],[-1,-1,-3,1],[9E+09,9E+09,9E+09,9E+09,9E+09,9E+09]],v50,z0,T2_R2\WObj:=DHI_WO_R2;
     MoveJ [[40.880,29.674,-93.000],[9.73406E-05,-0.156597,-0.987662,-8.78936E-05],[-1,-1,-3,1],[9E+09,9E+09,9E+09,9E+09,9E+09,9E+09]],v50,z0,T2_R2\WObj:=DHI_WO_R2;
     MoveJ [[40.910,30.244,-93.000],[9.73406E-05,-0.156597,-0.987662,-8.78936E-05],[-1,-1,-3,1],[9E+09,9E+09,9E+09,9E+09,9E+09,9E+09]],v50,z0,T2_R2\WObj:=DHI_WO_R2;
     MoveJ [[40.920,30.434,-93.000],[9.73406E-05,-0.156597,-0.987662,-8.78936E-05],[-1,-1,-3,1],[9E+09,9E+09,9E+09,9E+09,9E+09,9E+09]],v50,z0,T2_R2\WObj:=DHI_WO_R2;
     MoveJ [[40.940,30.814,-93.000],[9.73406E-05,-0.156597,-0.987662,-8.78936E-05],[-1,-1,-3,1],[9E+09,9E+09,9E+09,9E+09,9E+09,9E+09]],v50,z0,T2_R2\WObj:=DHI_WO_R2;
     MoveJ [[40.940,31.005,-93.000],[9.73406E-05,-0.156597,-0.987662,-8.78936E-05],[-1,-1,-3,1],[9E+09,9E+09,9E+09,9E+09,9E+09,9E+09]],v50,z0,T2_R2\WObj:=DHI_WO_R2;
     MoveJ [[40.950,31.385,-93.000],[9.73406E-05,-0.156597,-0.987662,-8.78936E-05],[-1,-1,-3,1],[9E+09,9E+09,9E+09,9E+09,9E+09,9E+09]],v50,z0,T2_R2\WObj:=DHI_WO_R2;
     MoveJ [[40.960,31.575,-93.000],[9.73406E-05,-0.156597,-0.987662,-8.78936E-05],[-1,-1,-3,1],[9E+09,9E+09,9E+09,9E+09,9E+09,9E+09]],v50,z0,T2_R2\WObj:=DHI_WO_R2;
     MoveJ [[40.960,31.955,-93.000],[9.73406E-05,-0.156597,-0.987662,-8.78936E-05],[-1,-1,-3,1],[9E+09,9E+09,9E+09,9E+09,9E+09,9E+09]],v50,z0,T2_R2\WObj:=DHI_WO_R2;
     MoveJ [[40.960,32.145,-93.000],[9.73406E-05,-0.156597,-0.987662,-8.78936E-05],[-1,-1,-3,1],[9E+09,9E+09,9E+09,9E+09,9E+09,9E+09]],v50,z0,T2_R2\WObj:=DHI_WO_R2;
     MoveJ [[40.960,32.525,-93.000],[9.73406E-05,-0.156597,-0.987662,-8.78936E-05],[-1,-1,-3,1],[9E+09,9E+09,9E+09,9E+09,9E+09,9E+09]],v50,z0,T2_R2\WObj:=DHI_WO_R2;
     MoveJ [[40.960,32.715,-93.000],[9.73406E-05,-0.156597,-0.987662,-8.78936E-05],[-1,-1,-3,1],[9E+09,9E+09,9E+09,9E+09,9E+09,9E+09]],v50,z0,T2_R2\WObj:=DHI_WO_R2;
     MoveJ [[40.950,33.095,-93.000],[9.73406E-05,-0.156597,-0.987662,-8.78936E-05],[-1,-1,-3,1],[9E+09,9E+09,9E+09,9E+09,9E+09,9E+09]],v50,z0,T2_R2\WObj:=DHI_WO_R2;
     MoveJ [[40.950,33.286,-93.000],[9.73406E-05,-0.156597,-0.987662,-8.78936E-05],[-1,-1,-3,1],[9E+09,9E+09,9E+09,9E+09,9E+09,9E+09]],v50,z0,T2_R2\WObj:=DHI_WO_R2;
     MoveJ [[40.930,33.666,-93.000],[9.73406E-05,-0.156597,-0.987662,-8.78936E-05],[-1,-1,-3,1],[9E+09,9E+09,9E+09,9E+09,9E+09,9E+09]],v50,z0,T2_R2\WObj:=DHI_WO_R2;
     MoveJ [[40.920,33.856,-93.000],[9.73406E-05,-0.156597,-0.987662,-8.78936E-05],[-1,-1,-3,1],[9E+09,9E+09,9E+09,9E+09,9E+09,9E+09]],v50,z0,T2_R2\WObj:=DHI_WO_R2;
     MoveJ [[40.900,34.236,-93.000],[9.73406E-05,-0.156597,-0.987662,-8.78936E-05],[-1,-1,-3,1],[9E+09,9E+09,9E+09,9E+09,9E+09,9E+09]],v50,z0,T2_R2\WObj:=DHI_WO_R2;
     MoveJ [[40.890,34.426,-93.000],[9.73406E-05,-0.156597,-0.987662,-8.78936E-05],[-1,-1,-3,1],[9E+09,9E+09,9E+09,9E+09,9E+09,9E+09]],v50,z0,T2_R2\WObj:=DHI_WO_R2;
     MoveJ [[40.860,34.806,-93.000],[9.73406E-05,-0.156597,-0.987662,-8.78936E-05],[-1,-1,-3,1],[9E+09,9E+09,9E+09,9E+09,9E+09,9E+09]],v50,z0,T2_R2\WObj:=DHI_WO_R2;
     MoveJ [[40.850,34.996,-93.000],[9.73406E-05,-0.156597,-0.987662,-8.78936E-05],[-1,-1,-3,1],[9E+09,9E+09,9E+09,9E+09,9E+09,9E+09]],v50,z0,T2_R2\WObj:=DHI_WO_R2;
     MoveJ [[40.810,35.377,-93.000],[9.73406E-05,-0.156597,-0.987662,-8.78936E-05],[-1,-1,-3,1],[9E+09,9E+09,9E+09,9E+09,9E+09,9E+09]],v50,z0,T2_R2\WObj:=DHI_WO_R2;
     MoveJ [[40.790,35.567,-93.000],[9.73406E-05,-0.156597,-0.987662,-8.78936E-05],[-1,-1,-3,1],[9E+09,9E+09,9E+09,9E+09,9E+09,9E+09]],v50,z0,T2_R2\WObj:=DHI_WO_R2;
     MoveJ [[40.770,35.757,-93.000],[9.73406E-05,-0.156597,-0.987662,-8.78936E-05],[-1,-1,-3,1],[9E+09,9E+09,9E+09,9E+09,9E+09,9E+09]],v50,z0,T2_R2\WObj:=DHI_WO_R2;
     MoveJ [[40.740,35.947,-93.000],[9.73406E-05,-0.156597,-0.987662,-8.78936E-05],[-1,-1,-3,1],[9E+09,9E+09,9E+09,9E+09,9E+09,9E+09]],v50,z0,T2_R2\WObj:=DHI_WO_R2;
     MoveJ [[40.690,36.327,-93.000],[9.73406E-05,-0.156597,-0.987662,-8.78936E-05],[-1,-1,-3,1],[9E+09,9E+09,9E+09,9E+09,9E+09,9E+09]],v50,z0,T2_R2\WObj:=DHI_WO_R2;
     MoveJ [[40.660,36.517,-93.000],[9.73406E-05,-0.156597,-0.987662,-8.78936E-05],[-1,-1,-3,1],[9E+09,9E+09,9E+09,9E+09,9E+09,9E+09]],v50,z0,T2_R2\WObj:=DHI_WO_R2;
     MoveJ [[40.630,36.707,-93.000],[9.73406E-05,-0.156597,-0.987662,-8.78936E-05],[-1,-1,-3,1],[9E+09,9E+09,9E+09,9E+09,9E+09,9E+09]],v50,z0,T2_R2\WObj:=DHI_WO_R2;
     MoveJ [[40.600,36.897,-93.000],[9.73406E-05,-0.156597,-0.987662,-8.78936E-05],[-1,-1,-3,1],[9E+09,9E+09,9E+09,9E+09,9E+09,9E+09]],v50,z0,T2_R2\WObj:=DHI_WO_R2;
     MoveJ [[40.530,37.277,-93.000],[9.73406E-05,-0.156597,-0.987662,-8.78936E-05],[-1,-1,-3,1],[9E+09,9E+09,9E+09,9E+09,9E+09,9E+09]],v50,z0,T2_R2\WObj:=DHI_WO_R2;
     MoveJ [[40.510,37.387,-93.000],[9.73406E-05,-0.156597,-0.987662,-8.78936E-05],[-1,-1,-3,1],[9E+09,9E+09,9E+09,9E+09,9E+09,9E+09]],v50,z0,T2_R2\WObj:=DHI_WO_R2;
     MoveJ [[40.450,37.658,-93.000],[9.73406E-05,-0.156597,-0.987662,-8.78936E-05],[-1,-1,-3,1],[9E+09,9E+09,9E+09,9E+09,9E+09,9E+09]],v50,z0,T2_R2\WObj:=DHI_WO_R2;
     MoveJ [[40.410,37.848,-93.000],[9.73406E-05,-0.156597,-0.987662,-8.78936E-05],[-1,-1,-3,1],[9E+09,9E+09,9E+09,9E+09,9E+09,9E+09]],v50,z0,T2_R2\WObj:=DHI_WO_R2;
     MoveJ [[40.320,38.231,-93.000],[9.73406E-05,-0.156597,-0.987662,-8.78936E-05],[-1,-1,-3,1],[9E+09,9E+09,9E+09,9E+09,9E+09,9E+09]],v50,z0,T2_R2\WObj:=DHI_WO_R2;
     MoveJ [[40.270,38.418,-93.000],[9.73406E-05,-0.156597,-0.987662,-8.78936E-05],[-1,-1,-3,1],[9E+09,9E+09,9E+09,9E+09,9E+09,9E+09]],v50,z0,T2_R2\WObj:=DHI_WO_R2;
     MoveJ [[40.220,38.608,-93.000],[9.73406E-05,-0.156597,-0.987662,-8.78936E-05],[-1,-1,-3,1],[9E+09,9E+09,9E+09,9E+09,9E+09,9E+09]],v50,z0,T2_R2\WObj:=DHI_WO_R2;
     MoveJ [[40.160,38.798,-93.000],[9.73406E-05,-0.156597,-0.987662,-8.78936E-05],[-1,-1,-3,1],[9E+09,9E+09,9E+09,9E+09,9E+09,9E+09]],v50,z0,T2_R2\WObj:=DHI_WO_R2;
     MoveJ [[40.050,39.178,-93.000],[9.73406E-05,-0.156597,-0.987662,-8.78936E-05],[-1,-1,-3,1],[9E+09,9E+09,9E+09,9E+09,9E+09,9E+09]],v50,z0,T2_R2\WObj:=DHI_WO_R2;
     MoveJ [[39.990,39.368,-93.000],[9.73406E-05,-0.156597,-0.987662,-8.78936E-05],[-1,-1,-3,1],[9E+09,9E+09,9E+09,9E+09,9E+09,9E+09]],v50,z0,T2_R2\WObj:=DHI_WO_R2;
     MoveJ [[39.930,39.558,-93.000],[9.73406E-05,-0.156597,-0.987662,-8.78936E-05],[-1,-1,-3,1],[9E+09,9E+09,9E+09,9E+09,9E+09,9E+09]],v50,z0,T2_R2\WObj:=DHI_WO_R2;
     MoveJ [[39.860,39.748,-93.000],[9.73406E-05,-0.156597,-0.987662,-8.78936E-05],[-1,-1,-3,1],[9E+09,9E+09,9E+09,9E+09,9E+09,9E+09]],v50,z0,T2_R2\WObj:=DHI_WO_R2;
     MoveJ [[39.720,40.129,-93.000],[9.73406E-05,-0.156597,-0.987662,-8.78936E-05],[-1,-1,-3,1],[9E+09,9E+09,9E+09,9E+09,9E+09,9E+09]],v50,z0,T2_R2\WObj:=DHI_WO_R2;
     MoveJ [[39.650,40.319,-93.000],[9.73406E-05,-0.156597,-0.987662,-8.78936E-05],[-1,-1,-3,1],[9E+09,9E+09,9E+09,9E+09,9E+09,9E+09]],v50,z0,T2_R2\WObj:=DHI_WO_R2;
     MoveJ [[39.560,40.543,-93.000],[9.73406E-05,-0.156597,-0.987662,-8.78936E-05],[-1,-1,-3,1],[9E+09,9E+09,9E+09,9E+09,9E+09,9E+09]],v50,z0,T2_R2\WObj:=DHI_WO_R2;
     MoveJ [[39.490,40.699,-93.000],[9.73406E-05,-0.156597,-0.987662,-8.78936E-05],[-1,-1,-3,1],[9E+09,9E+09,9E+09,9E+09,9E+09,9E+09]],v50,z0,T2_R2\WObj:=DHI_WO_R2;
     MoveJ [[39.370,40.985,-93.000],[9.73406E-05,-0.156597,-0.987662,-8.78936E-05],[-1,-1,-3,1],[9E+09,9E+09,9E+09,9E+09,9E+09,9E+09]],v50,z0,T2_R2\WObj:=DHI_WO_R2;
     MoveJ [[39.320,41.079,-93.000],[9.73406E-05,-0.156597,-0.987662,-8.78936E-05],[-1,-1,-3,1],[9E+09,9E+09,9E+09,9E+09,9E+09,9E+09]],v50,z0,T2_R2\WObj:=DHI_WO_R2;
     MoveJ [[39.150,41.459,-93.000],[9.73406E-05,-0.156597,-0.987662,-8.78936E-05],[-1,-1,-3,1],[9E+09,9E+09,9E+09,9E+09,9E+09,9E+09]],v50,z0,T2_R2\WObj:=DHI_WO_R2;
     MoveJ [[39.050,41.649,-93.000],[9.73406E-05,-0.156597,-0.987662,-8.78936E-05],[-1,-1,-3,1],[9E+09,9E+09,9E+09,9E+09,9E+09,9E+09]],v50,z0,T2_R2\WObj:=DHI_WO_R2;
     MoveJ [[38.950,41.839,-93.000],[9.73406E-05,-0.156597,-0.987662,-8.78936E-05],[-1,-1,-3,1],[9E+09,9E+09,9E+09,9E+09,9E+09,9E+09]],v50,z0,T2_R2\WObj:=DHI_WO_R2;
     MoveJ [[38.850,42.030,-93.000],[9.73406E-05,-0.156597,-0.987662,-8.78936E-05],[-1,-1,-3,1],[9E+09,9E+09,9E+09,9E+09,9E+09,9E+09]],v50,z0,T2_R2\WObj:=DHI_WO_R2;
     MoveJ [[38.750,42.220,-93.000],[9.73406E-05,-0.156597,-0.987662,-8.78936E-05],[-1,-1,-3,1],[9E+09,9E+09,9E+09,9E+09,9E+09,9E+09]],v50,z0,T2_R2\WObj:=DHI_WO_R2;
     MoveJ [[38.650,42.410,-93.000],[9.73406E-05,-0.156597,-0.987662,-8.78936E-05],[-1,-1,-3,1],[9E+09,9E+09,9E+09,9E+09,9E+09,9E+09]],v50,z0,T2_R2\WObj:=DHI_WO_R2;
     MoveJ [[38.540,42.600,-93.000],[9.73406E-05,-0.156597,-0.987662,-8.78936E-05],[-1,-1,-3,1],[9E+09,9E+09,9E+09,9E+09,9E+09,9E+09]],v50,z0,T2_R2\WObj:=DHI_WO_R2;
     MoveJ [[38.420,42.790,-93.000],[9.73406E-05,-0.156597,-0.987662,-8.78936E-05],[-1,-1,-3,1],[9E+09,9E+09,9E+09,9E+09,9E+09,9E+09]],v50,z0,T2_R2\WObj:=DHI_WO_R2;
     MoveJ [[38.230,43.113,-93.000],[9.73406E-05,-0.156597,-0.987662,-8.78936E-05],[-1,-1,-3,1],[9E+09,9E+09,9E+09,9E+09,9E+09,9E+09]],v50,z0,T2_R2\WObj:=DHI_WO_R2;
     MoveJ [[38.220,43.128,-93.000],[9.73406E-05,-0.156597,-0.987662,-8.78936E-05],[-1,-1,-3,1],[9E+09,9E+09,9E+09,9E+09,9E+09,9E+09]],v50,z0,T2_R2\WObj:=DHI_WO_R2;
     MoveJ [[38.210,43.144,-93.000],[9.73406E-05,-0.156597,-0.987662,-8.78936E-05],[-1,-1,-3,1],[9E+09,9E+09,9E+09,9E+09,9E+09,9E+09]],v50,z0,T2_R2\WObj:=DHI_WO_R2;
     MoveJ [[38.200,43.144,-93.000],[9.73406E-05,-0.156597,-0.987662,-8.78936E-05],[-1,-1,-3,1],[9E+09,9E+09,9E+09,9E+09,9E+09,9E+09]],v50,z0,T2_R2\WObj:=DHI_WO_R2;
     MoveJ [[36.510,43.144,-93.000],[9.73406E-05,-0.156597,-0.987662,-8.78936E-05],[-1,-1,-3,1],[9E+09,9E+09,9E+09,9E+09,9E+09,9E+09]],v50,z0,T2_R2\WObj:=DHI_WO_R2;
     MoveJ [[31.000,43.143,-93.000],[9.73406E-05,-0.156597,-0.987662,-8.78936E-05],[-1,-1,-3,1],[9E+09,9E+09,9E+09,9E+09,9E+09,9E+09]],v50,z0,T2_R2\WObj:=DHI_WO_R2;
     MoveJ [[30.810,43.138,-93.000],[9.73406E-05,-0.156597,-0.987662,-8.78936E-05],[-1,-1,-3,1],[9E+09,9E+09,9E+09,9E+09,9E+09,9E+09]],v50,z0,T2_R2\WObj:=DHI_WO_R2;
     MoveJ [[30.620,43.131,-93.000],[9.73406E-05,-0.156597,-0.987662,-8.78936E-05],[-1,-1,-3,1],[9E+09,9E+09,9E+09,9E+09,9E+09,9E+09]],v50,z0,T2_R2\WObj:=DHI_WO_R2;
     MoveJ [[30.240,43.116,-93.000],[9.73406E-05,-0.156597,-0.987662,-8.78936E-05],[-1,-1,-3,1],[9E+09,9E+09,9E+09,9E+09,9E+09,9E+09]],v50,z0,T2_R2\WObj:=DHI_WO_R2;
     MoveJ [[30.050,43.108,-93.000],[9.73406E-05,-0.156597,-0.987662,-8.78936E-05],[-1,-1,-3,1],[9E+09,9E+09,9E+09,9E+09,9E+09,9E+09]],v50,z0,T2_R2\WObj:=DHI_WO_R2;
     MoveJ [[29.290,43.077,-93.000],[9.73406E-05,-0.156597,-0.987662,-8.78936E-05],[-1,-1,-3,1],[9E+09,9E+09,9E+09,9E+09,9E+09,9E+09]],v50,z0,T2_R2\WObj:=DHI_WO_R2;
     MoveJ [[29.100,43.070,-93.000],[9.73406E-05,-0.156597,-0.987662,-8.78936E-05],[-1,-1,-3,1],[9E+09,9E+09,9E+09,9E+09,9E+09,9E+09]],v50,z0,T2_R2\WObj:=DHI_WO_R2;
     MoveJ [[28.340,43.039,-93.000],[9.73406E-05,-0.156597,-0.987662,-8.78936E-05],[-1,-1,-3,1],[9E+09,9E+09,9E+09,9E+09,9E+09,9E+09]],v50,z0,T2_R2\WObj:=DHI_WO_R2;
     MoveJ [[28.150,43.031,-93.000],[9.73406E-05,-0.156597,-0.987662,-8.78936E-05],[-1,-1,-3,1],[9E+09,9E+09,9E+09,9E+09,9E+09,9E+09]],v50,z0,T2_R2\WObj:=DHI_WO_R2;
     MoveJ [[26.820,42.971,-93.000],[9.73406E-05,-0.156597,-0.987662,-8.78936E-05],[-1,-1,-3,1],[9E+09,9E+09,9E+09,9E+09,9E+09,9E+09]],v50,z0,T2_R2\WObj:=DHI_WO_R2;
     MoveJ [[26.630,42.962,-93.000],[9.73406E-05,-0.156597,-0.987662,-8.78936E-05],[-1,-1,-3,1],[9E+09,9E+09,9E+09,9E+09,9E+09,9E+09]],v50,z0,T2_R2\WObj:=DHI_WO_R2;
     MoveJ [[26.440,42.954,-93.000],[9.73406E-05,-0.156597,-0.987662,-8.78936E-05],[-1,-1,-3,1],[9E+09,9E+09,9E+09,9E+09,9E+09,9E+09]],v50,z0,T2_R2\WObj:=DHI_WO_R2;
     MoveJ [[26.250,42.945,-93.000],[9.73406E-05,-0.156597,-0.987662,-8.78936E-05],[-1,-1,-3,1],[9E+09,9E+09,9E+09,9E+09,9E+09,9E+09]],v50,z0,T2_R2\WObj:=DHI_WO_R2;
     MoveJ [[25.680,42.917,-93.000],[9.73406E-05,-0.156597,-0.987662,-8.78936E-05],[-1,-1,-3,1],[9E+09,9E+09,9E+09,9E+09,9E+09,9E+09]],v50,z0,T2_R2\WObj:=DHI_WO_R2;
     MoveJ [[25.490,42.907,-93.000],[9.73406E-05,-0.156597,-0.987662,-8.78936E-05],[-1,-1,-3,1],[9E+09,9E+09,9E+09,9E+09,9E+09,9E+09]],v50,z0,T2_R2\WObj:=DHI_WO_R2;
     MoveJ [[24.540,42.858,-93.000],[9.73406E-05,-0.156597,-0.987662,-8.78936E-05],[-1,-1,-3,1],[9E+09,9E+09,9E+09,9E+09,9E+09,9E+09]],v50,z0,T2_R2\WObj:=DHI_WO_R2;
     MoveJ [[24.350,42.847,-93.000],[9.73406E-05,-0.156597,-0.987662,-8.78936E-05],[-1,-1,-3,1],[9E+09,9E+09,9E+09,9E+09,9E+09,9E+09]],v50,z0,T2_R2\WObj:=DHI_WO_R2;
     MoveJ [[23.780,42.815,-93.000],[9.73406E-05,-0.156597,-0.987662,-8.78936E-05],[-1,-1,-3,1],[9E+09,9E+09,9E+09,9E+09,9E+09,9E+09]],v50,z0,T2_R2\WObj:=DHI_WO_R2;
     MoveJ [[22.640,42.750,-93.000],[9.73406E-05,-0.156597,-0.987662,-8.78936E-05],[-1,-1,-3,1],[9E+09,9E+09,9E+09,9E+09,9E+09,9E+09]],v50,z0,T2_R2\WObj:=DHI_WO_R2;
     MoveJ [[22.450,42.739,-93.000],[9.73406E-05,-0.156597,-0.987662,-8.78936E-05],[-1,-1,-3,1],[9E+09,9E+09,9E+09,9E+09,9E+09,9E+09]],v50,z0,T2_R2\WObj:=DHI_WO_R2;
     MoveJ [[21.110,42.656,-93.000],[9.73406E-05,-0.156597,-0.987662,-8.78936E-05],[-1,-1,-3,1],[9E+09,9E+09,9E+09,9E+09,9E+09,9E+09]],v50,z0,T2_R2\WObj:=DHI_WO_R2;
     MoveJ [[20.920,42.645,-93.000],[9.73406E-05,-0.156597,-0.987662,-8.78936E-05],[-1,-1,-3,1],[9E+09,9E+09,9E+09,9E+09,9E+09,9E+09]],v50,z0,T2_R2\WObj:=DHI_WO_R2;
     MoveJ [[20.730,42.633,-93.000],[9.73406E-05,-0.156597,-0.987662,-8.78936E-05],[-1,-1,-3,1],[9E+09,9E+09,9E+09,9E+09,9E+09,9E+09]],v50,z0,T2_R2\WObj:=DHI_WO_R2;
     MoveJ [[20.540,42.621,-93.000],[9.73406E-05,-0.156597,-0.987662,-8.78936E-05],[-1,-1,-3,1],[9E+09,9E+09,9E+09,9E+09,9E+09,9E+09]],v50,z0,T2_R2\WObj:=DHI_WO_R2;
     MoveJ [[19.970,42.583,-93.000],[9.73406E-05,-0.156597,-0.987662,-8.78936E-05],[-1,-1,-3,1],[9E+09,9E+09,9E+09,9E+09,9E+09,9E+09]],v50,z0,T2_R2\WObj:=DHI_WO_R2;
     MoveJ [[19.780,42.570,-93.000],[9.73406E-05,-0.156597,-0.987662,-8.78936E-05],[-1,-1,-3,1],[9E+09,9E+09,9E+09,9E+09,9E+09,9E+09]],v50,z0,T2_R2\WObj:=DHI_WO_R2;
     MoveJ [[18.640,42.490,-93.000],[9.73406E-05,-0.156597,-0.987662,-8.78936E-05],[-1,-1,-3,1],[9E+09,9E+09,9E+09,9E+09,9E+09,9E+09]],v50,z0,T2_R2\WObj:=DHI_WO_R2;
     MoveJ [[18.450,42.475,-93.000],[9.73406E-05,-0.156597,-0.987662,-8.78936E-05],[-1,-1,-3,1],[9E+09,9E+09,9E+09,9E+09,9E+09,9E+09]],v50,z0,T2_R2\WObj:=DHI_WO_R2;
     MoveJ [[17.880,42.432,-93.000],[9.73406E-05,-0.156597,-0.987662,-8.78936E-05],[-1,-1,-3,1],[9E+09,9E+09,9E+09,9E+09,9E+09,9E+09]],v50,z0,T2_R2\WObj:=DHI_WO_R2;
     MoveJ [[17.690,42.418,-93.000],[9.73406E-05,-0.156597,-0.987662,-8.78936E-05],[-1,-1,-3,1],[9E+09,9E+09,9E+09,9E+09,9E+09,9E+09]],v50,z0,T2_R2\WObj:=DHI_WO_R2;
     MoveJ [[16.740,42.346,-93.000],[9.73406E-05,-0.156597,-0.987662,-8.78936E-05],[-1,-1,-3,1],[9E+09,9E+09,9E+09,9E+09,9E+09,9E+09]],v50,z0,T2_R2\WObj:=DHI_WO_R2;
     MoveJ [[16.550,42.331,-93.000],[9.73406E-05,-0.156597,-0.987662,-8.78936E-05],[-1,-1,-3,1],[9E+09,9E+09,9E+09,9E+09,9E+09,9E+09]],v50,z0,T2_R2\WObj:=DHI_WO_R2;
     MoveJ [[15.410,42.239,-93.000],[9.73406E-05,-0.156597,-0.987662,-8.78936E-05],[-1,-1,-3,1],[9E+09,9E+09,9E+09,9E+09,9E+09,9E+09]],v50,z0,T2_R2\WObj:=DHI_WO_R2;
     MoveJ [[15.220,42.223,-93.000],[9.73406E-05,-0.156597,-0.987662,-8.78936E-05],[-1,-1,-3,1],[9E+09,9E+09,9E+09,9E+09,9E+09,9E+09]],v50,z0,T2_R2\WObj:=DHI_WO_R2;
     MoveJ [[14.840,42.191,-93.000],[9.73406E-05,-0.156597,-0.987662,-8.78936E-05],[-1,-1,-3,1],[9E+09,9E+09,9E+09,9E+09,9E+09,9E+09]],v50,z0,T2_R2\WObj:=DHI_WO_R2;
     MoveJ [[14.650,42.174,-93.000],[9.73406E-05,-0.156597,-0.987662,-8.78936E-05],[-1,-1,-3,1],[9E+09,9E+09,9E+09,9E+09,9E+09,9E+09]],v50,z0,T2_R2\WObj:=DHI_WO_R2;
     MoveJ [[14.080,42.122,-93.000],[9.73406E-05,-0.156597,-0.987662,-8.78936E-05],[-1,-1,-3,1],[9E+09,9E+09,9E+09,9E+09,9E+09,9E+09]],v50,z0,T2_R2\WObj:=DHI_WO_R2;
     MoveJ [[12.940,42.019,-93.000],[9.73406E-05,-0.156597,-0.987662,-8.78936E-05],[-1,-1,-3,1],[9E+09,9E+09,9E+09,9E+09,9E+09,9E+09]],v50,z0,T2_R2\WObj:=DHI_WO_R2;
     MoveJ [[12.750,42.001,-93.000],[9.73406E-05,-0.156597,-0.987662,-8.78936E-05],[-1,-1,-3,1],[9E+09,9E+09,9E+09,9E+09,9E+09,9E+09]],v50,z0,T2_R2\WObj:=DHI_WO_R2;
     MoveJ [[11.610,41.891,-93.000],[9.73406E-05,-0.156597,-0.987662,-8.78936E-05],[-1,-1,-3,1],[9E+09,9E+09,9E+09,9E+09,9E+09,9E+09]],v50,z0,T2_R2\WObj:=DHI_WO_R2;
     MoveJ [[11.420,41.872,-93.000],[9.73406E-05,-0.156597,-0.987662,-8.78936E-05],[-1,-1,-3,1],[9E+09,9E+09,9E+09,9E+09,9E+09,9E+09]],v50,z0,T2_R2\WObj:=DHI_WO_R2;
     MoveJ [[10.850,41.814,-93.000],[9.73406E-05,-0.156597,-0.987662,-8.78936E-05],[-1,-1,-3,1],[9E+09,9E+09,9E+09,9E+09,9E+09,9E+09]],v50,z0,T2_R2\WObj:=DHI_WO_R2;
     MoveJ [[9.900,41.712,-93.000],[9.73406E-05,-0.156597,-0.987662,-8.78936E-05],[-1,-1,-3,1],[9E+09,9E+09,9E+09,9E+09,9E+09,9E+09]],v50,z0,T2_R2\WObj:=DHI_WO_R2;
     MoveJ [[8.950,41.610,-93.000],[9.73406E-05,-0.156597,-0.987662,-8.78936E-05],[-1,-1,-3,1],[9E+09,9E+09,9E+09,9E+09,9E+09,9E+09]],v50,z0,T2_R2\WObj:=DHI_WO_R2;
     MoveJ [[8.760,41.589,-93.000],[9.73406E-05,-0.156597,-0.987662,-8.78936E-05],[-1,-1,-3,1],[9E+09,9E+09,9E+09,9E+09,9E+09,9E+09]],v50,z0,T2_R2\WObj:=DHI_WO_R2;
     MoveJ [[8.380,41.546,-93.000],[9.73406E-05,-0.156597,-0.987662,-8.78936E-05],[-1,-1,-3,1],[9E+09,9E+09,9E+09,9E+09,9E+09,9E+09]],v50,z0,T2_R2\WObj:=DHI_WO_R2;
     MoveJ [[8.190,41.524,-93.000],[9.73406E-05,-0.156597,-0.987662,-8.78936E-05],[-1,-1,-3,1],[9E+09,9E+09,9E+09,9E+09,9E+09,9E+09]],v50,z0,T2_R2\WObj:=DHI_WO_R2;
     MoveJ [[7.050,41.387,-93.000],[9.73406E-05,-0.156597,-0.987662,-8.78936E-05],[-1,-1,-3,1],[9E+09,9E+09,9E+09,9E+09,9E+09,9E+09]],v50,z0,T2_R2\WObj:=DHI_WO_R2;
     MoveJ [[6.860,41.364,-93.000],[9.73406E-05,-0.156597,-0.987662,-8.78936E-05],[-1,-1,-3,1],[9E+09,9E+09,9E+09,9E+09,9E+09,9E+09]],v50,z0,T2_R2\WObj:=DHI_WO_R2;
     MoveJ [[5.330,41.172,-93.000],[9.73406E-05,-0.156597,-0.987662,-8.78936E-05],[-1,-1,-3,1],[9E+09,9E+09,9E+09,9E+09,9E+09,9E+09]],v50,z0,T2_R2\WObj:=DHI_WO_R2;
     MoveJ [[5.140,41.147,-93.000],[9.73406E-05,-0.156597,-0.987662,-8.78936E-05],[-1,-1,-3,1],[9E+09,9E+09,9E+09,9E+09,9E+09,9E+09]],v50,z0,T2_R2\WObj:=DHI_WO_R2;
     MoveJ [[4.950,41.122,-93.000],[9.73406E-05,-0.156597,-0.987662,-8.78936E-05],[-1,-1,-3,1],[9E+09,9E+09,9E+09,9E+09,9E+09,9E+09]],v50,z0,T2_R2\WObj:=DHI_WO_R2;
     MoveJ [[4.760,41.096,-93.000],[9.73406E-05,-0.156597,-0.987662,-8.78936E-05],[-1,-1,-3,1],[9E+09,9E+09,9E+09,9E+09,9E+09,9E+09]],v50,z0,T2_R2\WObj:=DHI_WO_R2;
     MoveJ [[3.810,40.962,-93.000],[9.73406E-05,-0.156597,-0.987662,-8.78936E-05],[-1,-1,-3,1],[9E+09,9E+09,9E+09,9E+09,9E+09,9E+09]],v50,z0,T2_R2\WObj:=DHI_WO_R2;
     MoveJ [[3.620,40.936,-93.000],[9.73406E-05,-0.156597,-0.987662,-8.78936E-05],[-1,-1,-3,1],[9E+09,9E+09,9E+09,9E+09,9E+09,9E+09]],v50,z0,T2_R2\WObj:=DHI_WO_R2;
     MoveJ [[2.860,40.829,-93.000],[9.73406E-05,-0.156597,-0.987662,-8.78936E-05],[-1,-1,-3,1],[9E+09,9E+09,9E+09,9E+09,9E+09,9E+09]],v50,z0,T2_R2\WObj:=DHI_WO_R2;
     MoveJ [[2.670,40.801,-93.000],[9.73406E-05,-0.156597,-0.987662,-8.78936E-05],[-1,-1,-3,1],[9E+09,9E+09,9E+09,9E+09,9E+09,9E+09]],v50,z0,T2_R2\WObj:=DHI_WO_R2;
     MoveJ [[2.480,40.772,-93.000],[9.73406E-05,-0.156597,-0.987662,-8.78936E-05],[-1,-1,-3,1],[9E+09,9E+09,9E+09,9E+09,9E+09,9E+09]],v50,z0,T2_R2\WObj:=DHI_WO_R2;
     MoveJ [[0.770,40.505,-93.000],[9.73406E-05,-0.156597,-0.987662,-8.78936E-05],[-1,-1,-3,1],[9E+09,9E+09,9E+09,9E+09,9E+09,9E+09]],v50,z0,T2_R2\WObj:=DHI_WO_R2;
     MoveJ [[0.580,40.474,-93.000],[9.73406E-05,-0.156597,-0.987662,-8.78936E-05],[-1,-1,-3,1],[9E+09,9E+09,9E+09,9E+09,9E+09,9E+09]],v50,z0,T2_R2\WObj:=DHI_WO_R2;
     MoveJ [[0.200,40.412,-93.000],[9.73406E-05,-0.156597,-0.987662,-8.78936E-05],[-1,-1,-3,1],[9E+09,9E+09,9E+09,9E+09,9E+09,9E+09]],v50,z0,T2_R2\WObj:=DHI_WO_R2;
     MoveJ [[0.010,40.379,-93.000],[9.73406E-05,-0.156597,-0.987662,-8.78936E-05],[-1,-1,-3,1],[9E+09,9E+09,9E+09,9E+09,9E+09,9E+09]],v50,z0,T2_R2\WObj:=DHI_WO_R2;
     MoveJ [[-1.320,40.148,-93.000],[9.73406E-05,-0.156597,-0.987662,-8.78936E-05],[-1,-1,-3,1],[9E+09,9E+09,9E+09,9E+09,9E+09,9E+09]],v50,z0,T2_R2\WObj:=DHI_WO_R2;
     MoveJ [[-1.430,40.129,-93.000],[9.73406E-05,-0.156597,-0.987662,-8.78936E-05],[-1,-1,-3,1],[9E+09,9E+09,9E+09,9E+09,9E+09,9E+09]],v50,z0,T2_R2\WObj:=DHI_WO_R2;
     MoveJ [[-1.890,40.045,-93.000],[9.73406E-05,-0.156597,-0.987662,-8.78936E-05],[-1,-1,-3,1],[9E+09,9E+09,9E+09,9E+09,9E+09,9E+09]],v50,z0,T2_R2\WObj:=DHI_WO_R2;
     MoveJ [[-2.080,40.011,-93.000],[9.73406E-05,-0.156597,-0.987662,-8.78936E-05],[-1,-1,-3,1],[9E+09,9E+09,9E+09,9E+09,9E+09,9E+09]],v50,z0,T2_R2\WObj:=DHI_WO_R2;
     MoveJ [[-3.440,39.748,-93.000],[9.73406E-05,-0.156597,-0.987662,-8.78936E-05],[-1,-1,-3,1],[9E+09,9E+09,9E+09,9E+09,9E+09,9E+09]],v50,z0,T2_R2\WObj:=DHI_WO_R2;
     MoveJ [[-3.600,39.716,-93.000],[9.73406E-05,-0.156597,-0.987662,-8.78936E-05],[-1,-1,-3,1],[9E+09,9E+09,9E+09,9E+09,9E+09,9E+09]],v50,z0,T2_R2\WObj:=DHI_WO_R2;
     MoveJ [[-3.980,39.640,-93.000],[9.73406E-05,-0.156597,-0.987662,-8.78936E-05],[-1,-1,-3,1],[9E+09,9E+09,9E+09,9E+09,9E+09,9E+09]],v50,z0,T2_R2\WObj:=DHI_WO_R2;
     MoveJ [[-4.170,39.600,-93.000],[9.73406E-05,-0.156597,-0.987662,-8.78936E-05],[-1,-1,-3,1],[9E+09,9E+09,9E+09,9E+09,9E+09,9E+09]],v50,z0,T2_R2\WObj:=DHI_WO_R2;
     MoveJ [[-5.500,39.315,-93.000],[9.73406E-05,-0.156597,-0.987662,-8.78936E-05],[-1,-1,-3,1],[9E+09,9E+09,9E+09,9E+09,9E+09,9E+09]],v50,z0,T2_R2\WObj:=DHI_WO_R2;
     MoveJ [[-5.690,39.274,-93.000],[9.73406E-05,-0.156597,-0.987662,-8.78936E-05],[-1,-1,-3,1],[9E+09,9E+09,9E+09,9E+09,9E+09,9E+09]],v50,z0,T2_R2\WObj:=DHI_WO_R2;
     MoveJ [[-5.880,39.232,-93.000],[9.73406E-05,-0.156597,-0.987662,-8.78936E-05],[-1,-1,-3,1],[9E+09,9E+09,9E+09,9E+09,9E+09,9E+09]],v50,z0,T2_R2\WObj:=DHI_WO_R2;
     MoveJ [[-6.070,39.187,-93.000],[9.73406E-05,-0.156597,-0.987662,-8.78936E-05],[-1,-1,-3,1],[9E+09,9E+09,9E+09,9E+09,9E+09,9E+09]],v50,z0,T2_R2\WObj:=DHI_WO_R2;
     MoveJ [[-7.700,38.798,-93.000],[9.73406E-05,-0.156597,-0.987662,-8.78936E-05],[-1,-1,-3,1],[9E+09,9E+09,9E+09,9E+09,9E+09,9E+09]],v50,z0,T2_R2\WObj:=DHI_WO_R2;
     MoveJ [[-7.780,38.778,-93.000],[9.73406E-05,-0.156597,-0.987662,-8.78936E-05],[-1,-1,-3,1],[9E+09,9E+09,9E+09,9E+09,9E+09,9E+09]],v50,z0,T2_R2\WObj:=DHI_WO_R2;
     MoveJ [[-7.970,38.728,-93.000],[9.73406E-05,-0.156597,-0.987662,-8.78936E-05],[-1,-1,-3,1],[9E+09,9E+09,9E+09,9E+09,9E+09,9E+09]],v50,z0,T2_R2\WObj:=DHI_WO_R2;
     MoveJ [[-9.310,38.375,-93.000],[9.73406E-05,-0.156597,-0.987662,-8.78936E-05],[-1,-1,-3,1],[9E+09,9E+09,9E+09,9E+09,9E+09,9E+09]],v50,z0,T2_R2\WObj:=DHI_WO_R2;
     MoveJ [[-9.500,38.321,-93.000],[9.73406E-05,-0.156597,-0.987662,-8.78936E-05],[-1,-1,-3,1],[9E+09,9E+09,9E+09,9E+09,9E+09,9E+09]],v50,z0,T2_R2\WObj:=DHI_WO_R2;
     MoveJ [[-10.070,38.158,-93.000],[9.73406E-05,-0.156597,-0.987662,-8.78936E-05],[-1,-1,-3,1],[9E+09,9E+09,9E+09,9E+09,9E+09,9E+09]],v50,z0,T2_R2\WObj:=DHI_WO_R2;
     MoveJ [[-10.260,38.102,-93.000],[9.73406E-05,-0.156597,-0.987662,-8.78936E-05],[-1,-1,-3,1],[9E+09,9E+09,9E+09,9E+09,9E+09,9E+09]],v50,z0,T2_R2\WObj:=DHI_WO_R2;
     MoveJ [[-10.640,37.990,-93.000],[9.73406E-05,-0.156597,-0.987662,-8.78936E-05],[-1,-1,-3,1],[9E+09,9E+09,9E+09,9E+09,9E+09,9E+09]],v50,z0,T2_R2\WObj:=DHI_WO_R2;
     MoveJ [[-10.830,37.933,-93.000],[9.73406E-05,-0.156597,-0.987662,-8.78936E-05],[-1,-1,-3,1],[9E+09,9E+09,9E+09,9E+09,9E+09,9E+09]],v50,z0,T2_R2\WObj:=DHI_WO_R2;
     MoveJ [[-11.970,37.570,-93.000],[9.73406E-05,-0.156597,-0.987662,-8.78936E-05],[-1,-1,-3,1],[9E+09,9E+09,9E+09,9E+09,9E+09,9E+09]],v50,z0,T2_R2\WObj:=DHI_WO_R2;
     MoveJ [[-12.160,37.509,-93.000],[9.73406E-05,-0.156597,-0.987662,-8.78936E-05],[-1,-1,-3,1],[9E+09,9E+09,9E+09,9E+09,9E+09,9E+09]],v50,z0,T2_R2\WObj:=DHI_WO_R2;
     MoveJ [[-12.280,37.467,-93.000],[9.73406E-05,-0.156597,-0.987662,-8.78936E-05],[-1,-1,-3,1],[9E+09,9E+09,9E+09,9E+09,9E+09,9E+09]],v50,z0,T2_R2\WObj:=DHI_WO_R2;
     MoveJ [[-12.540,37.375,-93.000],[9.73406E-05,-0.156597,-0.987662,-8.78936E-05],[-1,-1,-3,1],[9E+09,9E+09,9E+09,9E+09,9E+09,9E+09]],v50,z0,T2_R2\WObj:=DHI_WO_R2;
     MoveJ [[-12.730,37.308,-93.000],[9.73406E-05,-0.156597,-0.987662,-8.78936E-05],[-1,-1,-3,1],[9E+09,9E+09,9E+09,9E+09,9E+09,9E+09]],v50,z0,T2_R2\WObj:=DHI_WO_R2;
     MoveJ [[-13.300,37.104,-93.000],[9.73406E-05,-0.156597,-0.987662,-8.78936E-05],[-1,-1,-3,1],[9E+09,9E+09,9E+09,9E+09,9E+09,9E+09]],v50,z0,T2_R2\WObj:=DHI_WO_R2;
     MoveJ [[-13.350,37.087,-93.000],[9.73406E-05,-0.156597,-0.987662,-8.78936E-05],[-1,-1,-3,1],[9E+09,9E+09,9E+09,9E+09,9E+09,9E+09]],v50,z0,T2_R2\WObj:=DHI_WO_R2;
     MoveJ [[-13.490,37.034,-93.000],[9.73406E-05,-0.156597,-0.987662,-8.78936E-05],[-1,-1,-3,1],[9E+09,9E+09,9E+09,9E+09,9E+09,9E+09]],v50,z0,T2_R2\WObj:=DHI_WO_R2;
     MoveJ [[-13.870,36.881,-93.000],[9.73406E-05,-0.156597,-0.987662,-8.78936E-05],[-1,-1,-3,1],[9E+09,9E+09,9E+09,9E+09,9E+09,9E+09]],v50,z0,T2_R2\WObj:=DHI_WO_R2;
     MoveJ [[-14.440,36.652,-93.000],[9.73406E-05,-0.156597,-0.987662,-8.78936E-05],[-1,-1,-3,1],[9E+09,9E+09,9E+09,9E+09,9E+09,9E+09]],v50,z0,T2_R2\WObj:=DHI_WO_R2;
     MoveJ [[-14.630,36.574,-93.000],[9.73406E-05,-0.156597,-0.987662,-8.78936E-05],[-1,-1,-3,1],[9E+09,9E+09,9E+09,9E+09,9E+09,9E+09]],v50,z0,T2_R2\WObj:=DHI_WO_R2;
     MoveJ [[-15.200,36.319,-93.000],[9.73406E-05,-0.156597,-0.987662,-8.78936E-05],[-1,-1,-3,1],[9E+09,9E+09,9E+09,9E+09,9E+09,9E+09]],v50,z0,T2_R2\WObj:=DHI_WO_R2;
     MoveJ [[-15.390,36.232,-93.000],[9.73406E-05,-0.156597,-0.987662,-8.78936E-05],[-1,-1,-3,1],[9E+09,9E+09,9E+09,9E+09,9E+09,9E+09]],v50,z0,T2_R2\WObj:=DHI_WO_R2;
     MoveJ [[-15.590,36.137,-93.000],[9.73406E-05,-0.156597,-0.987662,-8.78936E-05],[-1,-1,-3,1],[9E+09,9E+09,9E+09,9E+09,9E+09,9E+09]],v50,z0,T2_R2\WObj:=DHI_WO_R2;
     MoveJ [[-15.770,36.048,-93.000],[9.73406E-05,-0.156597,-0.987662,-8.78936E-05],[-1,-1,-3,1],[9E+09,9E+09,9E+09,9E+09,9E+09,9E+09]],v50,z0,T2_R2\WObj:=DHI_WO_R2;
     MoveJ [[-16.530,35.652,-93.000],[9.73406E-05,-0.156597,-0.987662,-8.78936E-05],[-1,-1,-3,1],[9E+09,9E+09,9E+09,9E+09,9E+09,9E+09]],v50,z0,T2_R2\WObj:=DHI_WO_R2;
     MoveJ [[-16.680,35.567,-93.000],[9.73406E-05,-0.156597,-0.987662,-8.78936E-05],[-1,-1,-3,1],[9E+09,9E+09,9E+09,9E+09,9E+09,9E+09]],v50,z0,T2_R2\WObj:=DHI_WO_R2;
     MoveJ [[-17.320,35.186,-93.000],[9.73406E-05,-0.156597,-0.987662,-8.78936E-05],[-1,-1,-3,1],[9E+09,9E+09,9E+09,9E+09,9E+09,9E+09]],v50,z0,T2_R2\WObj:=DHI_WO_R2;
     MoveJ [[-17.480,35.082,-93.000],[9.73406E-05,-0.156597,-0.987662,-8.78936E-05],[-1,-1,-3,1],[9E+09,9E+09,9E+09,9E+09,9E+09,9E+09]],v50,z0,T2_R2\WObj:=DHI_WO_R2;
     MoveJ [[-17.610,34.996,-93.000],[9.73406E-05,-0.156597,-0.987662,-8.78936E-05],[-1,-1,-3,1],[9E+09,9E+09,9E+09,9E+09,9E+09,9E+09]],v50,z0,T2_R2\WObj:=DHI_WO_R2;
     MoveJ [[-17.670,34.951,-93.000],[9.73406E-05,-0.156597,-0.987662,-8.78936E-05],[-1,-1,-3,1],[9E+09,9E+09,9E+09,9E+09,9E+09,9E+09]],v50,z0,T2_R2\WObj:=DHI_WO_R2;
     MoveJ [[-18.050,34.685,-93.000],[9.73406E-05,-0.156597,-0.987662,-8.78936E-05],[-1,-1,-3,1],[9E+09,9E+09,9E+09,9E+09,9E+09,9E+09]],v50,z0,T2_R2\WObj:=DHI_WO_R2;
     MoveJ [[-18.140,34.616,-93.000],[9.73406E-05,-0.156597,-0.987662,-8.78936E-05],[-1,-1,-3,1],[9E+09,9E+09,9E+09,9E+09,9E+09,9E+09]],v50,z0,T2_R2\WObj:=DHI_WO_R2;
     MoveJ [[-18.240,34.535,-93.000],[9.73406E-05,-0.156597,-0.987662,-8.78936E-05],[-1,-1,-3,1],[9E+09,9E+09,9E+09,9E+09,9E+09,9E+09]],v50,z0,T2_R2\WObj:=DHI_WO_R2;
     MoveJ [[-18.620,34.224,-93.000],[9.73406E-05,-0.156597,-0.987662,-8.78936E-05],[-1,-1,-3,1],[9E+09,9E+09,9E+09,9E+09,9E+09,9E+09]],v50,z0,T2_R2\WObj:=DHI_WO_R2;
     MoveJ [[-18.810,34.055,-93.000],[9.73406E-05,-0.156597,-0.987662,-8.78936E-05],[-1,-1,-3,1],[9E+09,9E+09,9E+09,9E+09,9E+09,9E+09]],v50,z0,T2_R2\WObj:=DHI_WO_R2;
     MoveJ [[-19.020,33.856,-93.000],[9.73406E-05,-0.156597,-0.987662,-8.78936E-05],[-1,-1,-3,1],[9E+09,9E+09,9E+09,9E+09,9E+09,9E+09]],v50,z0,T2_R2\WObj:=DHI_WO_R2;
     MoveJ [[-19.190,33.686,-93.000],[9.73406E-05,-0.156597,-0.987662,-8.78936E-05],[-1,-1,-3,1],[9E+09,9E+09,9E+09,9E+09,9E+09,9E+09]],v50,z0,T2_R2\WObj:=DHI_WO_R2;
     MoveJ [[-19.210,33.666,-93.000],[9.73406E-05,-0.156597,-0.987662,-8.78936E-05],[-1,-1,-3,1],[9E+09,9E+09,9E+09,9E+09,9E+09,9E+09]],v50,z0,T2_R2\WObj:=DHI_WO_R2;
     MoveJ [[-19.380,33.476,-93.000],[9.73406E-05,-0.156597,-0.987662,-8.78936E-05],[-1,-1,-3,1],[9E+09,9E+09,9E+09,9E+09,9E+09,9E+09]],v50,z0,T2_R2\WObj:=DHI_WO_R2;
     MoveJ [[-19.700,33.095,-93.000],[9.73406E-05,-0.156597,-0.987662,-8.78936E-05],[-1,-1,-3,1],[9E+09,9E+09,9E+09,9E+09,9E+09,9E+09]],v50,z0,T2_R2\WObj:=DHI_WO_R2;
     MoveJ [[-19.760,33.008,-93.000],[9.73406E-05,-0.156597,-0.987662,-8.78936E-05],[-1,-1,-3,1],[9E+09,9E+09,9E+09,9E+09,9E+09,9E+09]],v50,z0,T2_R2\WObj:=DHI_WO_R2;
     MoveJ [[-19.830,32.905,-93.000],[9.73406E-05,-0.156597,-0.987662,-8.78936E-05],[-1,-1,-3,1],[9E+09,9E+09,9E+09,9E+09,9E+09,9E+09]],v50,z0,T2_R2\WObj:=DHI_WO_R2;
     MoveJ [[-19.950,32.722,-93.000],[9.73406E-05,-0.156597,-0.987662,-8.78936E-05],[-1,-1,-3,1],[9E+09,9E+09,9E+09,9E+09,9E+09,9E+09]],v50,z0,T2_R2\WObj:=DHI_WO_R2;
     MoveJ [[-20.080,32.525,-93.000],[9.73406E-05,-0.156597,-0.987662,-8.78936E-05],[-1,-1,-3,1],[9E+09,9E+09,9E+09,9E+09,9E+09,9E+09]],v50,z0,T2_R2\WObj:=DHI_WO_R2;
     MoveJ [[-20.140,32.397,-93.000],[9.73406E-05,-0.156597,-0.987662,-8.78936E-05],[-1,-1,-3,1],[9E+09,9E+09,9E+09,9E+09,9E+09,9E+09]],v50,z0,T2_R2\WObj:=DHI_WO_R2;
     MoveJ [[-20.330,32.004,-93.000],[9.73406E-05,-0.156597,-0.987662,-8.78936E-05],[-1,-1,-3,1],[9E+09,9E+09,9E+09,9E+09,9E+09,9E+09]],v50,z0,T2_R2\WObj:=DHI_WO_R2;
     MoveJ [[-20.360,31.955,-93.000],[9.73406E-05,-0.156597,-0.987662,-8.78936E-05],[-1,-1,-3,1],[9E+09,9E+09,9E+09,9E+09,9E+09,9E+09]],v50,z0,T2_R2\WObj:=DHI_WO_R2;
     MoveJ [[-20.420,31.765,-93.000],[9.73406E-05,-0.156597,-0.987662,-8.78936E-05],[-1,-1,-3,1],[9E+09,9E+09,9E+09,9E+09,9E+09,9E+09]],v50,z0,T2_R2\WObj:=DHI_WO_R2;
     MoveJ [[-20.540,31.385,-93.000],[9.73406E-05,-0.156597,-0.987662,-8.78936E-05],[-1,-1,-3,1],[9E+09,9E+09,9E+09,9E+09,9E+09,9E+09]],v50,z0,T2_R2\WObj:=DHI_WO_R2;
     MoveJ [[-20.580,31.195,-93.000],[9.73406E-05,-0.156597,-0.987662,-8.78936E-05],[-1,-1,-3,1],[9E+09,9E+09,9E+09,9E+09,9E+09,9E+09]],v50,z0,T2_R2\WObj:=DHI_WO_R2;
     MoveJ [[-20.640,30.814,-93.000],[9.73406E-05,-0.156597,-0.987662,-8.78936E-05],[-1,-1,-3,1],[9E+09,9E+09,9E+09,9E+09,9E+09,9E+09]],v50,z0,T2_R2\WObj:=DHI_WO_R2;
     MoveJ [[-20.660,30.624,-93.000],[9.73406E-05,-0.156597,-0.987662,-8.78936E-05],[-1,-1,-3,1],[9E+09,9E+09,9E+09,9E+09,9E+09,9E+09]],v50,z0,T2_R2\WObj:=DHI_WO_R2;
     MoveJ [[-20.670,30.244,-93.000],[9.73406E-05,-0.156597,-0.987662,-8.78936E-05],[-1,-1,-3,1],[9E+09,9E+09,9E+09,9E+09,9E+09,9E+09]],v50,z0,T2_R2\WObj:=DHI_WO_R2;
     MoveJ [[-20.660,30.054,-93.000],[9.73406E-05,-0.156597,-0.987662,-8.78936E-05],[-1,-1,-3,1],[9E+09,9E+09,9E+09,9E+09,9E+09,9E+09]],v50,z0,T2_R2\WObj:=DHI_WO_R2;
     MoveJ [[-20.640,29.864,-93.000],[9.73406E-05,-0.156597,-0.987662,-8.78936E-05],[-1,-1,-3,1],[9E+09,9E+09,9E+09,9E+09,9E+09,9E+09]],v50,z0,T2_R2\WObj:=DHI_WO_R2;
     MoveJ [[-20.610,29.674,-93.000],[9.73406E-05,-0.156597,-0.987662,-8.78936E-05],[-1,-1,-3,1],[9E+09,9E+09,9E+09,9E+09,9E+09,9E+09]],v50,z0,T2_R2\WObj:=DHI_WO_R2;
     MoveJ [[-20.580,29.484,-93.000],[9.73406E-05,-0.156597,-0.987662,-8.78936E-05],[-1,-1,-3,1],[9E+09,9E+09,9E+09,9E+09,9E+09,9E+09]],v50,z0,T2_R2\WObj:=DHI_WO_R2;
     MoveJ [[-20.540,29.294,-93.000],[9.73406E-05,-0.156597,-0.987662,-8.78936E-05],[-1,-1,-3,1],[9E+09,9E+09,9E+09,9E+09,9E+09,9E+09]],v50,z0,T2_R2\WObj:=DHI_WO_R2;
     MoveJ [[-20.490,29.104,-93.000],[9.73406E-05,-0.156597,-0.987662,-8.78936E-05],[-1,-1,-3,1],[9E+09,9E+09,9E+09,9E+09,9E+09,9E+09]],v50,z0,T2_R2\WObj:=DHI_WO_R2;
     MoveJ [[-20.440,28.914,-93.000],[9.73406E-05,-0.156597,-0.987662,-8.78936E-05],[-1,-1,-3,1],[9E+09,9E+09,9E+09,9E+09,9E+09,9E+09]],v50,z0,T2_R2\WObj:=DHI_WO_R2;
     MoveJ [[-20.380,28.724,-93.000],[9.73406E-05,-0.156597,-0.987662,-8.78936E-05],[-1,-1,-3,1],[9E+09,9E+09,9E+09,9E+09,9E+09,9E+09]],v50,z0,T2_R2\WObj:=DHI_WO_R2;
     MoveJ [[-20.310,28.533,-93.000],[9.73406E-05,-0.156597,-0.987662,-8.78936E-05],[-1,-1,-3,1],[9E+09,9E+09,9E+09,9E+09,9E+09,9E+09]],v50,z0,T2_R2\WObj:=DHI_WO_R2;
     MoveJ [[-20.240,28.343,-93.000],[9.73406E-05,-0.156597,-0.987662,-8.78936E-05],[-1,-1,-3,1],[9E+09,9E+09,9E+09,9E+09,9E+09,9E+09]],v50,z0,T2_R2\WObj:=DHI_WO_R2;
     MoveJ [[-20.060,27.963,-93.000],[9.73406E-05,-0.156597,-0.987662,-8.78936E-05],[-1,-1,-3,1],[9E+09,9E+09,9E+09,9E+09,9E+09,9E+09]],v50,z0,T2_R2\WObj:=DHI_WO_R2;
     MoveJ [[-19.960,27.773,-93.000],[9.73406E-05,-0.156597,-0.987662,-8.78936E-05],[-1,-1,-3,1],[9E+09,9E+09,9E+09,9E+09,9E+09,9E+09]],v50,z0,T2_R2\WObj:=DHI_WO_R2;
     MoveJ [[-19.860,27.583,-93.000],[9.73406E-05,-0.156597,-0.987662,-8.78936E-05],[-1,-1,-3,1],[9E+09,9E+09,9E+09,9E+09,9E+09,9E+09]],v50,z0,T2_R2\WObj:=DHI_WO_R2;
     MoveJ [[-19.760,27.418,-93.000],[9.73406E-05,-0.156597,-0.987662,-8.78936E-05],[-1,-1,-3,1],[9E+09,9E+09,9E+09,9E+09,9E+09,9E+09]],v50,z0,T2_R2\WObj:=DHI_WO_R2;
     MoveJ [[-19.750,27.393,-93.000],[9.73406E-05,-0.156597,-0.987662,-8.78936E-05],[-1,-1,-3,1],[9E+09,9E+09,9E+09,9E+09,9E+09,9E+09]],v50,z0,T2_R2\WObj:=DHI_WO_R2;
     MoveJ [[-19.620,27.203,-93.000],[9.73406E-05,-0.156597,-0.987662,-8.78936E-05],[-1,-1,-3,1],[9E+09,9E+09,9E+09,9E+09,9E+09,9E+09]],v50,z0,T2_R2\WObj:=DHI_WO_R2;
     MoveJ [[-19.500,27.013,-93.000],[9.73406E-05,-0.156597,-0.987662,-8.78936E-05],[-1,-1,-3,1],[9E+09,9E+09,9E+09,9E+09,9E+09,9E+09]],v50,z0,T2_R2\WObj:=DHI_WO_R2;
     MoveJ [[-19.380,26.845,-93.000],[9.73406E-05,-0.156597,-0.987662,-8.78936E-05],[-1,-1,-3,1],[9E+09,9E+09,9E+09,9E+09,9E+09,9E+09]],v50,z0,T2_R2\WObj:=DHI_WO_R2;
     MoveJ [[-19.000,26.362,-93.000],[9.73406E-05,-0.156597,-0.987662,-8.78936E-05],[-1,-1,-3,1],[9E+09,9E+09,9E+09,9E+09,9E+09,9E+09]],v50,z0,T2_R2\WObj:=DHI_WO_R2;
     MoveJ [[-18.910,26.252,-93.000],[9.73406E-05,-0.156597,-0.987662,-8.78936E-05],[-1,-1,-3,1],[9E+09,9E+09,9E+09,9E+09,9E+09,9E+09]],v50,z0,T2_R2\WObj:=DHI_WO_R2;
     MoveJ [[-18.600,25.872,-93.000],[9.73406E-05,-0.156597,-0.987662,-8.78936E-05],[-1,-1,-3,1],[9E+09,9E+09,9E+09,9E+09,9E+09,9E+09]],v50,z0,T2_R2\WObj:=DHI_WO_R2;
     MoveJ [[-18.430,25.683,-93.000],[9.73406E-05,-0.156597,-0.987662,-8.78936E-05],[-1,-1,-3,1],[9E+09,9E+09,9E+09,9E+09,9E+09,9E+09]],v50,z0,T2_R2\WObj:=DHI_WO_R2;
     MoveJ [[-17.860,25.100,-93.000],[9.73406E-05,-0.156597,-0.987662,-8.78936E-05],[-1,-1,-3,1],[9E+09,9E+09,9E+09,9E+09,9E+09,9E+09]],v50,z0,T2_R2\WObj:=DHI_WO_R2;
     MoveJ [[-17.680,24.922,-93.000],[9.73406E-05,-0.156597,-0.987662,-8.78936E-05],[-1,-1,-3,1],[9E+09,9E+09,9E+09,9E+09,9E+09,9E+09]],v50,z0,T2_R2\WObj:=DHI_WO_R2;
     MoveJ [[-17.480,24.723,-93.000],[9.73406E-05,-0.156597,-0.987662,-8.78936E-05],[-1,-1,-3,1],[9E+09,9E+09,9E+09,9E+09,9E+09,9E+09]],v50,z0,T2_R2\WObj:=DHI_WO_R2;
     MoveJ [[-17.290,24.557,-93.000],[9.73406E-05,-0.156597,-0.987662,-8.78936E-05],[-1,-1,-3,1],[9E+09,9E+09,9E+09,9E+09,9E+09,9E+09]],v50,z0,T2_R2\WObj:=DHI_WO_R2;
     MoveJ [[-16.830,24.161,-93.000],[9.73406E-05,-0.156597,-0.987662,-8.78936E-05],[-1,-1,-3,1],[9E+09,9E+09,9E+09,9E+09,9E+09,9E+09]],v50,z0,T2_R2\WObj:=DHI_WO_R2;
     MoveJ [[-16.720,24.071,-93.000],[9.73406E-05,-0.156597,-0.987662,-8.78936E-05],[-1,-1,-3,1],[9E+09,9E+09,9E+09,9E+09,9E+09,9E+09]],v50,z0,T2_R2\WObj:=DHI_WO_R2;
     MoveJ [[-16.140,23.591,-93.000],[9.73406E-05,-0.156597,-0.987662,-8.78936E-05],[-1,-1,-3,1],[9E+09,9E+09,9E+09,9E+09,9E+09,9E+09]],v50,z0,T2_R2\WObj:=DHI_WO_R2;
     MoveJ [[-15.960,23.456,-93.000],[9.73406E-05,-0.156597,-0.987662,-8.78936E-05],[-1,-1,-3,1],[9E+09,9E+09,9E+09,9E+09,9E+09,9E+09]],v50,z0,T2_R2\WObj:=DHI_WO_R2;
     MoveJ [[-15.890,23.401,-93.000],[9.73406E-05,-0.156597,-0.987662,-8.78936E-05],[-1,-1,-3,1],[9E+09,9E+09,9E+09,9E+09,9E+09,9E+09]],v50,z0,T2_R2\WObj:=DHI_WO_R2;
     MoveJ [[-15.580,23.176,-93.000],[9.73406E-05,-0.156597,-0.987662,-8.78936E-05],[-1,-1,-3,1],[9E+09,9E+09,9E+09,9E+09,9E+09,9E+09]],v50,z0,T2_R2\WObj:=DHI_WO_R2;
     MoveJ [[-15.390,23.039,-93.000],[9.73406E-05,-0.156597,-0.987662,-8.78936E-05],[-1,-1,-3,1],[9E+09,9E+09,9E+09,9E+09,9E+09,9E+09]],v50,z0,T2_R2\WObj:=DHI_WO_R2;
     MoveJ [[-15.010,22.767,-93.000],[9.73406E-05,-0.156597,-0.987662,-8.78936E-05],[-1,-1,-3,1],[9E+09,9E+09,9E+09,9E+09,9E+09,9E+09]],v50,z0,T2_R2\WObj:=DHI_WO_R2;
     MoveJ [[-14.830,22.641,-93.000],[9.73406E-05,-0.156597,-0.987662,-8.78936E-05],[-1,-1,-3,1],[9E+09,9E+09,9E+09,9E+09,9E+09,9E+09]],v50,z0,T2_R2\WObj:=DHI_WO_R2;
     MoveJ [[-14.630,22.502,-93.000],[9.73406E-05,-0.156597,-0.987662,-8.78936E-05],[-1,-1,-3,1],[9E+09,9E+09,9E+09,9E+09,9E+09,9E+09]],v50,z0,T2_R2\WObj:=DHI_WO_R2;
     MoveJ [[-14.550,22.451,-93.000],[9.73406E-05,-0.156597,-0.987662,-8.78936E-05],[-1,-1,-3,1],[9E+09,9E+09,9E+09,9E+09,9E+09,9E+09]],v50,z0,T2_R2\WObj:=DHI_WO_R2;
     MoveJ [[-14.060,22.132,-93.000],[9.73406E-05,-0.156597,-0.987662,-8.78936E-05],[-1,-1,-3,1],[9E+09,9E+09,9E+09,9E+09,9E+09,9E+09]],v50,z0,T2_R2\WObj:=DHI_WO_R2;
     MoveJ [[-13.960,22.071,-93.000],[9.73406E-05,-0.156597,-0.987662,-8.78936E-05],[-1,-1,-3,1],[9E+09,9E+09,9E+09,9E+09,9E+09,9E+09]],v50,z0,T2_R2\WObj:=DHI_WO_R2;
     MoveJ [[-13.300,21.653,-93.000],[9.73406E-05,-0.156597,-0.987662,-8.78936E-05],[-1,-1,-3,1],[9E+09,9E+09,9E+09,9E+09,9E+09,9E+09]],v50,z0,T2_R2\WObj:=DHI_WO_R2;
     MoveJ [[-13.110,21.536,-93.000],[9.73406E-05,-0.156597,-0.987662,-8.78936E-05],[-1,-1,-3,1],[9E+09,9E+09,9E+09,9E+09,9E+09,9E+09]],v50,z0,T2_R2\WObj:=DHI_WO_R2;
     MoveJ [[-13.050,21.500,-93.000],[9.73406E-05,-0.156597,-0.987662,-8.78936E-05],[-1,-1,-3,1],[9E+09,9E+09,9E+09,9E+09,9E+09,9E+09]],v50,z0,T2_R2\WObj:=DHI_WO_R2;
     MoveJ [[-12.920,21.421,-93.000],[9.73406E-05,-0.156597,-0.987662,-8.78936E-05],[-1,-1,-3,1],[9E+09,9E+09,9E+09,9E+09,9E+09,9E+09]],v50,z0,T2_R2\WObj:=DHI_WO_R2;
     MoveJ [[-12.730,21.311,-93.000],[9.73406E-05,-0.156597,-0.987662,-8.78936E-05],[-1,-1,-3,1],[9E+09,9E+09,9E+09,9E+09,9E+09,9E+09]],v50,z0,T2_R2\WObj:=DHI_WO_R2;
     MoveJ [[-12.050,20.930,-93.000],[9.73406E-05,-0.156597,-0.987662,-8.78936E-05],[-1,-1,-3,1],[9E+09,9E+09,9E+09,9E+09,9E+09,9E+09]],v50,z0,T2_R2\WObj:=DHI_WO_R2;
     MoveJ [[-11.970,20.882,-93.000],[9.73406E-05,-0.156597,-0.987662,-8.78936E-05],[-1,-1,-3,1],[9E+09,9E+09,9E+09,9E+09,9E+09,9E+09]],v50,z0,T2_R2\WObj:=DHI_WO_R2;
     MoveJ [[-11.210,20.465,-93.000],[9.73406E-05,-0.156597,-0.987662,-8.78936E-05],[-1,-1,-3,1],[9E+09,9E+09,9E+09,9E+09,9E+09,9E+09]],v50,z0,T2_R2\WObj:=DHI_WO_R2;
     MoveJ [[-11.020,20.362,-93.000],[9.73406E-05,-0.156597,-0.987662,-8.78936E-05],[-1,-1,-3,1],[9E+09,9E+09,9E+09,9E+09,9E+09,9E+09]],v50,z0,T2_R2\WObj:=DHI_WO_R2;
     MoveJ [[-11.010,20.360,-93.000],[9.73406E-05,-0.156597,-0.987662,-8.78936E-05],[-1,-1,-3,1],[9E+09,9E+09,9E+09,9E+09,9E+09,9E+09]],v50,z0,T2_R2\WObj:=DHI_WO_R2;
     MoveJ [[-10.830,20.261,-93.000],[9.73406E-05,-0.156597,-0.987662,-8.78936E-05],[-1,-1,-3,1],[9E+09,9E+09,9E+09,9E+09,9E+09,9E+09]],v50,z0,T2_R2\WObj:=DHI_WO_R2;
     MoveJ [[-10.650,20.170,-93.000],[9.73406E-05,-0.156597,-0.987662,-8.78936E-05],[-1,-1,-3,1],[9E+09,9E+09,9E+09,9E+09,9E+09,9E+09]],v50,z0,T2_R2\WObj:=DHI_WO_R2;
     MoveJ [[-10.070,19.880,-93.000],[9.73406E-05,-0.156597,-0.987662,-8.78936E-05],[-1,-1,-3,1],[9E+09,9E+09,9E+09,9E+09,9E+09,9E+09]],v50,z0,T2_R2\WObj:=DHI_WO_R2;
     MoveJ [[-9.880,19.789,-93.000],[9.73406E-05,-0.156597,-0.987662,-8.78936E-05],[-1,-1,-3,1],[9E+09,9E+09,9E+09,9E+09,9E+09,9E+09]],v50,z0,T2_R2\WObj:=DHI_WO_R2;
     MoveJ [[-8.930,19.321,-93.000],[9.73406E-05,-0.156597,-0.987662,-8.78936E-05],[-1,-1,-3,1],[9E+09,9E+09,9E+09,9E+09,9E+09,9E+09]],v50,z0,T2_R2\WObj:=DHI_WO_R2;
     MoveJ [[-8.740,19.234,-93.000],[9.73406E-05,-0.156597,-0.987662,-8.78936E-05],[-1,-1,-3,1],[9E+09,9E+09,9E+09,9E+09,9E+09,9E+09]],v50,z0,T2_R2\WObj:=DHI_WO_R2;
     MoveJ [[-7.860,18.839,-93.000],[9.73406E-05,-0.156597,-0.987662,-8.78936E-05],[-1,-1,-3,1],[9E+09,9E+09,9E+09,9E+09,9E+09,9E+09]],v50,z0,T2_R2\WObj:=DHI_WO_R2;
     MoveJ [[-7.780,18.806,-93.000],[9.73406E-05,-0.156597,-0.987662,-8.78936E-05],[-1,-1,-3,1],[9E+09,9E+09,9E+09,9E+09,9E+09,9E+09]],v50,z0,T2_R2\WObj:=DHI_WO_R2;
     MoveJ [[-6.830,18.389,-93.000],[9.73406E-05,-0.156597,-0.987662,-8.78936E-05],[-1,-1,-3,1],[9E+09,9E+09,9E+09,9E+09,9E+09,9E+09]],v50,z0,T2_R2\WObj:=DHI_WO_R2;
     MoveJ [[-6.640,18.307,-93.000],[9.73406E-05,-0.156597,-0.987662,-8.78936E-05],[-1,-1,-3,1],[9E+09,9E+09,9E+09,9E+09,9E+09,9E+09]],v50,z0,T2_R2\WObj:=DHI_WO_R2;
     MoveJ [[-6.550,18.269,-93.000],[9.73406E-05,-0.156597,-0.987662,-8.78936E-05],[-1,-1,-3,1],[9E+09,9E+09,9E+09,9E+09,9E+09,9E+09]],v50,z0,T2_R2\WObj:=DHI_WO_R2;
     MoveJ [[-5.620,17.889,-93.000],[9.73406E-05,-0.156597,-0.987662,-8.78936E-05],[-1,-1,-3,1],[9E+09,9E+09,9E+09,9E+09,9E+09,9E+09]],v50,z0,T2_R2\WObj:=DHI_WO_R2;
     MoveJ [[-5.500,17.844,-93.000],[9.73406E-05,-0.156597,-0.987662,-8.78936E-05],[-1,-1,-3,1],[9E+09,9E+09,9E+09,9E+09,9E+09,9E+09]],v50,z0,T2_R2\WObj:=DHI_WO_R2;
     MoveJ [[-4.550,17.465,-93.000],[9.73406E-05,-0.156597,-0.987662,-8.78936E-05],[-1,-1,-3,1],[9E+09,9E+09,9E+09,9E+09,9E+09,9E+09]],v50,z0,T2_R2\WObj:=DHI_WO_R2;
     MoveJ [[-4.360,17.392,-93.000],[9.73406E-05,-0.156597,-0.987662,-8.78936E-05],[-1,-1,-3,1],[9E+09,9E+09,9E+09,9E+09,9E+09,9E+09]],v50,z0,T2_R2\WObj:=DHI_WO_R2;
     MoveJ [[-3.410,17.041,-93.000],[9.73406E-05,-0.156597,-0.987662,-8.78936E-05],[-1,-1,-3,1],[9E+09,9E+09,9E+09,9E+09,9E+09,9E+09]],v50,z0,T2_R2\WObj:=DHI_WO_R2;
     MoveJ [[-3.220,16.971,-93.000],[9.73406E-05,-0.156597,-0.987662,-8.78936E-05],[-1,-1,-3,1],[9E+09,9E+09,9E+09,9E+09,9E+09,9E+09]],v50,z0,T2_R2\WObj:=DHI_WO_R2;
     MoveJ [[-2.460,16.696,-93.000],[9.73406E-05,-0.156597,-0.987662,-8.78936E-05],[-1,-1,-3,1],[9E+09,9E+09,9E+09,9E+09,9E+09,9E+09]],v50,z0,T2_R2\WObj:=DHI_WO_R2;
     MoveJ [[-2.270,16.627,-93.000],[9.73406E-05,-0.156597,-0.987662,-8.78936E-05],[-1,-1,-3,1],[9E+09,9E+09,9E+09,9E+09,9E+09,9E+09]],v50,z0,T2_R2\WObj:=DHI_WO_R2;
     MoveJ [[-2.080,16.560,-93.000],[9.73406E-05,-0.156597,-0.987662,-8.78936E-05],[-1,-1,-3,1],[9E+09,9E+09,9E+09,9E+09,9E+09,9E+09]],v50,z0,T2_R2\WObj:=DHI_WO_R2;
     MoveJ [[-1.890,16.495,-93.000],[9.73406E-05,-0.156597,-0.987662,-8.78936E-05],[-1,-1,-3,1],[9E+09,9E+09,9E+09,9E+09,9E+09,9E+09]],v50,z0,T2_R2\WObj:=DHI_WO_R2;
     MoveJ [[-1.700,16.431,-93.000],[9.73406E-05,-0.156597,-0.987662,-8.78936E-05],[-1,-1,-3,1],[9E+09,9E+09,9E+09,9E+09,9E+09,9E+09]],v50,z0,T2_R2\WObj:=DHI_WO_R2;
     MoveJ [[-0.940,16.174,-93.000],[9.73406E-05,-0.156597,-0.987662,-8.78936E-05],[-1,-1,-3,1],[9E+09,9E+09,9E+09,9E+09,9E+09,9E+09]],v50,z0,T2_R2\WObj:=DHI_WO_R2;
     MoveJ [[-0.750,16.111,-93.000],[9.73406E-05,-0.156597,-0.987662,-8.78936E-05],[-1,-1,-3,1],[9E+09,9E+09,9E+09,9E+09,9E+09,9E+09]],v50,z0,T2_R2\WObj:=DHI_WO_R2;
     MoveJ [[-0.180,15.923,-93.000],[9.73406E-05,-0.156597,-0.987662,-8.78936E-05],[-1,-1,-3,1],[9E+09,9E+09,9E+09,9E+09,9E+09,9E+09]],v50,z0,T2_R2\WObj:=DHI_WO_R2;
     MoveJ [[0.010,15.861,-93.000],[9.73406E-05,-0.156597,-0.987662,-8.78936E-05],[-1,-1,-3,1],[9E+09,9E+09,9E+09,9E+09,9E+09,9E+09]],v50,z0,T2_R2\WObj:=DHI_WO_R2;
     MoveJ [[0.210,15.798,-93.000],[9.73406E-05,-0.156597,-0.987662,-8.78936E-05],[-1,-1,-3,1],[9E+09,9E+09,9E+09,9E+09,9E+09,9E+09]],v50,z0,T2_R2\WObj:=DHI_WO_R2;
     MoveJ [[0.390,15.740,-93.000],[9.73406E-05,-0.156597,-0.987662,-8.78936E-05],[-1,-1,-3,1],[9E+09,9E+09,9E+09,9E+09,9E+09,9E+09]],v50,z0,T2_R2\WObj:=DHI_WO_R2;
     MoveJ [[0.960,15.562,-93.000],[9.73406E-05,-0.156597,-0.987662,-8.78936E-05],[-1,-1,-3,1],[9E+09,9E+09,9E+09,9E+09,9E+09,9E+09]],v50,z0,T2_R2\WObj:=DHI_WO_R2;
     MoveJ [[1.150,15.503,-93.000],[9.73406E-05,-0.156597,-0.987662,-8.78936E-05],[-1,-1,-3,1],[9E+09,9E+09,9E+09,9E+09,9E+09,9E+09]],v50,z0,T2_R2\WObj:=DHI_WO_R2;
     MoveJ [[1.530,15.385,-93.000],[9.73406E-05,-0.156597,-0.987662,-8.78936E-05],[-1,-1,-3,1],[9E+09,9E+09,9E+09,9E+09,9E+09,9E+09]],v50,z0,T2_R2\WObj:=DHI_WO_R2;
     MoveJ [[1.720,15.327,-93.000],[9.73406E-05,-0.156597,-0.987662,-8.78936E-05],[-1,-1,-3,1],[9E+09,9E+09,9E+09,9E+09,9E+09,9E+09]],v50,z0,T2_R2\WObj:=DHI_WO_R2;
     MoveJ [[1.910,15.270,-93.000],[9.73406E-05,-0.156597,-0.987662,-8.78936E-05],[-1,-1,-3,1],[9E+09,9E+09,9E+09,9E+09,9E+09,9E+09]],v50,z0,T2_R2\WObj:=DHI_WO_R2;
     MoveJ [[2.050,15.227,-93.000],[9.73406E-05,-0.156597,-0.987662,-8.78936E-05],[-1,-1,-3,1],[9E+09,9E+09,9E+09,9E+09,9E+09,9E+09]],v50,z0,T2_R2\WObj:=DHI_WO_R2;
     MoveJ [[2.860,14.991,-93.000],[9.73406E-05,-0.156597,-0.987662,-8.78936E-05],[-1,-1,-3,1],[9E+09,9E+09,9E+09,9E+09,9E+09,9E+09]],v50,z0,T2_R2\WObj:=DHI_WO_R2;
     MoveJ [[3.050,14.937,-93.000],[9.73406E-05,-0.156597,-0.987662,-8.78936E-05],[-1,-1,-3,1],[9E+09,9E+09,9E+09,9E+09,9E+09,9E+09]],v50,z0,T2_R2\WObj:=DHI_WO_R2;
     MoveJ [[4.030,14.657,-93.000],[9.73406E-05,-0.156597,-0.987662,-8.78936E-05],[-1,-1,-3,1],[9E+09,9E+09,9E+09,9E+09,9E+09,9E+09]],v50,z0,T2_R2\WObj:=DHI_WO_R2;
     MoveJ [[4.190,14.611,-93.000],[9.73406E-05,-0.156597,-0.987662,-8.78936E-05],[-1,-1,-3,1],[9E+09,9E+09,9E+09,9E+09,9E+09,9E+09]],v50,z0,T2_R2\WObj:=DHI_WO_R2;
     MoveJ [[4.380,14.560,-93.000],[9.73406E-05,-0.156597,-0.987662,-8.78936E-05],[-1,-1,-3,1],[9E+09,9E+09,9E+09,9E+09,9E+09,9E+09]],v50,z0,T2_R2\WObj:=DHI_WO_R2;
     MoveJ [[5.440,14.277,-93.000],[9.73406E-05,-0.156597,-0.987662,-8.78936E-05],[-1,-1,-3,1],[9E+09,9E+09,9E+09,9E+09,9E+09,9E+09]],v50,z0,T2_R2\WObj:=DHI_WO_R2;
     MoveJ [[6.100,14.105,-93.000],[9.73406E-05,-0.156597,-0.987662,-8.78936E-05],[-1,-1,-3,1],[9E+09,9E+09,9E+09,9E+09,9E+09,9E+09]],v50,z0,T2_R2\WObj:=DHI_WO_R2;
     MoveJ [[6.170,14.087,-93.000],[9.73406E-05,-0.156597,-0.987662,-8.78936E-05],[-1,-1,-3,1],[9E+09,9E+09,9E+09,9E+09,9E+09,9E+09]],v50,z0,T2_R2\WObj:=DHI_WO_R2;
     MoveJ [[6.670,13.960,-93.000],[9.73406E-05,-0.156597,-0.987662,-8.78936E-05],[-1,-1,-3,1],[9E+09,9E+09,9E+09,9E+09,9E+09,9E+09]],v50,z0,T2_R2\WObj:=DHI_WO_R2;
     MoveJ [[6.860,13.913,-93.000],[9.73406E-05,-0.156597,-0.987662,-8.78936E-05],[-1,-1,-3,1],[9E+09,9E+09,9E+09,9E+09,9E+09,9E+09]],v50,z0,T2_R2\WObj:=DHI_WO_R2;
     MoveJ [[7.810,13.677,-93.000],[9.73406E-05,-0.156597,-0.987662,-8.78936E-05],[-1,-1,-3,1],[9E+09,9E+09,9E+09,9E+09,9E+09,9E+09]],v50,z0,T2_R2\WObj:=DHI_WO_R2;
     MoveJ [[8.000,13.630,-93.000],[9.73406E-05,-0.156597,-0.987662,-8.78936E-05],[-1,-1,-3,1],[9E+09,9E+09,9E+09,9E+09,9E+09,9E+09]],v50,z0,T2_R2\WObj:=DHI_WO_R2;
     MoveJ [[8.190,13.583,-93.000],[9.73406E-05,-0.156597,-0.987662,-8.78936E-05],[-1,-1,-3,1],[9E+09,9E+09,9E+09,9E+09,9E+09,9E+09]],v50,z0,T2_R2\WObj:=DHI_WO_R2;
     MoveJ [[9.330,13.319,-93.000],[9.73406E-05,-0.156597,-0.987662,-8.78936E-05],[-1,-1,-3,1],[9E+09,9E+09,9E+09,9E+09,9E+09,9E+09]],v50,z0,T2_R2\WObj:=DHI_WO_R2;
     MoveJ [[9.520,13.275,-93.000],[9.73406E-05,-0.156597,-0.987662,-8.78936E-05],[-1,-1,-3,1],[9E+09,9E+09,9E+09,9E+09,9E+09,9E+09]],v50,z0,T2_R2\WObj:=DHI_WO_R2;
     MoveJ [[10.130,13.136,-93.000],[9.73406E-05,-0.156597,-0.987662,-8.78936E-05],[-1,-1,-3,1],[9E+09,9E+09,9E+09,9E+09,9E+09,9E+09]],v50,z0,T2_R2\WObj:=DHI_WO_R2;
     MoveJ [[10.280,13.102,-93.000],[9.73406E-05,-0.156597,-0.987662,-8.78936E-05],[-1,-1,-3,1],[9E+09,9E+09,9E+09,9E+09,9E+09,9E+09]],v50,z0,T2_R2\WObj:=DHI_WO_R2;
     MoveJ [[10.660,13.020,-93.000],[9.73406E-05,-0.156597,-0.987662,-8.78936E-05],[-1,-1,-3,1],[9E+09,9E+09,9E+09,9E+09,9E+09,9E+09]],v50,z0,T2_R2\WObj:=DHI_WO_R2;
     MoveJ [[10.850,12.978,-93.000],[9.73406E-05,-0.156597,-0.987662,-8.78936E-05],[-1,-1,-3,1],[9E+09,9E+09,9E+09,9E+09,9E+09,9E+09]],v50,z0,T2_R2\WObj:=DHI_WO_R2;
     MoveJ [[11.990,12.734,-93.000],[9.73406E-05,-0.156597,-0.987662,-8.78936E-05],[-1,-1,-3,1],[9E+09,9E+09,9E+09,9E+09,9E+09,9E+09]],v50,z0,T2_R2\WObj:=DHI_WO_R2;
     MoveJ [[12.180,12.693,-93.000],[9.73406E-05,-0.156597,-0.987662,-8.78936E-05],[-1,-1,-3,1],[9E+09,9E+09,9E+09,9E+09,9E+09,9E+09]],v50,z0,T2_R2\WObj:=DHI_WO_R2;
     MoveJ [[12.370,12.655,-93.000],[9.73406E-05,-0.156597,-0.987662,-8.78936E-05],[-1,-1,-3,1],[9E+09,9E+09,9E+09,9E+09,9E+09,9E+09]],v50,z0,T2_R2\WObj:=DHI_WO_R2;
     MoveJ [[13.510,12.427,-93.000],[9.73406E-05,-0.156597,-0.987662,-8.78936E-05],[-1,-1,-3,1],[9E+09,9E+09,9E+09,9E+09,9E+09,9E+09]],v50,z0,T2_R2\WObj:=DHI_WO_R2;
     MoveJ [[13.700,12.389,-93.000],[9.73406E-05,-0.156597,-0.987662,-8.78936E-05],[-1,-1,-3,1],[9E+09,9E+09,9E+09,9E+09,9E+09,9E+09]],v50,z0,T2_R2\WObj:=DHI_WO_R2;
     MoveJ [[14.080,12.314,-93.000],[9.73406E-05,-0.156597,-0.987662,-8.78936E-05],[-1,-1,-3,1],[9E+09,9E+09,9E+09,9E+09,9E+09,9E+09]],v50,z0,T2_R2\WObj:=DHI_WO_R2;
     MoveJ [[14.270,12.278,-93.000],[9.73406E-05,-0.156597,-0.987662,-8.78936E-05],[-1,-1,-3,1],[9E+09,9E+09,9E+09,9E+09,9E+09,9E+09]],v50,z0,T2_R2\WObj:=DHI_WO_R2;
     MoveJ [[14.840,12.171,-93.000],[9.73406E-05,-0.156597,-0.987662,-8.78936E-05],[-1,-1,-3,1],[9E+09,9E+09,9E+09,9E+09,9E+09,9E+09]],v50,z0,T2_R2\WObj:=DHI_WO_R2;
     MoveJ [[15.030,12.136,-93.000],[9.73406E-05,-0.156597,-0.987662,-8.78936E-05],[-1,-1,-3,1],[9E+09,9E+09,9E+09,9E+09,9E+09,9E+09]],v50,z0,T2_R2\WObj:=DHI_WO_R2;
     MoveJ [[16.170,11.926,-93.000],[9.73406E-05,-0.156597,-0.987662,-8.78936E-05],[-1,-1,-3,1],[9E+09,9E+09,9E+09,9E+09,9E+09,9E+09]],v50,z0,T2_R2\WObj:=DHI_WO_R2;
     MoveJ [[16.360,11.893,-93.000],[9.73406E-05,-0.156597,-0.987662,-8.78936E-05],[-1,-1,-3,1],[9E+09,9E+09,9E+09,9E+09,9E+09,9E+09]],v50,z0,T2_R2\WObj:=DHI_WO_R2;
     MoveJ [[16.550,11.860,-93.000],[9.73406E-05,-0.156597,-0.987662,-8.78936E-05],[-1,-1,-3,1],[9E+09,9E+09,9E+09,9E+09,9E+09,9E+09]],v50,z0,T2_R2\WObj:=DHI_WO_R2;
     MoveJ [[17.120,11.762,-93.000],[9.73406E-05,-0.156597,-0.987662,-8.78936E-05],[-1,-1,-3,1],[9E+09,9E+09,9E+09,9E+09,9E+09,9E+09]],v50,z0,T2_R2\WObj:=DHI_WO_R2;
     MoveJ [[17.310,11.730,-93.000],[9.73406E-05,-0.156597,-0.987662,-8.78936E-05],[-1,-1,-3,1],[9E+09,9E+09,9E+09,9E+09,9E+09,9E+09]],v50,z0,T2_R2\WObj:=DHI_WO_R2;
     MoveJ [[17.880,11.633,-93.000],[9.73406E-05,-0.156597,-0.987662,-8.78936E-05],[-1,-1,-3,1],[9E+09,9E+09,9E+09,9E+09,9E+09,9E+09]],v50,z0,T2_R2\WObj:=DHI_WO_R2;
     MoveJ [[17.980,11.616,-93.000],[9.73406E-05,-0.156597,-0.987662,-8.78936E-05],[-1,-1,-3,1],[9E+09,9E+09,9E+09,9E+09,9E+09,9E+09]],v50,z0,T2_R2\WObj:=DHI_WO_R2;
     MoveJ [[18.070,11.600,-93.000],[9.73406E-05,-0.156597,-0.987662,-8.78936E-05],[-1,-1,-3,1],[9E+09,9E+09,9E+09,9E+09,9E+09,9E+09]],v50,z0,T2_R2\WObj:=DHI_WO_R2;
     MoveJ [[18.260,11.569,-93.000],[9.73406E-05,-0.156597,-0.987662,-8.78936E-05],[-1,-1,-3,1],[9E+09,9E+09,9E+09,9E+09,9E+09,9E+09]],v50,z0,T2_R2\WObj:=DHI_WO_R2;
     MoveJ [[19.210,11.419,-93.000],[9.73406E-05,-0.156597,-0.987662,-8.78936E-05],[-1,-1,-3,1],[9E+09,9E+09,9E+09,9E+09,9E+09,9E+09]],v50,z0,T2_R2\WObj:=DHI_WO_R2;
     MoveJ [[19.400,11.389,-93.000],[9.73406E-05,-0.156597,-0.987662,-8.78936E-05],[-1,-1,-3,1],[9E+09,9E+09,9E+09,9E+09,9E+09,9E+09]],v50,z0,T2_R2\WObj:=DHI_WO_R2;
     MoveJ [[19.970,11.300,-93.000],[9.73406E-05,-0.156597,-0.987662,-8.78936E-05],[-1,-1,-3,1],[9E+09,9E+09,9E+09,9E+09,9E+09,9E+09]],v50,z0,T2_R2\WObj:=DHI_WO_R2;
     MoveJ [[20.160,11.270,-93.000],[9.73406E-05,-0.156597,-0.987662,-8.78936E-05],[-1,-1,-3,1],[9E+09,9E+09,9E+09,9E+09,9E+09,9E+09]],v50,z0,T2_R2\WObj:=DHI_WO_R2;
     MoveJ [[20.730,11.187,-93.000],[9.73406E-05,-0.156597,-0.987662,-8.78936E-05],[-1,-1,-3,1],[9E+09,9E+09,9E+09,9E+09,9E+09,9E+09]],v50,z0,T2_R2\WObj:=DHI_WO_R2;
     MoveJ [[20.920,11.160,-93.000],[9.73406E-05,-0.156597,-0.987662,-8.78936E-05],[-1,-1,-3,1],[9E+09,9E+09,9E+09,9E+09,9E+09,9E+09]],v50,z0,T2_R2\WObj:=DHI_WO_R2;
     MoveJ [[22.070,10.995,-93.000],[9.73406E-05,-0.156597,-0.987662,-8.78936E-05],[-1,-1,-3,1],[9E+09,9E+09,9E+09,9E+09,9E+09,9E+09]],v50,z0,T2_R2\WObj:=DHI_WO_R2;
     MoveJ [[22.260,10.969,-93.000],[9.73406E-05,-0.156597,-0.987662,-8.78936E-05],[-1,-1,-3,1],[9E+09,9E+09,9E+09,9E+09,9E+09,9E+09]],v50,z0,T2_R2\WObj:=DHI_WO_R2;
     MoveJ [[22.450,10.944,-93.000],[9.73406E-05,-0.156597,-0.987662,-8.78936E-05],[-1,-1,-3,1],[9E+09,9E+09,9E+09,9E+09,9E+09,9E+09]],v50,z0,T2_R2\WObj:=DHI_WO_R2;
     MoveJ [[23.400,10.818,-93.000],[9.73406E-05,-0.156597,-0.987662,-8.78936E-05],[-1,-1,-3,1],[9E+09,9E+09,9E+09,9E+09,9E+09,9E+09]],v50,z0,T2_R2\WObj:=DHI_WO_R2;
     MoveJ [[23.590,10.793,-93.000],[9.73406E-05,-0.156597,-0.987662,-8.78936E-05],[-1,-1,-3,1],[9E+09,9E+09,9E+09,9E+09,9E+09,9E+09]],v50,z0,T2_R2\WObj:=DHI_WO_R2;
     MoveJ [[23.970,10.743,-93.000],[9.73406E-05,-0.156597,-0.987662,-8.78936E-05],[-1,-1,-3,1],[9E+09,9E+09,9E+09,9E+09,9E+09,9E+09]],v50,z0,T2_R2\WObj:=DHI_WO_R2;
     MoveJ [[24.160,10.719,-93.000],[9.73406E-05,-0.156597,-0.987662,-8.78936E-05],[-1,-1,-3,1],[9E+09,9E+09,9E+09,9E+09,9E+09,9E+09]],v50,z0,T2_R2\WObj:=DHI_WO_R2;
     MoveJ [[25.490,10.559,-93.000],[9.73406E-05,-0.156597,-0.987662,-8.78936E-05],[-1,-1,-3,1],[9E+09,9E+09,9E+09,9E+09,9E+09,9E+09]],v50,z0,T2_R2\WObj:=DHI_WO_R2;
     MoveJ [[25.680,10.536,-93.000],[9.73406E-05,-0.156597,-0.987662,-8.78936E-05],[-1,-1,-3,1],[9E+09,9E+09,9E+09,9E+09,9E+09,9E+09]],v50,z0,T2_R2\WObj:=DHI_WO_R2;
     MoveJ [[26.060,10.491,-93.000],[9.73406E-05,-0.156597,-0.987662,-8.78936E-05],[-1,-1,-3,1],[9E+09,9E+09,9E+09,9E+09,9E+09,9E+09]],v50,z0,T2_R2\WObj:=DHI_WO_R2;
     MoveJ [[26.200,10.475,-93.000],[9.73406E-05,-0.156597,-0.987662,-8.78936E-05],[-1,-1,-3,1],[9E+09,9E+09,9E+09,9E+09,9E+09,9E+09]],v50,z0,T2_R2\WObj:=DHI_WO_R2;
     MoveJ [[27.010,10.388,-93.000],[9.73406E-05,-0.156597,-0.987662,-8.78936E-05],[-1,-1,-3,1],[9E+09,9E+09,9E+09,9E+09,9E+09,9E+09]],v50,z0,T2_R2\WObj:=DHI_WO_R2;
     MoveJ [[27.200,10.368,-93.000],[9.73406E-05,-0.156597,-0.987662,-8.78936E-05],[-1,-1,-3,1],[9E+09,9E+09,9E+09,9E+09,9E+09,9E+09]],v50,z0,T2_R2\WObj:=DHI_WO_R2;
     MoveJ [[27.970,10.285,-93.000],[9.73406E-05,-0.156597,-0.987662,-8.78936E-05],[-1,-1,-3,1],[9E+09,9E+09,9E+09,9E+09,9E+09,9E+09]],v50,z0,T2_R2\WObj:=DHI_WO_R2;
     MoveJ [[28.150,10.267,-93.000],[9.73406E-05,-0.156597,-0.987662,-8.78936E-05],[-1,-1,-3,1],[9E+09,9E+09,9E+09,9E+09,9E+09,9E+09]],v50,z0,T2_R2\WObj:=DHI_WO_R2;
     MoveJ [[28.720,10.212,-93.000],[9.73406E-05,-0.156597,-0.987662,-8.78936E-05],[-1,-1,-3,1],[9E+09,9E+09,9E+09,9E+09,9E+09,9E+09]],v50,z0,T2_R2\WObj:=DHI_WO_R2;
     MoveJ [[28.910,10.194,-93.000],[9.73406E-05,-0.156597,-0.987662,-8.78936E-05],[-1,-1,-3,1],[9E+09,9E+09,9E+09,9E+09,9E+09,9E+09]],v50,z0,T2_R2\WObj:=DHI_WO_R2;
     MoveJ [[29.940,10.095,-93.000],[9.73406E-05,-0.156597,-0.987662,-8.78936E-05],[-1,-1,-3,1],[9E+09,9E+09,9E+09,9E+09,9E+09,9E+09]],v50,z0,T2_R2\WObj:=DHI_WO_R2;
     MoveJ [[30.050,10.085,-93.000],[9.73406E-05,-0.156597,-0.987662,-8.78936E-05],[-1,-1,-3,1],[9E+09,9E+09,9E+09,9E+09,9E+09,9E+09]],v50,z0,T2_R2\WObj:=DHI_WO_R2;
     MoveJ [[30.430,10.049,-93.000],[9.73406E-05,-0.156597,-0.987662,-8.78936E-05],[-1,-1,-3,1],[9E+09,9E+09,9E+09,9E+09,9E+09,9E+09]],v50,z0,T2_R2\WObj:=DHI_WO_R2;
     MoveJ [[30.620,10.032,-93.000],[9.73406E-05,-0.156597,-0.987662,-8.78936E-05],[-1,-1,-3,1],[9E+09,9E+09,9E+09,9E+09,9E+09,9E+09]],v50,z0,T2_R2\WObj:=DHI_WO_R2;
     MoveJ [[31.000,9.997,-93.000],[9.73406E-05,-0.156597,-0.987662,-8.78936E-05],[-1,-1,-3,1],[9E+09,9E+09,9E+09,9E+09,9E+09,9E+09]],v50,z0,T2_R2\WObj:=DHI_WO_R2;
     MoveJ [[31.190,9.995,-93.000],[9.73406E-05,-0.156597,-0.987662,-8.78936E-05],[-1,-1,-3,1],[9E+09,9E+09,9E+09,9E+09,9E+09,9E+09]],v50,z0,T2_R2\WObj:=DHI_WO_R2;
     MoveJ [[34.290,9.995,-93.000],[9.73406E-05,-0.156597,-0.987662,-8.78936E-05],[-1,-1,-3,1],[9E+09,9E+09,9E+09,9E+09,9E+09,9E+09]],v50,z0,T2_R2\WObj:=DHI_WO_R2;
     MoveJ [[34.680,9.997,-93.000],[9.73406E-05,-0.156597,-0.987662,-8.78936E-05],[-1,-1,-3,1],[9E+09,9E+09,9E+09,9E+09,9E+09,9E+09]],v50,z0,T2_R2\WObj:=DHI_WO_R2;
     MoveJ [[35.080,10.000,-93.002],[9.73406E-05,-0.156597,-0.987662,-8.78936E-05],[-1,-1,-3,1],[9E+09,9E+09,9E+09,9E+09,9E+09,9E+09]],v50,z0,T2_R2\WObj:=DHI_WO_R2;
     MoveJ [[35.480,10.005,-93.003],[9.73406E-05,-0.156597,-0.987662,-8.78936E-05],[-1,-1,-3,1],[9E+09,9E+09,9E+09,9E+09,9E+09,9E+09]],v50,z0,T2_R2\WObj:=DHI_WO_R2;
     MoveJ [[35.880,10.013,-93.006],[9.73406E-05,-0.156597,-0.987662,-8.78936E-05],[-1,-1,-3,1],[9E+09,9E+09,9E+09,9E+09,9E+09,9E+09]],v50,z0,T2_R2\WObj:=DHI_WO_R2;
     MoveJ [[36.280,10.022,-93.010],[9.73406E-05,-0.156597,-0.987662,-8.78936E-05],[-1,-1,-3,1],[9E+09,9E+09,9E+09,9E+09,9E+09,9E+09]],v50,z0,T2_R2\WObj:=DHI_WO_R2;
     MoveJ [[36.680,10.033,-93.014],[9.73406E-05,-0.156597,-0.987662,-8.78936E-05],[-1,-1,-3,1],[9E+09,9E+09,9E+09,9E+09,9E+09,9E+09]],v50,z0,T2_R2\WObj:=DHI_WO_R2;
     MoveJ [[37.070,10.047,-93.018],[9.73406E-05,-0.156597,-0.987662,-8.78936E-05],[-1,-1,-3,1],[9E+09,9E+09,9E+09,9E+09,9E+09,9E+09]],v50,z0,T2_R2\WObj:=DHI_WO_R2;
     MoveJ [[37.470,10.062,-93.024],[9.73406E-05,-0.156597,-0.987662,-8.78936E-05],[-1,-1,-3,1],[9E+09,9E+09,9E+09,9E+09,9E+09,9E+09]],v50,z0,T2_R2\WObj:=DHI_WO_R2;
     MoveJ [[37.710,10.069,-93.026],[9.73406E-05,-0.156597,-0.987662,-8.78936E-05],[-1,-1,-3,1],[9E+09,9E+09,9E+09,9E+09,9E+09,9E+09]],v50,z0,T2_R2\WObj:=DHI_WO_R2;
     MoveJ [[37.740,10.070,-93.027],[9.73406E-05,-0.156597,-0.987662,-8.78936E-05],[-1,-1,-3,1],[9E+09,9E+09,9E+09,9E+09,9E+09,9E+09]],v50,z0,T2_R2\WObj:=DHI_WO_R2;
     MoveJ [[37.760,10.070,-93.027],[9.73406E-05,-0.156597,-0.987662,-8.78936E-05],[-1,-1,-3,1],[9E+09,9E+09,9E+09,9E+09,9E+09,9E+09]],v50,z0,T2_R2\WObj:=DHI_WO_R2;
     MoveJ [[37.760,10.071,-93.027],[9.73406E-05,-0.156597,-0.987662,-8.78936E-05],[-1,-1,-3,1],[9E+09,9E+09,9E+09,9E+09,9E+09,9E+09]],v50,z0,T2_R2\WObj:=DHI_WO_R2;
     MoveJ [[37.760,10.080,-93.027],[9.73406E-05,-0.156597,-0.987662,-8.78936E-05],[-1,-1,-3,1],[9E+09,9E+09,9E+09,9E+09,9E+09,9E+09]],v50,z0,T2_R2\WObj:=DHI_WO_R2;
     MoveJ [[37.770,10.100,-93.027],[9.73406E-05,-0.156597,-0.987662,-8.78936E-05],[-1,-1,-3,1],[9E+09,9E+09,9E+09,9E+09,9E+09,9E+09]],v50,z0,T2_R2\WObj:=DHI_WO_R2;
     MoveJ [[37.780,10.166,-93.028],[9.73406E-05,-0.156597,-0.987662,-8.78936E-05],[-1,-1,-3,1],[9E+09,9E+09,9E+09,9E+09,9E+09,9E+09]],v50,z0,T2_R2\WObj:=DHI_WO_R2;
     MoveJ [[37.800,10.284,-93.029],[9.73406E-05,-0.156597,-0.987662,-8.78936E-05],[-1,-1,-3,1],[9E+09,9E+09,9E+09,9E+09,9E+09,9E+09]],v50,z0,T2_R2\WObj:=DHI_WO_R2;
     MoveJ [[37.880,10.674,-93.035],[9.73406E-05,-0.156597,-0.987662,-8.78936E-05],[-1,-1,-3,1],[9E+09,9E+09,9E+09,9E+09,9E+09,9E+09]],v50,z0,T2_R2\WObj:=DHI_WO_R2;
     MoveJ [[37.950,11.034,-93.042],[9.73406E-05,-0.156597,-0.987662,-8.78936E-05],[-1,-1,-3,1],[9E+09,9E+09,9E+09,9E+09,9E+09,9E+09]],v50,z0,T2_R2\WObj:=DHI_WO_R2;
     MoveJ [[38.020,11.395,-93.049],[9.73406E-05,-0.156597,-0.987662,-8.78936E-05],[-1,-1,-3,1],[9E+09,9E+09,9E+09,9E+09,9E+09,9E+09]],v50,z0,T2_R2\WObj:=DHI_WO_R2;
     MoveJ [[38.090,11.749,-93.056],[9.73406E-05,-0.156597,-0.987662,-8.78936E-05],[-1,-1,-3,1],[9E+09,9E+09,9E+09,9E+09,9E+09,9E+09]],v50,z0,T2_R2\WObj:=DHI_WO_R2;
     MoveJ [[38.150,12.103,-93.064],[9.73406E-05,-0.156597,-0.987662,-8.78936E-05],[-1,-1,-3,1],[9E+09,9E+09,9E+09,9E+09,9E+09,9E+09]],v50,z0,T2_R2\WObj:=DHI_WO_R2;
     MoveJ [[38.220,12.457,-93.073],[9.73406E-05,-0.156597,-0.987662,-8.78936E-05],[-1,-1,-3,1],[9E+09,9E+09,9E+09,9E+09,9E+09,9E+09]],v50,z0,T2_R2\WObj:=DHI_WO_R2;
     MoveJ [[38.290,12.811,-93.082],[9.73406E-05,-0.156597,-0.987662,-8.78936E-05],[-1,-1,-3,1],[9E+09,9E+09,9E+09,9E+09,9E+09,9E+09]],v50,z0,T2_R2\WObj:=DHI_WO_R2;
     MoveJ [[38.360,13.203,-93.092],[9.73406E-05,-0.156597,-0.987662,-8.78936E-05],[-1,-1,-3,1],[9E+09,9E+09,9E+09,9E+09,9E+09,9E+09]],v50,z0,T2_R2\WObj:=DHI_WO_R2;
     MoveJ [[38.430,13.595,-93.103],[9.73406E-05,-0.156597,-0.987662,-8.78936E-05],[-1,-1,-3,1],[9E+09,9E+09,9E+09,9E+09,9E+09,9E+09]],v50,z0,T2_R2\WObj:=DHI_WO_R2;
     MoveJ [[38.500,13.987,-93.114],[9.73406E-05,-0.156597,-0.987662,-8.78936E-05],[-1,-1,-3,1],[9E+09,9E+09,9E+09,9E+09,9E+09,9E+09]],v50,z0,T2_R2\WObj:=DHI_WO_R2;
     MoveJ [[38.570,14.381,-93.126],[9.73406E-05,-0.156597,-0.987662,-8.78936E-05],[-1,-1,-3,1],[9E+09,9E+09,9E+09,9E+09,9E+09,9E+09]],v50,z0,T2_R2\WObj:=DHI_WO_R2;
     MoveJ [[38.640,14.773,-93.138],[9.73406E-05,-0.156597,-0.987662,-8.78936E-05],[-1,-1,-3,1],[9E+09,9E+09,9E+09,9E+09,9E+09,9E+09]],v50,z0,T2_R2\WObj:=DHI_WO_R2;
     MoveJ [[38.710,15.165,-93.150],[9.73406E-05,-0.156597,-0.987662,-8.78936E-05],[-1,-1,-3,1],[9E+09,9E+09,9E+09,9E+09,9E+09,9E+09]],v50,z0,T2_R2\WObj:=DHI_WO_R2;
     MoveJ [[38.780,15.558,-93.163],[9.73406E-05,-0.156597,-0.987662,-8.78936E-05],[-1,-1,-3,1],[9E+09,9E+09,9E+09,9E+09,9E+09,9E+09]],v50,z0,T2_R2\WObj:=DHI_WO_R2;
     MoveJ [[38.810,15.755,-93.170],[9.73406E-05,-0.156597,-0.987662,-8.78936E-05],[-1,-1,-3,1],[9E+09,9E+09,9E+09,9E+09,9E+09,9E+09]],v50,z0,T2_R2\WObj:=DHI_WO_R2;
     MoveJ [[38.850,15.952,-93.177],[9.73406E-05,-0.156597,-0.987662,-8.78936E-05],[-1,-1,-3,1],[9E+09,9E+09,9E+09,9E+09,9E+09,9E+09]],v50,z0,T2_R2\WObj:=DHI_WO_R2;
     MoveJ [[38.920,16.345,-93.190],[9.73406E-05,-0.156597,-0.987662,-8.78936E-05],[-1,-1,-3,1],[9E+09,9E+09,9E+09,9E+09,9E+09,9E+09]],v50,z0,T2_R2\WObj:=DHI_WO_R2;
     MoveJ [[38.980,16.739,-93.204],[9.73406E-05,-0.156597,-0.987662,-8.78936E-05],[-1,-1,-3,1],[9E+09,9E+09,9E+09,9E+09,9E+09,9E+09]],v50,z0,T2_R2\WObj:=DHI_WO_R2;
     MoveJ [[39.110,17.525,-93.232],[9.73406E-05,-0.156597,-0.987662,-8.78936E-05],[-1,-1,-3,1],[9E+09,9E+09,9E+09,9E+09,9E+09,9E+09]],v50,z0,T2_R2\WObj:=DHI_WO_R2;
     MoveJ [[39.180,17.919,-93.246],[9.73406E-05,-0.156597,-0.987662,-8.78936E-05],[-1,-1,-3,1],[9E+09,9E+09,9E+09,9E+09,9E+09,9E+09]],v50,z0,T2_R2\WObj:=DHI_WO_R2;
     MoveJ [[39.210,18.117,-93.253],[9.73406E-05,-0.156597,-0.987662,-8.78936E-05],[-1,-1,-3,1],[9E+09,9E+09,9E+09,9E+09,9E+09,9E+09]],v50,z0,T2_R2\WObj:=DHI_WO_R2;
     MoveJ [[39.240,18.315,-93.260],[9.73406E-05,-0.156597,-0.987662,-8.78936E-05],[-1,-1,-3,1],[9E+09,9E+09,9E+09,9E+09,9E+09,9E+09]],v50,z0,T2_R2\WObj:=DHI_WO_R2;
     MoveJ [[39.300,18.708,-93.274],[9.73406E-05,-0.156597,-0.987662,-8.78936E-05],[-1,-1,-3,1],[9E+09,9E+09,9E+09,9E+09,9E+09,9E+09]],v50,z0,T2_R2\WObj:=DHI_WO_R2;
     MoveJ [[39.330,18.906,-93.281],[9.73406E-05,-0.156597,-0.987662,-8.78936E-05],[-1,-1,-3,1],[9E+09,9E+09,9E+09,9E+09,9E+09,9E+09]],v50,z0,T2_R2\WObj:=DHI_WO_R2;
     MoveJ [[39.370,19.104,-93.288],[9.73406E-05,-0.156597,-0.987662,-8.78936E-05],[-1,-1,-3,1],[9E+09,9E+09,9E+09,9E+09,9E+09,9E+09]],v50,z0,T2_R2\WObj:=DHI_WO_R2;
     MoveJ [[39.490,19.891,-93.316],[9.73406E-05,-0.156597,-0.987662,-8.78936E-05],[-1,-1,-3,1],[9E+09,9E+09,9E+09,9E+09,9E+09,9E+09]],v50,z0,T2_R2\WObj:=DHI_WO_R2;
     MoveJ [[39.520,20.089,-93.323],[9.73406E-05,-0.156597,-0.987662,-8.78936E-05],[-1,-1,-3,1],[9E+09,9E+09,9E+09,9E+09,9E+09,9E+09]],v50,z0,T2_R2\WObj:=DHI_WO_R2;
     MoveJ [[39.540,20.287,-93.330],[9.73406E-05,-0.156597,-0.987662,-8.78936E-05],[-1,-1,-3,1],[9E+09,9E+09,9E+09,9E+09,9E+09,9E+09]],v50,z0,T2_R2\WObj:=DHI_WO_R2;
     MoveJ [[39.600,20.682,-93.344],[9.73406E-05,-0.156597,-0.987662,-8.78936E-05],[-1,-1,-3,1],[9E+09,9E+09,9E+09,9E+09,9E+09,9E+09]],v50,z0,T2_R2\WObj:=DHI_WO_R2;
     MoveJ [[39.630,20.880,-93.351],[9.73406E-05,-0.156597,-0.987662,-8.78936E-05],[-1,-1,-3,1],[9E+09,9E+09,9E+09,9E+09,9E+09,9E+09]],v50,z0,T2_R2\WObj:=DHI_WO_R2;
     MoveJ [[39.660,21.078,-93.358],[9.73406E-05,-0.156597,-0.987662,-8.78936E-05],[-1,-1,-3,1],[9E+09,9E+09,9E+09,9E+09,9E+09,9E+09]],v50,z0,T2_R2\WObj:=DHI_WO_R2;
     MoveJ [[39.740,21.671,-93.379],[9.73406E-05,-0.156597,-0.987662,-8.78936E-05],[-1,-1,-3,1],[9E+09,9E+09,9E+09,9E+09,9E+09,9E+09]],v50,z0,T2_R2\WObj:=DHI_WO_R2;
     MoveJ [[39.770,21.870,-93.386],[9.73406E-05,-0.156597,-0.987662,-8.78936E-05],[-1,-1,-3,1],[9E+09,9E+09,9E+09,9E+09,9E+09,9E+09]],v50,z0,T2_R2\WObj:=DHI_WO_R2;
     MoveJ [[39.880,22.660,-93.413],[9.73406E-05,-0.156597,-0.987662,-8.78936E-05],[-1,-1,-3,1],[9E+09,9E+09,9E+09,9E+09,9E+09,9E+09]],v50,z0,T2_R2\WObj:=DHI_WO_R2;
     MoveJ [[39.900,22.859,-93.420],[9.73406E-05,-0.156597,-0.987662,-8.78936E-05],[-1,-1,-3,1],[9E+09,9E+09,9E+09,9E+09,9E+09,9E+09]],v50,z0,T2_R2\WObj:=DHI_WO_R2;
     MoveJ [[39.930,23.057,-93.427],[9.73406E-05,-0.156597,-0.987662,-8.78936E-05],[-1,-1,-3,1],[9E+09,9E+09,9E+09,9E+09,9E+09,9E+09]],v50,z0,T2_R2\WObj:=DHI_WO_R2;
     MoveJ [[39.980,23.452,-93.441],[9.73406E-05,-0.156597,-0.987662,-8.78936E-05],[-1,-1,-3,1],[9E+09,9E+09,9E+09,9E+09,9E+09,9E+09]],v50,z0,T2_R2\WObj:=DHI_WO_R2;
     MoveJ [[40.000,23.651,-93.448],[9.73406E-05,-0.156597,-0.987662,-8.78936E-05],[-1,-1,-3,1],[9E+09,9E+09,9E+09,9E+09,9E+09,9E+09]],v50,z0,T2_R2\WObj:=DHI_WO_R2;
     MoveJ [[40.070,24.246,-93.469],[9.73406E-05,-0.156597,-0.987662,-8.78936E-05],[-1,-1,-3,1],[9E+09,9E+09,9E+09,9E+09,9E+09,9E+09]],v50,z0,T2_R2\WObj:=DHI_WO_R2;
     MoveJ [[40.090,24.445,-93.476],[9.73406E-05,-0.156597,-0.987662,-8.78936E-05],[-1,-1,-3,1],[9E+09,9E+09,9E+09,9E+09,9E+09,9E+09]],v50,z0,T2_R2\WObj:=DHI_WO_R2;
     MoveJ [[40.120,24.645,-93.483],[9.73406E-05,-0.156597,-0.987662,-8.78936E-05],[-1,-1,-3,1],[9E+09,9E+09,9E+09,9E+09,9E+09,9E+09]],v50,z0,T2_R2\WObj:=DHI_WO_R2;
     MoveJ [[40.180,25.240,-93.504],[9.73406E-05,-0.156597,-0.987662,-8.78936E-05],[-1,-1,-3,1],[9E+09,9E+09,9E+09,9E+09,9E+09,9E+09]],v50,z0,T2_R2\WObj:=DHI_WO_R2;
     MoveJ [[40.200,25.439,-93.511],[9.73406E-05,-0.156597,-0.987662,-8.78936E-05],[-1,-1,-3,1],[9E+09,9E+09,9E+09,9E+09,9E+09,9E+09]],v50,z0,T2_R2\WObj:=DHI_WO_R2;
     MoveJ [[40.260,26.036,-93.532],[9.73406E-05,-0.156597,-0.987662,-8.78936E-05],[-1,-1,-3,1],[9E+09,9E+09,9E+09,9E+09,9E+09,9E+09]],v50,z0,T2_R2\WObj:=DHI_WO_R2;
     MoveJ [[40.280,26.236,-93.539],[9.73406E-05,-0.156597,-0.987662,-8.78936E-05],[-1,-1,-3,1],[9E+09,9E+09,9E+09,9E+09,9E+09,9E+09]],v50,z0,T2_R2\WObj:=DHI_WO_R2;
     MoveJ [[40.350,27.032,-93.567],[9.73406E-05,-0.156597,-0.987662,-8.78936E-05],[-1,-1,-3,1],[9E+09,9E+09,9E+09,9E+09,9E+09,9E+09]],v50,z0,T2_R2\WObj:=DHI_WO_R2;
     MoveJ [[40.380,27.430,-93.581],[9.73406E-05,-0.156597,-0.987662,-8.78936E-05],[-1,-1,-3,1],[9E+09,9E+09,9E+09,9E+09,9E+09,9E+09]],v50,z0,T2_R2\WObj:=DHI_WO_R2;
     MoveJ [[40.410,27.828,-93.595],[9.73406E-05,-0.156597,-0.987662,-8.78936E-05],[-1,-1,-3,1],[9E+09,9E+09,9E+09,9E+09,9E+09,9E+09]],v50,z0,T2_R2\WObj:=DHI_WO_R2;
     MoveJ [[40.420,28.028,-93.602],[9.73406E-05,-0.156597,-0.987662,-8.78936E-05],[-1,-1,-3,1],[9E+09,9E+09,9E+09,9E+09,9E+09,9E+09]],v50,z0,T2_R2\WObj:=DHI_WO_R2;
     MoveJ [[40.430,28.227,-93.609],[9.73406E-05,-0.156597,-0.987662,-8.78936E-05],[-1,-1,-3,1],[9E+09,9E+09,9E+09,9E+09,9E+09,9E+09]],v50,z0,T2_R2\WObj:=DHI_WO_R2;
     MoveJ [[40.460,28.625,-93.623],[9.73406E-05,-0.156597,-0.987662,-8.78936E-05],[-1,-1,-3,1],[9E+09,9E+09,9E+09,9E+09,9E+09,9E+09]],v50,z0,T2_R2\WObj:=DHI_WO_R2;
     MoveJ [[40.470,28.825,-93.630],[9.73406E-05,-0.156597,-0.987662,-8.78936E-05],[-1,-1,-3,1],[9E+09,9E+09,9E+09,9E+09,9E+09,9E+09]],v50,z0,T2_R2\WObj:=DHI_WO_R2;
     MoveJ [[40.480,29.026,-93.637],[9.73406E-05,-0.156597,-0.987662,-8.78936E-05],[-1,-1,-3,1],[9E+09,9E+09,9E+09,9E+09,9E+09,9E+09]],v50,z0,T2_R2\WObj:=DHI_WO_R2;
     MoveJ [[40.490,29.423,-93.651],[9.73406E-05,-0.156597,-0.987662,-8.78936E-05],[-1,-1,-3,1],[9E+09,9E+09,9E+09,9E+09,9E+09,9E+09]],v50,z0,T2_R2\WObj:=DHI_WO_R2;
     MoveJ [[40.500,29.624,-93.658],[9.73406E-05,-0.156597,-0.987662,-8.78936E-05],[-1,-1,-3,1],[9E+09,9E+09,9E+09,9E+09,9E+09,9E+09]],v50,z0,T2_R2\WObj:=DHI_WO_R2;
     MoveJ [[40.510,29.825,-93.665],[9.73406E-05,-0.156597,-0.987662,-8.78936E-05],[-1,-1,-3,1],[9E+09,9E+09,9E+09,9E+09,9E+09,9E+09]],v50,z0,T2_R2\WObj:=DHI_WO_R2;
     MoveJ [[40.520,30.223,-93.679],[9.73406E-05,-0.156597,-0.987662,-8.78936E-05],[-1,-1,-3,1],[9E+09,9E+09,9E+09,9E+09,9E+09,9E+09]],v50,z0,T2_R2\WObj:=DHI_WO_R2;
     MoveJ [[40.530,30.423,-93.686],[9.73406E-05,-0.156597,-0.987662,-8.78936E-05],[-1,-1,-3,1],[9E+09,9E+09,9E+09,9E+09,9E+09,9E+09]],v50,z0,T2_R2\WObj:=DHI_WO_R2;
     MoveJ [[40.530,30.623,-93.693],[9.73406E-05,-0.156597,-0.987662,-8.78936E-05],[-1,-1,-3,1],[9E+09,9E+09,9E+09,9E+09,9E+09,9E+09]],v50,z0,T2_R2\WObj:=DHI_WO_R2;
     MoveJ [[40.530,30.824,-93.700],[9.73406E-05,-0.156597,-0.987662,-8.78936E-05],[-1,-1,-3,1],[9E+09,9E+09,9E+09,9E+09,9E+09,9E+09]],v50,z0,T2_R2\WObj:=DHI_WO_R2;
     MoveJ [[40.540,31.024,-93.707],[9.73406E-05,-0.156597,-0.987662,-8.78936E-05],[-1,-1,-3,1],[9E+09,9E+09,9E+09,9E+09,9E+09,9E+09]],v50,z0,T2_R2\WObj:=DHI_WO_R2;
     MoveJ [[40.540,31.224,-93.714],[9.73406E-05,-0.156597,-0.987662,-8.78936E-05],[-1,-1,-3,1],[9E+09,9E+09,9E+09,9E+09,9E+09,9E+09]],v50,z0,T2_R2\WObj:=DHI_WO_R2;
     MoveJ [[40.540,31.424,-93.720],[9.73406E-05,-0.156597,-0.987662,-8.78936E-05],[-1,-1,-3,1],[9E+09,9E+09,9E+09,9E+09,9E+09,9E+09]],v50,z0,T2_R2\WObj:=DHI_WO_R2;
     MoveJ [[40.540,31.823,-93.734],[9.73406E-05,-0.156597,-0.987662,-8.78936E-05],[-1,-1,-3,1],[9E+09,9E+09,9E+09,9E+09,9E+09,9E+09]],v50,z0,T2_R2\WObj:=DHI_WO_R2;
     MoveJ [[40.530,32.023,-93.741],[9.73406E-05,-0.156597,-0.987662,-8.78936E-05],[-1,-1,-3,1],[9E+09,9E+09,9E+09,9E+09,9E+09,9E+09]],v50,z0,T2_R2\WObj:=DHI_WO_R2;
     MoveJ [[40.530,32.223,-93.748],[9.73406E-05,-0.156597,-0.987662,-8.78936E-05],[-1,-1,-3,1],[9E+09,9E+09,9E+09,9E+09,9E+09,9E+09]],v50,z0,T2_R2\WObj:=DHI_WO_R2;
     MoveJ [[40.520,32.623,-93.762],[9.73406E-05,-0.156597,-0.987662,-8.78936E-05],[-1,-1,-3,1],[9E+09,9E+09,9E+09,9E+09,9E+09,9E+09]],v50,z0,T2_R2\WObj:=DHI_WO_R2;
     MoveJ [[40.500,33.022,-93.776],[9.73406E-05,-0.156597,-0.987662,-8.78936E-05],[-1,-1,-3,1],[9E+09,9E+09,9E+09,9E+09,9E+09,9E+09]],v50,z0,T2_R2\WObj:=DHI_WO_R2;
     MoveJ [[40.500,33.222,-93.783],[9.73406E-05,-0.156597,-0.987662,-8.78936E-05],[-1,-1,-3,1],[9E+09,9E+09,9E+09,9E+09,9E+09,9E+09]],v50,z0,T2_R2\WObj:=DHI_WO_R2;
