MODULE xyz_R21
    PROC xyz1()
     MoveJ [[-212.170,-8.853,17.000],[9.73406E-05,-0.156597,-0.987662,-8.78936E-05],[-1,-1,-3,1],[9E+09,9E+09,9E+09,9E+09,9E+09,9E+09]],v50,z0,T2_R2\WObj:=DHI_WO_R2;
     MoveJ [[-212.170,-8.853,1.250],[9.73406E-05,-0.156597,-0.987662,-8.78936E-05],[-1,-1,-3,1],[9E+09,9E+09,9E+09,9E+09,9E+09,9E+09]],v50,z0,T2_R2\WObj:=DHI_WO_R2;
     MoveJ [[-212.170,-8.853,0.800],[9.73406E-05,-0.156597,-0.987662,-8.78936E-05],[-1,-1,-3,1],[9E+09,9E+09,9E+09,9E+09,9E+09,9E+09]],v50,z0,T2_R2\WObj:=DHI_WO_R2;
     MoveJ [[-212.180,-8.854,0.696],[9.73406E-05,-0.156597,-0.987662,-8.78936E-05],[-1,-1,-3,1],[9E+09,9E+09,9E+09,9E+09,9E+09,9E+09]],v50,z0,T2_R2\WObj:=DHI_WO_R2;
     MoveJ [[-212.200,-8.856,0.593],[9.73406E-05,-0.156597,-0.987662,-8.78936E-05],[-1,-1,-3,1],[9E+09,9E+09,9E+09,9E+09,9E+09,9E+09]],v50,z0,T2_R2\WObj:=DHI_WO_R2;
     MoveJ [[-212.230,-8.859,0.494],[9.73406E-05,-0.156597,-0.987662,-8.78936E-05],[-1,-1,-3,1],[9E+09,9E+09,9E+09,9E+09,9E+09,9E+09]],v50,z0,T2_R2\WObj:=DHI_WO_R2;
     MoveJ [[-212.280,-8.863,0.400],[9.73406E-05,-0.156597,-0.987662,-8.78936E-05],[-1,-1,-3,1],[9E+09,9E+09,9E+09,9E+09,9E+09,9E+09]],v50,z0,T2_R2\WObj:=DHI_WO_R2;
     MoveJ [[-212.330,-8.869,0.313],[9.73406E-05,-0.156597,-0.987662,-8.78936E-05],[-1,-1,-3,1],[9E+09,9E+09,9E+09,9E+09,9E+09,9E+09]],v50,z0,T2_R2\WObj:=DHI_WO_R2;
     MoveJ [[-212.400,-8.876,0.234],[9.73406E-05,-0.156597,-0.987662,-8.78936E-05],[-1,-1,-3,1],[9E+09,9E+09,9E+09,9E+09,9E+09,9E+09]],v50,z0,T2_R2\WObj:=DHI_WO_R2;
     MoveJ [[-212.480,-8.883,0.165],[9.73406E-05,-0.156597,-0.987662,-8.78936E-05],[-1,-1,-3,1],[9E+09,9E+09,9E+09,9E+09,9E+09,9E+09]],v50,z0,T2_R2\WObj:=DHI_WO_R2;
     MoveJ [[-212.570,-8.891,0.107],[9.73406E-05,-0.156597,-0.987662,-8.78936E-05],[-1,-1,-3,1],[9E+09,9E+09,9E+09,9E+09,9E+09,9E+09]],v50,z0,T2_R2\WObj:=DHI_WO_R2;
     MoveJ [[-212.660,-8.900,0.061],[9.73406E-05,-0.156597,-0.987662,-8.78936E-05],[-1,-1,-3,1],[9E+09,9E+09,9E+09,9E+09,9E+09,9E+09]],v50,z0,T2_R2\WObj:=DHI_WO_R2;
     MoveJ [[-212.760,-8.910,0.027],[9.73406E-05,-0.156597,-0.987662,-8.78936E-05],[-1,-1,-3,1],[9E+09,9E+09,9E+09,9E+09,9E+09,9E+09]],v50,z0,T2_R2\WObj:=DHI_WO_R2;
     MoveJ [[-212.860,-8.919,0.007],[9.73406E-05,-0.156597,-0.987662,-8.78936E-05],[-1,-1,-3,1],[9E+09,9E+09,9E+09,9E+09,9E+09,9E+09]],v50,z0,T2_R2\WObj:=DHI_WO_R2;
     MoveJ [[-212.970,-8.929,0.000],[9.73406E-05,-0.156597,-0.987662,-8.78936E-05],[-1,-1,-3,1],[9E+09,9E+09,9E+09,9E+09,9E+09,9E+09]],v50,z0,T2_R2\WObj:=DHI_WO_R2;
     MoveJ [[-213.070,-8.946,0.000],[9.73406E-05,-0.156597,-0.987662,-8.78936E-05],[-1,-1,-3,1],[9E+09,9E+09,9E+09,9E+09,9E+09,9E+09]],v50,z0,T2_R2\WObj:=DHI_WO_R2;
     MoveJ [[-213.170,-8.976,0.000],[9.73406E-05,-0.156597,-0.987662,-8.78936E-05],[-1,-1,-3,1],[9E+09,9E+09,9E+09,9E+09,9E+09,9E+09]],v50,z0,T2_R2\WObj:=DHI_WO_R2;
     MoveJ [[-213.260,-9.019,0.000],[9.73406E-05,-0.156597,-0.987662,-8.78936E-05],[-1,-1,-3,1],[9E+09,9E+09,9E+09,9E+09,9E+09,9E+09]],v50,z0,T2_R2\WObj:=DHI_WO_R2;
     MoveJ [[-213.350,-9.074,0.000],[9.73406E-05,-0.156597,-0.987662,-8.78936E-05],[-1,-1,-3,1],[9E+09,9E+09,9E+09,9E+09,9E+09,9E+09]],v50,z0,T2_R2\WObj:=DHI_WO_R2;
     MoveJ [[-213.430,-9.140,0.000],[9.73406E-05,-0.156597,-0.987662,-8.78936E-05],[-1,-1,-3,1],[9E+09,9E+09,9E+09,9E+09,9E+09,9E+09]],v50,z0,T2_R2\WObj:=DHI_WO_R2;
     MoveJ [[-213.510,-9.216,0.000],[9.73406E-05,-0.156597,-0.987662,-8.78936E-05],[-1,-1,-3,1],[9E+09,9E+09,9E+09,9E+09,9E+09,9E+09]],v50,z0,T2_R2\WObj:=DHI_WO_R2;
     MoveJ [[-213.570,-9.301,0.000],[9.73406E-05,-0.156597,-0.987662,-8.78936E-05],[-1,-1,-3,1],[9E+09,9E+09,9E+09,9E+09,9E+09,9E+09]],v50,z0,T2_R2\WObj:=DHI_WO_R2;
     MoveJ [[-213.620,-9.393,0.000],[9.73406E-05,-0.156597,-0.987662,-8.78936E-05],[-1,-1,-3,1],[9E+09,9E+09,9E+09,9E+09,9E+09,9E+09]],v50,z0,T2_R2\WObj:=DHI_WO_R2;
     MoveJ [[-213.650,-9.491,0.000],[9.73406E-05,-0.156597,-0.987662,-8.78936E-05],[-1,-1,-3,1],[9E+09,9E+09,9E+09,9E+09,9E+09,9E+09]],v50,z0,T2_R2\WObj:=DHI_WO_R2;
     MoveJ [[-213.680,-9.593,0.000],[9.73406E-05,-0.156597,-0.987662,-8.78936E-05],[-1,-1,-3,1],[9E+09,9E+09,9E+09,9E+09,9E+09,9E+09]],v50,z0,T2_R2\WObj:=DHI_WO_R2;
     MoveJ [[-213.690,-9.697,0.000],[9.73406E-05,-0.156597,-0.987662,-8.78936E-05],[-1,-1,-3,1],[9E+09,9E+09,9E+09,9E+09,9E+09,9E+09]],v50,z0,T2_R2\WObj:=DHI_WO_R2;
     MoveJ [[-213.690,-9.802,0.000],[9.73406E-05,-0.156597,-0.987662,-8.78936E-05],[-1,-1,-3,1],[9E+09,9E+09,9E+09,9E+09,9E+09,9E+09]],v50,z0,T2_R2\WObj:=DHI_WO_R2;
     MoveJ [[-213.640,-10.244,0.000],[9.73406E-05,-0.156597,-0.987662,-8.78936E-05],[-1,-1,-3,1],[9E+09,9E+09,9E+09,9E+09,9E+09,9E+09]],v50,z0,T2_R2\WObj:=DHI_WO_R2;
     MoveJ [[-213.620,-10.434,0.000],[9.73406E-05,-0.156597,-0.987662,-8.78936E-05],[-1,-1,-3,1],[9E+09,9E+09,9E+09,9E+09,9E+09,9E+09]],v50,z0,T2_R2\WObj:=DHI_WO_R2;
     MoveJ [[-213.500,-11.464,0.000],[9.73406E-05,-0.156597,-0.987662,-8.78936E-05],[-1,-1,-3,1],[9E+09,9E+09,9E+09,9E+09,9E+09,9E+09]],v50,z0,T2_R2\WObj:=DHI_WO_R2;
     MoveJ [[-213.480,-11.575,0.000],[9.73406E-05,-0.156597,-0.987662,-8.78936E-05],[-1,-1,-3,1],[9E+09,9E+09,9E+09,9E+09,9E+09,9E+09]],v50,z0,T2_R2\WObj:=DHI_WO_R2;
     MoveJ [[-213.330,-12.525,0.000],[9.73406E-05,-0.156597,-0.987662,-8.78936E-05],[-1,-1,-3,1],[9E+09,9E+09,9E+09,9E+09,9E+09,9E+09]],v50,z0,T2_R2\WObj:=DHI_WO_R2;
     MoveJ [[-213.310,-12.679,0.000],[9.73406E-05,-0.156597,-0.987662,-8.78936E-05],[-1,-1,-3,1],[9E+09,9E+09,9E+09,9E+09,9E+09,9E+09]],v50,z0,T2_R2\WObj:=DHI_WO_R2;
     MoveJ [[-213.160,-13.476,0.000],[9.73406E-05,-0.156597,-0.987662,-8.78936E-05],[-1,-1,-3,1],[9E+09,9E+09,9E+09,9E+09,9E+09,9E+09]],v50,z0,T2_R2\WObj:=DHI_WO_R2;
     MoveJ [[-213.120,-13.666,0.000],[9.73406E-05,-0.156597,-0.987662,-8.78936E-05],[-1,-1,-3,1],[9E+09,9E+09,9E+09,9E+09,9E+09,9E+09]],v50,z0,T2_R2\WObj:=DHI_WO_R2;
     MoveJ [[-212.920,-14.616,0.000],[9.73406E-05,-0.156597,-0.987662,-8.78936E-05],[-1,-1,-3,1],[9E+09,9E+09,9E+09,9E+09,9E+09,9E+09]],v50,z0,T2_R2\WObj:=DHI_WO_R2;
     MoveJ [[-212.880,-14.806,0.000],[9.73406E-05,-0.156597,-0.987662,-8.78936E-05],[-1,-1,-3,1],[9E+09,9E+09,9E+09,9E+09,9E+09,9E+09]],v50,z0,T2_R2\WObj:=DHI_WO_R2;
     MoveJ [[-212.650,-15.757,0.000],[9.73406E-05,-0.156597,-0.987662,-8.78936E-05],[-1,-1,-3,1],[9E+09,9E+09,9E+09,9E+09,9E+09,9E+09]],v50,z0,T2_R2\WObj:=DHI_WO_R2;
     MoveJ [[-212.600,-15.947,0.000],[9.73406E-05,-0.156597,-0.987662,-8.78936E-05],[-1,-1,-3,1],[9E+09,9E+09,9E+09,9E+09,9E+09,9E+09]],v50,z0,T2_R2\WObj:=DHI_WO_R2;
     MoveJ [[-212.360,-16.828,0.000],[9.73406E-05,-0.156597,-0.987662,-8.78936E-05],[-1,-1,-3,1],[9E+09,9E+09,9E+09,9E+09,9E+09,9E+09]],v50,z0,T2_R2\WObj:=DHI_WO_R2;
     MoveJ [[-212.330,-16.897,0.000],[9.73406E-05,-0.156597,-0.987662,-8.78936E-05],[-1,-1,-3,1],[9E+09,9E+09,9E+09,9E+09,9E+09,9E+09]],v50,z0,T2_R2\WObj:=DHI_WO_R2;
     MoveJ [[-212.050,-17.847,0.000],[9.73406E-05,-0.156597,-0.987662,-8.78936E-05],[-1,-1,-3,1],[9E+09,9E+09,9E+09,9E+09,9E+09,9E+09]],v50,z0,T2_R2\WObj:=DHI_WO_R2;
     MoveJ [[-211.980,-18.038,0.000],[9.73406E-05,-0.156597,-0.987662,-8.78936E-05],[-1,-1,-3,1],[9E+09,9E+09,9E+09,9E+09,9E+09,9E+09]],v50,z0,T2_R2\WObj:=DHI_WO_R2;
     MoveJ [[-211.730,-18.798,0.000],[9.73406E-05,-0.156597,-0.987662,-8.78936E-05],[-1,-1,-3,1],[9E+09,9E+09,9E+09,9E+09,9E+09,9E+09]],v50,z0,T2_R2\WObj:=DHI_WO_R2;
     MoveJ [[-211.660,-18.988,0.000],[9.73406E-05,-0.156597,-0.987662,-8.78936E-05],[-1,-1,-3,1],[9E+09,9E+09,9E+09,9E+09,9E+09,9E+09]],v50,z0,T2_R2\WObj:=DHI_WO_R2;
     MoveJ [[-211.310,-19.938,0.000],[9.73406E-05,-0.156597,-0.987662,-8.78936E-05],[-1,-1,-3,1],[9E+09,9E+09,9E+09,9E+09,9E+09,9E+09]],v50,z0,T2_R2\WObj:=DHI_WO_R2;
     MoveJ [[-211.240,-20.129,0.000],[9.73406E-05,-0.156597,-0.987662,-8.78936E-05],[-1,-1,-3,1],[9E+09,9E+09,9E+09,9E+09,9E+09,9E+09]],v50,z0,T2_R2\WObj:=DHI_WO_R2;
     MoveJ [[-210.930,-20.889,0.000],[9.73406E-05,-0.156597,-0.987662,-8.78936E-05],[-1,-1,-3,1],[9E+09,9E+09,9E+09,9E+09,9E+09,9E+09]],v50,z0,T2_R2\WObj:=DHI_WO_R2;
     MoveJ [[-210.860,-21.079,0.000],[9.73406E-05,-0.156597,-0.987662,-8.78936E-05],[-1,-1,-3,1],[9E+09,9E+09,9E+09,9E+09,9E+09,9E+09]],v50,z0,T2_R2\WObj:=DHI_WO_R2;
     MoveJ [[-210.450,-22.007,0.000],[9.73406E-05,-0.156597,-0.987662,-8.78936E-05],[-1,-1,-3,1],[9E+09,9E+09,9E+09,9E+09,9E+09,9E+09]],v50,z0,T2_R2\WObj:=DHI_WO_R2;
     MoveJ [[-210.440,-22.029,0.000],[9.73406E-05,-0.156597,-0.987662,-8.78936E-05],[-1,-1,-3,1],[9E+09,9E+09,9E+09,9E+09,9E+09,9E+09]],v50,z0,T2_R2\WObj:=DHI_WO_R2;
     MoveJ [[-210.000,-22.980,0.000],[9.73406E-05,-0.156597,-0.987662,-8.78936E-05],[-1,-1,-3,1],[9E+09,9E+09,9E+09,9E+09,9E+09,9E+09]],v50,z0,T2_R2\WObj:=DHI_WO_R2;
     MoveJ [[-209.910,-23.170,0.000],[9.73406E-05,-0.156597,-0.987662,-8.78936E-05],[-1,-1,-3,1],[9E+09,9E+09,9E+09,9E+09,9E+09,9E+09]],v50,z0,T2_R2\WObj:=DHI_WO_R2;
     MoveJ [[-209.500,-23.977,0.000],[9.73406E-05,-0.156597,-0.987662,-8.78936E-05],[-1,-1,-3,1],[9E+09,9E+09,9E+09,9E+09,9E+09,9E+09]],v50,z0,T2_R2\WObj:=DHI_WO_R2;
     MoveJ [[-209.430,-24.120,0.000],[9.73406E-05,-0.156597,-0.987662,-8.78936E-05],[-1,-1,-3,1],[9E+09,9E+09,9E+09,9E+09,9E+09,9E+09]],v50,z0,T2_R2\WObj:=DHI_WO_R2;
     MoveJ [[-209.020,-24.881,0.000],[9.73406E-05,-0.156597,-0.987662,-8.78936E-05],[-1,-1,-3,1],[9E+09,9E+09,9E+09,9E+09,9E+09,9E+09]],v50,z0,T2_R2\WObj:=DHI_WO_R2;
     MoveJ [[-208.930,-25.041,0.000],[9.73406E-05,-0.156597,-0.987662,-8.78936E-05],[-1,-1,-3,1],[9E+09,9E+09,9E+09,9E+09,9E+09,9E+09]],v50,z0,T2_R2\WObj:=DHI_WO_R2;
     MoveJ [[-208.480,-25.831,0.000],[9.73406E-05,-0.156597,-0.987662,-8.78936E-05],[-1,-1,-3,1],[9E+09,9E+09,9E+09,9E+09,9E+09,9E+09]],v50,z0,T2_R2\WObj:=DHI_WO_R2;
     MoveJ [[-208.370,-26.021,0.000],[9.73406E-05,-0.156597,-0.987662,-8.78936E-05],[-1,-1,-3,1],[9E+09,9E+09,9E+09,9E+09,9E+09,9E+09]],v50,z0,T2_R2\WObj:=DHI_WO_R2;
     MoveJ [[-207.980,-26.666,0.000],[9.73406E-05,-0.156597,-0.987662,-8.78936E-05],[-1,-1,-3,1],[9E+09,9E+09,9E+09,9E+09,9E+09,9E+09]],v50,z0,T2_R2\WObj:=DHI_WO_R2;
     MoveJ [[-207.910,-26.782,0.000],[9.73406E-05,-0.156597,-0.987662,-8.78936E-05],[-1,-1,-3,1],[9E+09,9E+09,9E+09,9E+09,9E+09,9E+09]],v50,z0,T2_R2\WObj:=DHI_WO_R2;
     MoveJ [[-207.410,-27.567,0.000],[9.73406E-05,-0.156597,-0.987662,-8.78936E-05],[-1,-1,-3,1],[9E+09,9E+09,9E+09,9E+09,9E+09,9E+09]],v50,z0,T2_R2\WObj:=DHI_WO_R2;
     MoveJ [[-207.300,-27.732,0.000],[9.73406E-05,-0.156597,-0.987662,-8.78936E-05],[-1,-1,-3,1],[9E+09,9E+09,9E+09,9E+09,9E+09,9E+09]],v50,z0,T2_R2\WObj:=DHI_WO_R2;
     MoveJ [[-206.840,-28.420,0.000],[9.73406E-05,-0.156597,-0.987662,-8.78936E-05],[-1,-1,-3,1],[9E+09,9E+09,9E+09,9E+09,9E+09,9E+09]],v50,z0,T2_R2\WObj:=DHI_WO_R2;
     MoveJ [[-206.790,-28.492,0.000],[9.73406E-05,-0.156597,-0.987662,-8.78936E-05],[-1,-1,-3,1],[9E+09,9E+09,9E+09,9E+09,9E+09,9E+09]],v50,z0,T2_R2\WObj:=DHI_WO_R2;
     MoveJ [[-206.250,-29.253,0.000],[9.73406E-05,-0.156597,-0.987662,-8.78936E-05],[-1,-1,-3,1],[9E+09,9E+09,9E+09,9E+09,9E+09,9E+09]],v50,z0,T2_R2\WObj:=DHI_WO_R2;
     MoveJ [[-206.120,-29.443,0.000],[9.73406E-05,-0.156597,-0.987662,-8.78936E-05],[-1,-1,-3,1],[9E+09,9E+09,9E+09,9E+09,9E+09,9E+09]],v50,z0,T2_R2\WObj:=DHI_WO_R2;
     MoveJ [[-205.690,-30.013,0.000],[9.73406E-05,-0.156597,-0.987662,-8.78936E-05],[-1,-1,-3,1],[9E+09,9E+09,9E+09,9E+09,9E+09,9E+09]],v50,z0,T2_R2\WObj:=DHI_WO_R2;
     MoveJ [[-205.550,-30.203,0.000],[9.73406E-05,-0.156597,-0.987662,-8.78936E-05],[-1,-1,-3,1],[9E+09,9E+09,9E+09,9E+09,9E+09,9E+09]],v50,z0,T2_R2\WObj:=DHI_WO_R2;
     MoveJ [[-204.940,-30.981,0.000],[9.73406E-05,-0.156597,-0.987662,-8.78936E-05],[-1,-1,-3,1],[9E+09,9E+09,9E+09,9E+09,9E+09,9E+09]],v50,z0,T2_R2\WObj:=DHI_WO_R2;
     MoveJ [[-204.800,-31.153,0.000],[9.73406E-05,-0.156597,-0.987662,-8.78936E-05],[-1,-1,-3,1],[9E+09,9E+09,9E+09,9E+09,9E+09,9E+09]],v50,z0,T2_R2\WObj:=DHI_WO_R2;
     MoveJ [[-204.330,-31.724,0.000],[9.73406E-05,-0.156597,-0.987662,-8.78936E-05],[-1,-1,-3,1],[9E+09,9E+09,9E+09,9E+09,9E+09,9E+09]],v50,z0,T2_R2\WObj:=DHI_WO_R2;
     MoveJ [[-204.180,-31.903,0.000],[9.73406E-05,-0.156597,-0.987662,-8.78936E-05],[-1,-1,-3,1],[9E+09,9E+09,9E+09,9E+09,9E+09,9E+09]],v50,z0,T2_R2\WObj:=DHI_WO_R2;
     MoveJ [[-203.610,-32.563,0.000],[9.73406E-05,-0.156597,-0.987662,-8.78936E-05],[-1,-1,-3,1],[9E+09,9E+09,9E+09,9E+09,9E+09,9E+09]],v50,z0,T2_R2\WObj:=DHI_WO_R2;
     MoveJ [[-203.510,-32.674,0.000],[9.73406E-05,-0.156597,-0.987662,-8.78936E-05],[-1,-1,-3,1],[9E+09,9E+09,9E+09,9E+09,9E+09,9E+09]],v50,z0,T2_R2\WObj:=DHI_WO_R2;
     MoveJ [[-202.820,-33.435,0.000],[9.73406E-05,-0.156597,-0.987662,-8.78936E-05],[-1,-1,-3,1],[9E+09,9E+09,9E+09,9E+09,9E+09,9E+09]],v50,z0,T2_R2\WObj:=DHI_WO_R2;
     MoveJ [[-202.660,-33.610,0.000],[9.73406E-05,-0.156597,-0.987662,-8.78936E-05],[-1,-1,-3,1],[9E+09,9E+09,9E+09,9E+09,9E+09,9E+09]],v50,z0,T2_R2\WObj:=DHI_WO_R2;
     MoveJ [[-202.090,-34.208,0.000],[9.73406E-05,-0.156597,-0.987662,-8.78936E-05],[-1,-1,-3,1],[9E+09,9E+09,9E+09,9E+09,9E+09,9E+09]],v50,z0,T2_R2\WObj:=DHI_WO_R2;
     MoveJ [[-201.920,-34.385,0.000],[9.73406E-05,-0.156597,-0.987662,-8.78936E-05],[-1,-1,-3,1],[9E+09,9E+09,9E+09,9E+09,9E+09,9E+09]],v50,z0,T2_R2\WObj:=DHI_WO_R2;
     MoveJ [[-201.330,-34.973,0.000],[9.73406E-05,-0.156597,-0.987662,-8.78936E-05],[-1,-1,-3,1],[9E+09,9E+09,9E+09,9E+09,9E+09,9E+09]],v50,z0,T2_R2\WObj:=DHI_WO_R2;
     MoveJ [[-201.150,-35.145,0.000],[9.73406E-05,-0.156597,-0.987662,-8.78936E-05],[-1,-1,-3,1],[9E+09,9E+09,9E+09,9E+09,9E+09,9E+09]],v50,z0,T2_R2\WObj:=DHI_WO_R2;
     MoveJ [[-200.380,-35.885,0.000],[9.73406E-05,-0.156597,-0.987662,-8.78936E-05],[-1,-1,-3,1],[9E+09,9E+09,9E+09,9E+09,9E+09,9E+09]],v50,z0,T2_R2\WObj:=DHI_WO_R2;
     MoveJ [[-200.360,-35.906,0.000],[9.73406E-05,-0.156597,-0.987662,-8.78936E-05],[-1,-1,-3,1],[9E+09,9E+09,9E+09,9E+09,9E+09,9E+09]],v50,z0,T2_R2\WObj:=DHI_WO_R2;
     MoveJ [[-199.520,-36.666,0.000],[9.73406E-05,-0.156597,-0.987662,-8.78936E-05],[-1,-1,-3,1],[9E+09,9E+09,9E+09,9E+09,9E+09,9E+09]],v50,z0,T2_R2\WObj:=DHI_WO_R2;
     MoveJ [[-199.430,-36.745,0.000],[9.73406E-05,-0.156597,-0.987662,-8.78936E-05],[-1,-1,-3,1],[9E+09,9E+09,9E+09,9E+09,9E+09,9E+09]],v50,z0,T2_R2\WObj:=DHI_WO_R2;
     MoveJ [[-198.640,-37.426,0.000],[9.73406E-05,-0.156597,-0.987662,-8.78936E-05],[-1,-1,-3,1],[9E+09,9E+09,9E+09,9E+09,9E+09,9E+09]],v50,z0,T2_R2\WObj:=DHI_WO_R2;
     MoveJ [[-198.480,-37.562,0.000],[9.73406E-05,-0.156597,-0.987662,-8.78936E-05],[-1,-1,-3,1],[9E+09,9E+09,9E+09,9E+09,9E+09,9E+09]],v50,z0,T2_R2\WObj:=DHI_WO_R2;
     MoveJ [[-197.720,-38.188,0.000],[9.73406E-05,-0.156597,-0.987662,-8.78936E-05],[-1,-1,-3,1],[9E+09,9E+09,9E+09,9E+09,9E+09,9E+09]],v50,z0,T2_R2\WObj:=DHI_WO_R2;
     MoveJ [[-197.530,-38.339,0.000],[9.73406E-05,-0.156597,-0.987662,-8.78936E-05],[-1,-1,-3,1],[9E+09,9E+09,9E+09,9E+09,9E+09,9E+09]],v50,z0,T2_R2\WObj:=DHI_WO_R2;
     MoveJ [[-196.750,-38.947,0.000],[9.73406E-05,-0.156597,-0.987662,-8.78936E-05],[-1,-1,-3,1],[9E+09,9E+09,9E+09,9E+09,9E+09,9E+09]],v50,z0,T2_R2\WObj:=DHI_WO_R2;
     MoveJ [[-196.570,-39.080,0.000],[9.73406E-05,-0.156597,-0.987662,-8.78936E-05],[-1,-1,-3,1],[9E+09,9E+09,9E+09,9E+09,9E+09,9E+09]],v50,z0,T2_R2\WObj:=DHI_WO_R2;
     MoveJ [[-196.190,-39.367,0.000],[9.73406E-05,-0.156597,-0.987662,-8.78936E-05],[-1,-1,-3,1],[9E+09,9E+09,9E+09,9E+09,9E+09,9E+09]],v50,z0,T2_R2\WObj:=DHI_WO_R2;
     MoveJ [[-196.000,-39.508,0.000],[9.73406E-05,-0.156597,-0.987662,-8.78936E-05],[-1,-1,-3,1],[9E+09,9E+09,9E+09,9E+09,9E+09,9E+09]],v50,z0,T2_R2\WObj:=DHI_WO_R2;
     MoveJ [[-195.620,-39.787,0.000],[9.73406E-05,-0.156597,-0.987662,-8.78936E-05],[-1,-1,-3,1],[9E+09,9E+09,9E+09,9E+09,9E+09,9E+09]],v50,z0,T2_R2\WObj:=DHI_WO_R2;
     MoveJ [[-195.470,-39.897,0.000],[9.73406E-05,-0.156597,-0.987662,-8.78936E-05],[-1,-1,-3,1],[9E+09,9E+09,9E+09,9E+09,9E+09,9E+09]],v50,z0,T2_R2\WObj:=DHI_WO_R2;
     MoveJ [[-194.660,-40.468,0.000],[9.73406E-05,-0.156597,-0.987662,-8.78936E-05],[-1,-1,-3,1],[9E+09,9E+09,9E+09,9E+09,9E+09,9E+09]],v50,z0,T2_R2\WObj:=DHI_WO_R2;
     MoveJ [[-194.480,-40.592,0.000],[9.73406E-05,-0.156597,-0.987662,-8.78936E-05],[-1,-1,-3,1],[9E+09,9E+09,9E+09,9E+09,9E+09,9E+09]],v50,z0,T2_R2\WObj:=DHI_WO_R2;
     MoveJ [[-193.530,-41.228,0.000],[9.73406E-05,-0.156597,-0.987662,-8.78936E-05],[-1,-1,-3,1],[9E+09,9E+09,9E+09,9E+09,9E+09,9E+09]],v50,z0,T2_R2\WObj:=DHI_WO_R2;
     MoveJ [[-193.340,-41.353,0.000],[9.73406E-05,-0.156597,-0.987662,-8.78936E-05],[-1,-1,-3,1],[9E+09,9E+09,9E+09,9E+09,9E+09,9E+09]],v50,z0,T2_R2\WObj:=DHI_WO_R2;
     MoveJ [[-192.340,-41.988,0.000],[9.73406E-05,-0.156597,-0.987662,-8.78936E-05],[-1,-1,-3,1],[9E+09,9E+09,9E+09,9E+09,9E+09,9E+09]],v50,z0,T2_R2\WObj:=DHI_WO_R2;
     MoveJ [[-192.200,-42.076,0.000],[9.73406E-05,-0.156597,-0.987662,-8.78936E-05],[-1,-1,-3,1],[9E+09,9E+09,9E+09,9E+09,9E+09,9E+09]],v50,z0,T2_R2\WObj:=DHI_WO_R2;
     MoveJ [[-191.250,-42.649,0.000],[9.73406E-05,-0.156597,-0.987662,-8.78936E-05],[-1,-1,-3,1],[9E+09,9E+09,9E+09,9E+09,9E+09,9E+09]],v50,z0,T2_R2\WObj:=DHI_WO_R2;
     MoveJ [[-191.080,-42.749,0.000],[9.73406E-05,-0.156597,-0.987662,-8.78936E-05],[-1,-1,-3,1],[9E+09,9E+09,9E+09,9E+09,9E+09,9E+09]],v50,z0,T2_R2\WObj:=DHI_WO_R2;
     MoveJ [[-190.090,-43.319,0.000],[9.73406E-05,-0.156597,-0.987662,-8.78936E-05],[-1,-1,-3,1],[9E+09,9E+09,9E+09,9E+09,9E+09,9E+09]],v50,z0,T2_R2\WObj:=DHI_WO_R2;
     MoveJ [[-189.920,-43.413,0.000],[9.73406E-05,-0.156597,-0.987662,-8.78936E-05],[-1,-1,-3,1],[9E+09,9E+09,9E+09,9E+09,9E+09,9E+09]],v50,z0,T2_R2\WObj:=DHI_WO_R2;
     MoveJ [[-188.970,-43.931,0.000],[9.73406E-05,-0.156597,-0.987662,-8.78936E-05],[-1,-1,-3,1],[9E+09,9E+09,9E+09,9E+09,9E+09,9E+09]],v50,z0,T2_R2\WObj:=DHI_WO_R2;
     MoveJ [[-188.780,-44.033,0.000],[9.73406E-05,-0.156597,-0.987662,-8.78936E-05],[-1,-1,-3,1],[9E+09,9E+09,9E+09,9E+09,9E+09,9E+09]],v50,z0,T2_R2\WObj:=DHI_WO_R2;
     MoveJ [[-187.830,-44.526,0.000],[9.73406E-05,-0.156597,-0.987662,-8.78936E-05],[-1,-1,-3,1],[9E+09,9E+09,9E+09,9E+09,9E+09,9E+09]],v50,z0,T2_R2\WObj:=DHI_WO_R2;
     MoveJ [[-187.640,-44.622,0.000],[9.73406E-05,-0.156597,-0.987662,-8.78936E-05],[-1,-1,-3,1],[9E+09,9E+09,9E+09,9E+09,9E+09,9E+09]],v50,z0,T2_R2\WObj:=DHI_WO_R2;
     MoveJ [[-186.690,-45.092,0.000],[9.73406E-05,-0.156597,-0.987662,-8.78936E-05],[-1,-1,-3,1],[9E+09,9E+09,9E+09,9E+09,9E+09,9E+09]],v50,z0,T2_R2\WObj:=DHI_WO_R2;
     MoveJ [[-186.500,-45.183,0.000],[9.73406E-05,-0.156597,-0.987662,-8.78936E-05],[-1,-1,-3,1],[9E+09,9E+09,9E+09,9E+09,9E+09,9E+09]],v50,z0,T2_R2\WObj:=DHI_WO_R2;
     MoveJ [[-185.550,-45.631,0.000],[9.73406E-05,-0.156597,-0.987662,-8.78936E-05],[-1,-1,-3,1],[9E+09,9E+09,9E+09,9E+09,9E+09,9E+09]],v50,z0,T2_R2\WObj:=DHI_WO_R2;
     MoveJ [[-185.360,-45.718,0.000],[9.73406E-05,-0.156597,-0.987662,-8.78936E-05],[-1,-1,-3,1],[9E+09,9E+09,9E+09,9E+09,9E+09,9E+09]],v50,z0,T2_R2\WObj:=DHI_WO_R2;
     MoveJ [[-184.350,-46.170,0.000],[9.73406E-05,-0.156597,-0.987662,-8.78936E-05],[-1,-1,-3,1],[9E+09,9E+09,9E+09,9E+09,9E+09,9E+09]],v50,z0,T2_R2\WObj:=DHI_WO_R2;
     MoveJ [[-184.220,-46.228,0.000],[9.73406E-05,-0.156597,-0.987662,-8.78936E-05],[-1,-1,-3,1],[9E+09,9E+09,9E+09,9E+09,9E+09,9E+09]],v50,z0,T2_R2\WObj:=DHI_WO_R2;
     MoveJ [[-183.270,-46.635,0.000],[9.73406E-05,-0.156597,-0.987662,-8.78936E-05],[-1,-1,-3,1],[9E+09,9E+09,9E+09,9E+09,9E+09,9E+09]],v50,z0,T2_R2\WObj:=DHI_WO_R2;
     MoveJ [[-183.080,-46.714,0.000],[9.73406E-05,-0.156597,-0.987662,-8.78936E-05],[-1,-1,-3,1],[9E+09,9E+09,9E+09,9E+09,9E+09,9E+09]],v50,z0,T2_R2\WObj:=DHI_WO_R2;
     MoveJ [[-182.130,-47.104,0.000],[9.73406E-05,-0.156597,-0.987662,-8.78936E-05],[-1,-1,-3,1],[9E+09,9E+09,9E+09,9E+09,9E+09,9E+09]],v50,z0,T2_R2\WObj:=DHI_WO_R2;
     MoveJ [[-182.080,-47.121,0.000],[9.73406E-05,-0.156597,-0.987662,-8.78936E-05],[-1,-1,-3,1],[9E+09,9E+09,9E+09,9E+09,9E+09,9E+09]],v50,z0,T2_R2\WObj:=DHI_WO_R2;
     MoveJ [[-181.110,-47.501,0.000],[9.73406E-05,-0.156597,-0.987662,-8.78936E-05],[-1,-1,-3,1],[9E+09,9E+09,9E+09,9E+09,9E+09,9E+09]],v50,z0,T2_R2\WObj:=DHI_WO_R2;
     MoveJ [[-180.990,-47.550,0.000],[9.73406E-05,-0.156597,-0.987662,-8.78936E-05],[-1,-1,-3,1],[9E+09,9E+09,9E+09,9E+09,9E+09,9E+09]],v50,z0,T2_R2\WObj:=DHI_WO_R2;
     MoveJ [[-180.030,-47.907,0.000],[9.73406E-05,-0.156597,-0.987662,-8.78936E-05],[-1,-1,-3,1],[9E+09,9E+09,9E+09,9E+09,9E+09,9E+09]],v50,z0,T2_R2\WObj:=DHI_WO_R2;
     MoveJ [[-179.840,-47.977,0.000],[9.73406E-05,-0.156597,-0.987662,-8.78936E-05],[-1,-1,-3,1],[9E+09,9E+09,9E+09,9E+09,9E+09,9E+09]],v50,z0,T2_R2\WObj:=DHI_WO_R2;
     MoveJ [[-178.890,-48.320,0.000],[9.73406E-05,-0.156597,-0.987662,-8.78936E-05],[-1,-1,-3,1],[9E+09,9E+09,9E+09,9E+09,9E+09,9E+09]],v50,z0,T2_R2\WObj:=DHI_WO_R2;
     MoveJ [[-178.700,-48.386,0.000],[9.73406E-05,-0.156597,-0.987662,-8.78936E-05],[-1,-1,-3,1],[9E+09,9E+09,9E+09,9E+09,9E+09,9E+09]],v50,z0,T2_R2\WObj:=DHI_WO_R2;
     MoveJ [[-177.940,-48.649,0.000],[9.73406E-05,-0.156597,-0.987662,-8.78936E-05],[-1,-1,-3,1],[9E+09,9E+09,9E+09,9E+09,9E+09,9E+09]],v50,z0,T2_R2\WObj:=DHI_WO_R2;
     MoveJ [[-177.750,-48.714,0.000],[9.73406E-05,-0.156597,-0.987662,-8.78936E-05],[-1,-1,-3,1],[9E+09,9E+09,9E+09,9E+09,9E+09,9E+09]],v50,z0,T2_R2\WObj:=DHI_WO_R2;
     MoveJ [[-176.800,-49.030,0.000],[9.73406E-05,-0.156597,-0.987662,-8.78936E-05],[-1,-1,-3,1],[9E+09,9E+09,9E+09,9E+09,9E+09,9E+09]],v50,z0,T2_R2\WObj:=DHI_WO_R2;
     MoveJ [[-176.610,-49.092,0.000],[9.73406E-05,-0.156597,-0.987662,-8.78936E-05],[-1,-1,-3,1],[9E+09,9E+09,9E+09,9E+09,9E+09,9E+09]],v50,z0,T2_R2\WObj:=DHI_WO_R2;
     MoveJ [[-175.640,-49.402,0.000],[9.73406E-05,-0.156597,-0.987662,-8.78936E-05],[-1,-1,-3,1],[9E+09,9E+09,9E+09,9E+09,9E+09,9E+09]],v50,z0,T2_R2\WObj:=DHI_WO_R2;
     MoveJ [[-175.470,-49.454,0.000],[9.73406E-05,-0.156597,-0.987662,-8.78936E-05],[-1,-1,-3,1],[9E+09,9E+09,9E+09,9E+09,9E+09,9E+09]],v50,z0,T2_R2\WObj:=DHI_WO_R2;
     MoveJ [[-174.520,-49.745,0.000],[9.73406E-05,-0.156597,-0.987662,-8.78936E-05],[-1,-1,-3,1],[9E+09,9E+09,9E+09,9E+09,9E+09,9E+09]],v50,z0,T2_R2\WObj:=DHI_WO_R2;
     MoveJ [[-174.400,-49.782,0.000],[9.73406E-05,-0.156597,-0.987662,-8.78936E-05],[-1,-1,-3,1],[9E+09,9E+09,9E+09,9E+09,9E+09,9E+09]],v50,z0,T2_R2\WObj:=DHI_WO_R2;
     MoveJ [[-173.380,-50.081,0.000],[9.73406E-05,-0.156597,-0.987662,-8.78936E-05],[-1,-1,-3,1],[9E+09,9E+09,9E+09,9E+09,9E+09,9E+09]],v50,z0,T2_R2\WObj:=DHI_WO_R2;
     MoveJ [[-173.190,-50.136,0.000],[9.73406E-05,-0.156597,-0.987662,-8.78936E-05],[-1,-1,-3,1],[9E+09,9E+09,9E+09,9E+09,9E+09,9E+09]],v50,z0,T2_R2\WObj:=DHI_WO_R2;
     MoveJ [[-172.240,-50.405,0.000],[9.73406E-05,-0.156597,-0.987662,-8.78936E-05],[-1,-1,-3,1],[9E+09,9E+09,9E+09,9E+09,9E+09,9E+09]],v50,z0,T2_R2\WObj:=DHI_WO_R2;
     MoveJ [[-172.050,-50.458,0.000],[9.73406E-05,-0.156597,-0.987662,-8.78936E-05],[-1,-1,-3,1],[9E+09,9E+09,9E+09,9E+09,9E+09,9E+09]],v50,z0,T2_R2\WObj:=DHI_WO_R2;
     MoveJ [[-170.910,-50.767,0.000],[9.73406E-05,-0.156597,-0.987662,-8.78936E-05],[-1,-1,-3,1],[9E+09,9E+09,9E+09,9E+09,9E+09,9E+09]],v50,z0,T2_R2\WObj:=DHI_WO_R2;
     MoveJ [[-170.720,-50.817,0.000],[9.73406E-05,-0.156597,-0.987662,-8.78936E-05],[-1,-1,-3,1],[9E+09,9E+09,9E+09,9E+09,9E+09,9E+09]],v50,z0,T2_R2\WObj:=DHI_WO_R2;
     MoveJ [[-169.770,-51.065,0.000],[9.73406E-05,-0.156597,-0.987662,-8.78936E-05],[-1,-1,-3,1],[9E+09,9E+09,9E+09,9E+09,9E+09,9E+09]],v50,z0,T2_R2\WObj:=DHI_WO_R2;
     MoveJ [[-169.580,-51.112,0.000],[9.73406E-05,-0.156597,-0.987662,-8.78936E-05],[-1,-1,-3,1],[9E+09,9E+09,9E+09,9E+09,9E+09,9E+09]],v50,z0,T2_R2\WObj:=DHI_WO_R2;
     MoveJ [[-168.440,-51.401,0.000],[9.73406E-05,-0.156597,-0.987662,-8.78936E-05],[-1,-1,-3,1],[9E+09,9E+09,9E+09,9E+09,9E+09,9E+09]],v50,z0,T2_R2\WObj:=DHI_WO_R2;
     MoveJ [[-168.250,-51.447,0.000],[9.73406E-05,-0.156597,-0.987662,-8.78936E-05],[-1,-1,-3,1],[9E+09,9E+09,9E+09,9E+09,9E+09,9E+09]],v50,z0,T2_R2\WObj:=DHI_WO_R2;
     MoveJ [[-167.270,-51.683,0.000],[9.73406E-05,-0.156597,-0.987662,-8.78936E-05],[-1,-1,-3,1],[9E+09,9E+09,9E+09,9E+09,9E+09,9E+09]],v50,z0,T2_R2\WObj:=DHI_WO_R2;
     MoveJ [[-167.110,-51.722,0.000],[9.73406E-05,-0.156597,-0.987662,-8.78936E-05],[-1,-1,-3,1],[9E+09,9E+09,9E+09,9E+09,9E+09,9E+09]],v50,z0,T2_R2\WObj:=DHI_WO_R2;
     MoveJ [[-165.970,-51.989,0.000],[9.73406E-05,-0.156597,-0.987662,-8.78936E-05],[-1,-1,-3,1],[9E+09,9E+09,9E+09,9E+09,9E+09,9E+09]],v50,z0,T2_R2\WObj:=DHI_WO_R2;
     MoveJ [[-165.780,-52.032,0.000],[9.73406E-05,-0.156597,-0.987662,-8.78936E-05],[-1,-1,-3,1],[9E+09,9E+09,9E+09,9E+09,9E+09,9E+09]],v50,z0,T2_R2\WObj:=DHI_WO_R2;
     MoveJ [[-164.630,-52.289,0.000],[9.73406E-05,-0.156597,-0.987662,-8.78936E-05],[-1,-1,-3,1],[9E+09,9E+09,9E+09,9E+09,9E+09,9E+09]],v50,z0,T2_R2\WObj:=DHI_WO_R2;
     MoveJ [[-164.440,-52.331,0.000],[9.73406E-05,-0.156597,-0.987662,-8.78936E-05],[-1,-1,-3,1],[9E+09,9E+09,9E+09,9E+09,9E+09,9E+09]],v50,z0,T2_R2\WObj:=DHI_WO_R2;
     MoveJ [[-163.300,-52.580,0.000],[9.73406E-05,-0.156597,-0.987662,-8.78936E-05],[-1,-1,-3,1],[9E+09,9E+09,9E+09,9E+09,9E+09,9E+09]],v50,z0,T2_R2\WObj:=DHI_WO_R2;
     MoveJ [[-163.110,-52.620,0.000],[9.73406E-05,-0.156597,-0.987662,-8.78936E-05],[-1,-1,-3,1],[9E+09,9E+09,9E+09,9E+09,9E+09,9E+09]],v50,z0,T2_R2\WObj:=DHI_WO_R2;
     MoveJ [[-161.970,-52.861,0.000],[9.73406E-05,-0.156597,-0.987662,-8.78936E-05],[-1,-1,-3,1],[9E+09,9E+09,9E+09,9E+09,9E+09,9E+09]],v50,z0,T2_R2\WObj:=DHI_WO_R2;
     MoveJ [[-161.780,-52.900,0.000],[9.73406E-05,-0.156597,-0.987662,-8.78936E-05],[-1,-1,-3,1],[9E+09,9E+09,9E+09,9E+09,9E+09,9E+09]],v50,z0,T2_R2\WObj:=DHI_WO_R2;
     MoveJ [[-160.640,-53.134,0.000],[9.73406E-05,-0.156597,-0.987662,-8.78936E-05],[-1,-1,-3,1],[9E+09,9E+09,9E+09,9E+09,9E+09,9E+09]],v50,z0,T2_R2\WObj:=DHI_WO_R2;
     MoveJ [[-160.450,-53.172,0.000],[9.73406E-05,-0.156597,-0.987662,-8.78936E-05],[-1,-1,-3,1],[9E+09,9E+09,9E+09,9E+09,9E+09,9E+09]],v50,z0,T2_R2\WObj:=DHI_WO_R2;
     MoveJ [[-159.310,-53.399,0.000],[9.73406E-05,-0.156597,-0.987662,-8.78936E-05],[-1,-1,-3,1],[9E+09,9E+09,9E+09,9E+09,9E+09,9E+09]],v50,z0,T2_R2\WObj:=DHI_WO_R2;
     MoveJ [[-159.120,-53.436,0.000],[9.73406E-05,-0.156597,-0.987662,-8.78936E-05],[-1,-1,-3,1],[9E+09,9E+09,9E+09,9E+09,9E+09,9E+09]],v50,z0,T2_R2\WObj:=DHI_WO_R2;
     MoveJ [[-158.170,-53.621,0.000],[9.73406E-05,-0.156597,-0.987662,-8.78936E-05],[-1,-1,-3,1],[9E+09,9E+09,9E+09,9E+09,9E+09,9E+09]],v50,z0,T2_R2\WObj:=DHI_WO_R2;
     MoveJ [[-157.980,-53.658,0.000],[9.73406E-05,-0.156597,-0.987662,-8.78936E-05],[-1,-1,-3,1],[9E+09,9E+09,9E+09,9E+09,9E+09,9E+09]],v50,z0,T2_R2\WObj:=DHI_WO_R2;
     MoveJ [[-157.030,-53.840,0.000],[9.73406E-05,-0.156597,-0.987662,-8.78936E-05],[-1,-1,-3,1],[9E+09,9E+09,9E+09,9E+09,9E+09,9E+09]],v50,z0,T2_R2\WObj:=DHI_WO_R2;
     MoveJ [[-156.840,-53.876,0.000],[9.73406E-05,-0.156597,-0.987662,-8.78936E-05],[-1,-1,-3,1],[9E+09,9E+09,9E+09,9E+09,9E+09,9E+09]],v50,z0,T2_R2\WObj:=DHI_WO_R2;
     MoveJ [[-155.890,-54.055,0.000],[9.73406E-05,-0.156597,-0.987662,-8.78936E-05],[-1,-1,-3,1],[9E+09,9E+09,9E+09,9E+09,9E+09,9E+09]],v50,z0,T2_R2\WObj:=DHI_WO_R2;
     MoveJ [[-155.700,-54.090,0.000],[9.73406E-05,-0.156597,-0.987662,-8.78936E-05],[-1,-1,-3,1],[9E+09,9E+09,9E+09,9E+09,9E+09,9E+09]],v50,z0,T2_R2\WObj:=DHI_WO_R2;
     MoveJ [[-154.750,-54.266,0.000],[9.73406E-05,-0.156597,-0.987662,-8.78936E-05],[-1,-1,-3,1],[9E+09,9E+09,9E+09,9E+09,9E+09,9E+09]],v50,z0,T2_R2\WObj:=DHI_WO_R2;
     MoveJ [[-154.560,-54.301,0.000],[9.73406E-05,-0.156597,-0.987662,-8.78936E-05],[-1,-1,-3,1],[9E+09,9E+09,9E+09,9E+09,9E+09,9E+09]],v50,z0,T2_R2\WObj:=DHI_WO_R2;
     MoveJ [[-153.610,-54.474,0.000],[9.73406E-05,-0.156597,-0.987662,-8.78936E-05],[-1,-1,-3,1],[9E+09,9E+09,9E+09,9E+09,9E+09,9E+09]],v50,z0,T2_R2\WObj:=DHI_WO_R2;
     MoveJ [[-153.420,-54.508,0.000],[9.73406E-05,-0.156597,-0.987662,-8.78936E-05],[-1,-1,-3,1],[9E+09,9E+09,9E+09,9E+09,9E+09,9E+09]],v50,z0,T2_R2\WObj:=DHI_WO_R2;
     MoveJ [[-152.470,-54.679,0.000],[9.73406E-05,-0.156597,-0.987662,-8.78936E-05],[-1,-1,-3,1],[9E+09,9E+09,9E+09,9E+09,9E+09,9E+09]],v50,z0,T2_R2\WObj:=DHI_WO_R2;
     MoveJ [[-152.280,-54.713,0.000],[9.73406E-05,-0.156597,-0.987662,-8.78936E-05],[-1,-1,-3,1],[9E+09,9E+09,9E+09,9E+09,9E+09,9E+09]],v50,z0,T2_R2\WObj:=DHI_WO_R2;
     MoveJ [[-152.210,-54.724,0.000],[9.73406E-05,-0.156597,-0.987662,-8.78936E-05],[-1,-1,-3,1],[9E+09,9E+09,9E+09,9E+09,9E+09,9E+09]],v50,z0,T2_R2\WObj:=DHI_WO_R2;
     MoveJ [[-151.140,-54.915,0.000],[9.73406E-05,-0.156597,-0.987662,-8.78936E-05],[-1,-1,-3,1],[9E+09,9E+09,9E+09,9E+09,9E+09,9E+09]],v50,z0,T2_R2\WObj:=DHI_WO_R2;
     MoveJ [[-150.950,-54.948,0.000],[9.73406E-05,-0.156597,-0.987662,-8.78936E-05],[-1,-1,-3,1],[9E+09,9E+09,9E+09,9E+09,9E+09,9E+09]],v50,z0,T2_R2\WObj:=DHI_WO_R2;
     MoveJ [[-149.810,-55.147,0.000],[9.73406E-05,-0.156597,-0.987662,-8.78936E-05],[-1,-1,-3,1],[9E+09,9E+09,9E+09,9E+09,9E+09,9E+09]],v50,z0,T2_R2\WObj:=DHI_WO_R2;
     MoveJ [[-149.620,-55.180,0.000],[9.73406E-05,-0.156597,-0.987662,-8.78936E-05],[-1,-1,-3,1],[9E+09,9E+09,9E+09,9E+09,9E+09,9E+09]],v50,z0,T2_R2\WObj:=DHI_WO_R2;
     MoveJ [[-148.660,-55.343,0.000],[9.73406E-05,-0.156597,-0.987662,-8.78936E-05],[-1,-1,-3,1],[9E+09,9E+09,9E+09,9E+09,9E+09,9E+09]],v50,z0,T2_R2\WObj:=DHI_WO_R2;
     MoveJ [[-148.470,-55.375,0.000],[9.73406E-05,-0.156597,-0.987662,-8.78936E-05],[-1,-1,-3,1],[9E+09,9E+09,9E+09,9E+09,9E+09,9E+09]],v50,z0,T2_R2\WObj:=DHI_WO_R2;
     MoveJ [[-147.330,-55.568,0.000],[9.73406E-05,-0.156597,-0.987662,-8.78936E-05],[-1,-1,-3,1],[9E+09,9E+09,9E+09,9E+09,9E+09,9E+09]],v50,z0,T2_R2\WObj:=DHI_WO_R2;
     MoveJ [[-147.140,-55.599,0.000],[9.73406E-05,-0.156597,-0.987662,-8.78936E-05],[-1,-1,-3,1],[9E+09,9E+09,9E+09,9E+09,9E+09,9E+09]],v50,z0,T2_R2\WObj:=DHI_WO_R2;
     MoveJ [[-146.000,-55.790,0.000],[9.73406E-05,-0.156597,-0.987662,-8.78936E-05],[-1,-1,-3,1],[9E+09,9E+09,9E+09,9E+09,9E+09,9E+09]],v50,z0,T2_R2\WObj:=DHI_WO_R2;
     MoveJ [[-145.810,-55.820,0.000],[9.73406E-05,-0.156597,-0.987662,-8.78936E-05],[-1,-1,-3,1],[9E+09,9E+09,9E+09,9E+09,9E+09,9E+09]],v50,z0,T2_R2\WObj:=DHI_WO_R2;
     MoveJ [[-145.620,-55.852,0.000],[9.73406E-05,-0.156597,-0.987662,-8.78936E-05],[-1,-1,-3,1],[9E+09,9E+09,9E+09,9E+09,9E+09,9E+09]],v50,z0,T2_R2\WObj:=DHI_WO_R2;
     MoveJ [[-144.670,-56.009,0.000],[9.73406E-05,-0.156597,-0.987662,-8.78936E-05],[-1,-1,-3,1],[9E+09,9E+09,9E+09,9E+09,9E+09,9E+09]],v50,z0,T2_R2\WObj:=DHI_WO_R2;
     MoveJ [[-144.480,-56.039,0.000],[9.73406E-05,-0.156597,-0.987662,-8.78936E-05],[-1,-1,-3,1],[9E+09,9E+09,9E+09,9E+09,9E+09,9E+09]],v50,z0,T2_R2\WObj:=DHI_WO_R2;
     MoveJ [[-144.380,-56.055,0.000],[9.73406E-05,-0.156597,-0.987662,-8.78936E-05],[-1,-1,-3,1],[9E+09,9E+09,9E+09,9E+09,9E+09,9E+09]],v50,z0,T2_R2\WObj:=DHI_WO_R2;
     MoveJ [[-143.210,-56.245,0.000],[9.73406E-05,-0.156597,-0.987662,-8.78936E-05],[-1,-1,-3,1],[9E+09,9E+09,9E+09,9E+09,9E+09,9E+09]],v50,z0,T2_R2\WObj:=DHI_WO_R2;
     MoveJ [[-143.150,-56.255,0.000],[9.73406E-05,-0.156597,-0.987662,-8.78936E-05],[-1,-1,-3,1],[9E+09,9E+09,9E+09,9E+09,9E+09,9E+09]],v50,z0,T2_R2\WObj:=DHI_WO_R2;
     MoveJ [[-142.010,-56.438,0.000],[9.73406E-05,-0.156597,-0.987662,-8.78936E-05],[-1,-1,-3,1],[9E+09,9E+09,9E+09,9E+09,9E+09,9E+09]],v50,z0,T2_R2\WObj:=DHI_WO_R2;
     MoveJ [[-141.820,-56.467,0.000],[9.73406E-05,-0.156597,-0.987662,-8.78936E-05],[-1,-1,-3,1],[9E+09,9E+09,9E+09,9E+09,9E+09,9E+09]],v50,z0,T2_R2\WObj:=DHI_WO_R2;
     MoveJ [[-141.630,-56.497,0.000],[9.73406E-05,-0.156597,-0.987662,-8.78936E-05],[-1,-1,-3,1],[9E+09,9E+09,9E+09,9E+09,9E+09,9E+09]],v50,z0,T2_R2\WObj:=DHI_WO_R2;
     MoveJ [[-140.680,-56.648,0.000],[9.73406E-05,-0.156597,-0.987662,-8.78936E-05],[-1,-1,-3,1],[9E+09,9E+09,9E+09,9E+09,9E+09,9E+09]],v50,z0,T2_R2\WObj:=DHI_WO_R2;
     MoveJ [[-140.490,-56.678,0.000],[9.73406E-05,-0.156597,-0.987662,-8.78936E-05],[-1,-1,-3,1],[9E+09,9E+09,9E+09,9E+09,9E+09,9E+09]],v50,z0,T2_R2\WObj:=DHI_WO_R2;
     MoveJ [[-140.300,-56.706,0.000],[9.73406E-05,-0.156597,-0.987662,-8.78936E-05],[-1,-1,-3,1],[9E+09,9E+09,9E+09,9E+09,9E+09,9E+09]],v50,z0,T2_R2\WObj:=DHI_WO_R2;
     MoveJ [[-139.160,-56.884,0.000],[9.73406E-05,-0.156597,-0.987662,-8.78936E-05],[-1,-1,-3,1],[9E+09,9E+09,9E+09,9E+09,9E+09,9E+09]],v50,z0,T2_R2\WObj:=DHI_WO_R2;
     MoveJ [[-138.970,-56.914,0.000],[9.73406E-05,-0.156597,-0.987662,-8.78936E-05],[-1,-1,-3,1],[9E+09,9E+09,9E+09,9E+09,9E+09,9E+09]],v50,z0,T2_R2\WObj:=DHI_WO_R2;
     MoveJ [[-137.830,-57.090,0.000],[9.73406E-05,-0.156597,-0.987662,-8.78936E-05],[-1,-1,-3,1],[9E+09,9E+09,9E+09,9E+09,9E+09,9E+09]],v50,z0,T2_R2\WObj:=DHI_WO_R2;
     MoveJ [[-137.640,-57.117,0.000],[9.73406E-05,-0.156597,-0.987662,-8.78936E-05],[-1,-1,-3,1],[9E+09,9E+09,9E+09,9E+09,9E+09,9E+09]],v50,z0,T2_R2\WObj:=DHI_WO_R2;
     MoveJ [[-137.450,-57.146,0.000],[9.73406E-05,-0.156597,-0.987662,-8.78936E-05],[-1,-1,-3,1],[9E+09,9E+09,9E+09,9E+09,9E+09,9E+09]],v50,z0,T2_R2\WObj:=DHI_WO_R2;
     MoveJ [[-136.500,-57.291,0.000],[9.73406E-05,-0.156597,-0.987662,-8.78936E-05],[-1,-1,-3,1],[9E+09,9E+09,9E+09,9E+09,9E+09,9E+09]],v50,z0,T2_R2\WObj:=DHI_WO_R2;
     MoveJ [[-136.310,-57.320,0.000],[9.73406E-05,-0.156597,-0.987662,-8.78936E-05],[-1,-1,-3,1],[9E+09,9E+09,9E+09,9E+09,9E+09,9E+09]],v50,z0,T2_R2\WObj:=DHI_WO_R2;
     MoveJ [[-136.120,-57.347,0.000],[9.73406E-05,-0.156597,-0.987662,-8.78936E-05],[-1,-1,-3,1],[9E+09,9E+09,9E+09,9E+09,9E+09,9E+09]],v50,z0,T2_R2\WObj:=DHI_WO_R2;
     MoveJ [[-135.930,-57.375,0.000],[9.73406E-05,-0.156597,-0.987662,-8.78936E-05],[-1,-1,-3,1],[9E+09,9E+09,9E+09,9E+09,9E+09,9E+09]],v50,z0,T2_R2\WObj:=DHI_WO_R2;
     MoveJ [[-134.980,-57.518,0.000],[9.73406E-05,-0.156597,-0.987662,-8.78936E-05],[-1,-1,-3,1],[9E+09,9E+09,9E+09,9E+09,9E+09,9E+09]],v50,z0,T2_R2\WObj:=DHI_WO_R2;
     MoveJ [[-134.790,-57.546,0.000],[9.73406E-05,-0.156597,-0.987662,-8.78936E-05],[-1,-1,-3,1],[9E+09,9E+09,9E+09,9E+09,9E+09,9E+09]],v50,z0,T2_R2\WObj:=DHI_WO_R2;
     MoveJ [[-134.570,-57.575,0.000],[9.73406E-05,-0.156597,-0.987662,-8.78936E-05],[-1,-1,-3,1],[9E+09,9E+09,9E+09,9E+09,9E+09,9E+09]],v50,z0,T2_R2\WObj:=DHI_WO_R2;
     MoveJ [[-134.410,-57.600,0.000],[9.73406E-05,-0.156597,-0.987662,-8.78936E-05],[-1,-1,-3,1],[9E+09,9E+09,9E+09,9E+09,9E+09,9E+09]],v50,z0,T2_R2\WObj:=DHI_WO_R2;
     MoveJ [[-133.290,-57.765,0.000],[9.73406E-05,-0.156597,-0.987662,-8.78936E-05],[-1,-1,-3,1],[9E+09,9E+09,9E+09,9E+09,9E+09,9E+09]],v50,z0,T2_R2\WObj:=DHI_WO_R2;
     MoveJ [[-133.260,-57.770,0.000],[9.73406E-05,-0.156597,-0.987662,-8.78936E-05],[-1,-1,-3,1],[9E+09,9E+09,9E+09,9E+09,9E+09,9E+09]],v50,z0,T2_R2\WObj:=DHI_WO_R2;
     MoveJ [[-132.120,-57.937,0.000],[9.73406E-05,-0.156597,-0.987662,-8.78936E-05],[-1,-1,-3,1],[9E+09,9E+09,9E+09,9E+09,9E+09,9E+09]],v50,z0,T2_R2\WObj:=DHI_WO_R2;
     MoveJ [[-131.990,-57.956,0.000],[9.73406E-05,-0.156597,-0.987662,-8.78936E-05],[-1,-1,-3,1],[9E+09,9E+09,9E+09,9E+09,9E+09,9E+09]],v50,z0,T2_R2\WObj:=DHI_WO_R2;
     MoveJ [[-131.740,-57.990,0.000],[9.73406E-05,-0.156597,-0.987662,-8.78936E-05],[-1,-1,-3,1],[9E+09,9E+09,9E+09,9E+09,9E+09,9E+09]],v50,z0,T2_R2\WObj:=DHI_WO_R2;
     MoveJ [[-131.550,-58.017,0.000],[9.73406E-05,-0.156597,-0.987662,-8.78936E-05],[-1,-1,-3,1],[9E+09,9E+09,9E+09,9E+09,9E+09,9E+09]],v50,z0,T2_R2\WObj:=DHI_WO_R2;
     MoveJ [[-130.600,-58.155,0.000],[9.73406E-05,-0.156597,-0.987662,-8.78936E-05],[-1,-1,-3,1],[9E+09,9E+09,9E+09,9E+09,9E+09,9E+09]],v50,z0,T2_R2\WObj:=DHI_WO_R2;
     MoveJ [[-130.410,-58.182,0.000],[9.73406E-05,-0.156597,-0.987662,-8.78936E-05],[-1,-1,-3,1],[9E+09,9E+09,9E+09,9E+09,9E+09,9E+09]],v50,z0,T2_R2\WObj:=DHI_WO_R2;
     MoveJ [[-130.220,-58.207,0.000],[9.73406E-05,-0.156597,-0.987662,-8.78936E-05],[-1,-1,-3,1],[9E+09,9E+09,9E+09,9E+09,9E+09,9E+09]],v50,z0,T2_R2\WObj:=DHI_WO_R2;
     MoveJ [[-130.030,-58.233,0.000],[9.73406E-05,-0.156597,-0.987662,-8.78936E-05],[-1,-1,-3,1],[9E+09,9E+09,9E+09,9E+09,9E+09,9E+09]],v50,z0,T2_R2\WObj:=DHI_WO_R2;
     MoveJ [[-128.890,-58.396,0.000],[9.73406E-05,-0.156597,-0.987662,-8.78936E-05],[-1,-1,-3,1],[9E+09,9E+09,9E+09,9E+09,9E+09,9E+09]],v50,z0,T2_R2\WObj:=DHI_WO_R2;
     MoveJ [[-128.700,-58.422,0.000],[9.73406E-05,-0.156597,-0.987662,-8.78936E-05],[-1,-1,-3,1],[9E+09,9E+09,9E+09,9E+09,9E+09,9E+09]],v50,z0,T2_R2\WObj:=DHI_WO_R2;
     MoveJ [[-128.510,-58.447,0.000],[9.73406E-05,-0.156597,-0.987662,-8.78936E-05],[-1,-1,-3,1],[9E+09,9E+09,9E+09,9E+09,9E+09,9E+09]],v50,z0,T2_R2\WObj:=DHI_WO_R2;
     MoveJ [[-128.320,-58.473,0.000],[9.73406E-05,-0.156597,-0.987662,-8.78936E-05],[-1,-1,-3,1],[9E+09,9E+09,9E+09,9E+09,9E+09,9E+09]],v50,z0,T2_R2\WObj:=DHI_WO_R2;
     MoveJ [[-127.370,-58.607,0.000],[9.73406E-05,-0.156597,-0.987662,-8.78936E-05],[-1,-1,-3,1],[9E+09,9E+09,9E+09,9E+09,9E+09,9E+09]],v50,z0,T2_R2\WObj:=DHI_WO_R2;
     MoveJ [[-127.180,-58.634,0.000],[9.73406E-05,-0.156597,-0.987662,-8.78936E-05],[-1,-1,-3,1],[9E+09,9E+09,9E+09,9E+09,9E+09,9E+09]],v50,z0,T2_R2\WObj:=DHI_WO_R2;
     MoveJ [[-126.040,-58.793,0.000],[9.73406E-05,-0.156597,-0.987662,-8.78936E-05],[-1,-1,-3,1],[9E+09,9E+09,9E+09,9E+09,9E+09,9E+09]],v50,z0,T2_R2\WObj:=DHI_WO_R2;
     MoveJ [[-125.850,-58.818,0.000],[9.73406E-05,-0.156597,-0.987662,-8.78936E-05],[-1,-1,-3,1],[9E+09,9E+09,9E+09,9E+09,9E+09,9E+09]],v50,z0,T2_R2\WObj:=DHI_WO_R2;
     MoveJ [[-125.660,-58.842,0.000],[9.73406E-05,-0.156597,-0.987662,-8.78936E-05],[-1,-1,-3,1],[9E+09,9E+09,9E+09,9E+09,9E+09,9E+09]],v50,z0,T2_R2\WObj:=DHI_WO_R2;
     MoveJ [[-125.470,-58.868,0.000],[9.73406E-05,-0.156597,-0.987662,-8.78936E-05],[-1,-1,-3,1],[9E+09,9E+09,9E+09,9E+09,9E+09,9E+09]],v50,z0,T2_R2\WObj:=DHI_WO_R2;
     MoveJ [[-124.520,-58.999,0.000],[9.73406E-05,-0.156597,-0.987662,-8.78936E-05],[-1,-1,-3,1],[9E+09,9E+09,9E+09,9E+09,9E+09,9E+09]],v50,z0,T2_R2\WObj:=DHI_WO_R2;
     MoveJ [[-124.330,-59.024,0.000],[9.73406E-05,-0.156597,-0.987662,-8.78936E-05],[-1,-1,-3,1],[9E+09,9E+09,9E+09,9E+09,9E+09,9E+09]],v50,z0,T2_R2\WObj:=DHI_WO_R2;
     MoveJ [[-123.950,-59.073,0.000],[9.73406E-05,-0.156597,-0.987662,-8.78936E-05],[-1,-1,-3,1],[9E+09,9E+09,9E+09,9E+09,9E+09,9E+09]],v50,z0,T2_R2\WObj:=DHI_WO_R2;
     MoveJ [[-123.770,-59.096,0.000],[9.73406E-05,-0.156597,-0.987662,-8.78936E-05],[-1,-1,-3,1],[9E+09,9E+09,9E+09,9E+09,9E+09,9E+09]],v50,z0,T2_R2\WObj:=DHI_WO_R2;
     MoveJ [[-122.810,-59.227,0.000],[9.73406E-05,-0.156597,-0.987662,-8.78936E-05],[-1,-1,-3,1],[9E+09,9E+09,9E+09,9E+09,9E+09,9E+09]],v50,z0,T2_R2\WObj:=DHI_WO_R2;
     MoveJ [[-122.620,-59.252,0.000],[9.73406E-05,-0.156597,-0.987662,-8.78936E-05],[-1,-1,-3,1],[9E+09,9E+09,9E+09,9E+09,9E+09,9E+09]],v50,z0,T2_R2\WObj:=DHI_WO_R2;
     MoveJ [[-122.240,-59.299,0.000],[9.73406E-05,-0.156597,-0.987662,-8.78936E-05],[-1,-1,-3,1],[9E+09,9E+09,9E+09,9E+09,9E+09,9E+09]],v50,z0,T2_R2\WObj:=DHI_WO_R2;
     MoveJ [[-122.050,-59.325,0.000],[9.73406E-05,-0.156597,-0.987662,-8.78936E-05],[-1,-1,-3,1],[9E+09,9E+09,9E+09,9E+09,9E+09,9E+09]],v50,z0,T2_R2\WObj:=DHI_WO_R2;
     MoveJ [[-121.100,-59.452,0.000],[9.73406E-05,-0.156597,-0.987662,-8.78936E-05],[-1,-1,-3,1],[9E+09,9E+09,9E+09,9E+09,9E+09,9E+09]],v50,z0,T2_R2\WObj:=DHI_WO_R2;
     MoveJ [[-120.910,-59.476,0.000],[9.73406E-05,-0.156597,-0.987662,-8.78936E-05],[-1,-1,-3,1],[9E+09,9E+09,9E+09,9E+09,9E+09,9E+09]],v50,z0,T2_R2\WObj:=DHI_WO_R2;
     MoveJ [[-119.960,-59.603,0.000],[9.73406E-05,-0.156597,-0.987662,-8.78936E-05],[-1,-1,-3,1],[9E+09,9E+09,9E+09,9E+09,9E+09,9E+09]],v50,z0,T2_R2\WObj:=DHI_WO_R2;
     MoveJ [[-119.770,-59.627,0.000],[9.73406E-05,-0.156597,-0.987662,-8.78936E-05],[-1,-1,-3,1],[9E+09,9E+09,9E+09,9E+09,9E+09,9E+09]],v50,z0,T2_R2\WObj:=DHI_WO_R2;
     MoveJ [[-119.390,-59.674,0.000],[9.73406E-05,-0.156597,-0.987662,-8.78936E-05],[-1,-1,-3,1],[9E+09,9E+09,9E+09,9E+09,9E+09,9E+09]],v50,z0,T2_R2\WObj:=DHI_WO_R2;
     MoveJ [[-119.200,-59.698,0.000],[9.73406E-05,-0.156597,-0.987662,-8.78936E-05],[-1,-1,-3,1],[9E+09,9E+09,9E+09,9E+09,9E+09,9E+09]],v50,z0,T2_R2\WObj:=DHI_WO_R2;
     MoveJ [[-118.250,-59.822,0.000],[9.73406E-05,-0.156597,-0.987662,-8.78936E-05],[-1,-1,-3,1],[9E+09,9E+09,9E+09,9E+09,9E+09,9E+09]],v50,z0,T2_R2\WObj:=DHI_WO_R2;
     MoveJ [[-118.050,-59.846,0.000],[9.73406E-05,-0.156597,-0.987662,-8.78936E-05],[-1,-1,-3,1],[9E+09,9E+09,9E+09,9E+09,9E+09,9E+09]],v50,z0,T2_R2\WObj:=DHI_WO_R2;
     MoveJ [[-117.670,-59.892,0.000],[9.73406E-05,-0.156597,-0.987662,-8.78936E-05],[-1,-1,-3,1],[9E+09,9E+09,9E+09,9E+09,9E+09,9E+09]],v50,z0,T2_R2\WObj:=DHI_WO_R2;
     MoveJ [[-117.480,-59.915,0.000],[9.73406E-05,-0.156597,-0.987662,-8.78936E-05],[-1,-1,-3,1],[9E+09,9E+09,9E+09,9E+09,9E+09,9E+09]],v50,z0,T2_R2\WObj:=DHI_WO_R2;
     MoveJ [[-115.200,-60.206,0.000],[9.73406E-05,-0.156597,-0.987662,-8.78936E-05],[-1,-1,-3,1],[9E+09,9E+09,9E+09,9E+09,9E+09,9E+09]],v50,z0,T2_R2\WObj:=DHI_WO_R2;
     MoveJ [[-115.010,-60.229,0.000],[9.73406E-05,-0.156597,-0.987662,-8.78936E-05],[-1,-1,-3,1],[9E+09,9E+09,9E+09,9E+09,9E+09,9E+09]],v50,z0,T2_R2\WObj:=DHI_WO_R2;
     MoveJ [[-114.630,-60.273,0.000],[9.73406E-05,-0.156597,-0.987662,-8.78936E-05],[-1,-1,-3,1],[9E+09,9E+09,9E+09,9E+09,9E+09,9E+09]],v50,z0,T2_R2\WObj:=DHI_WO_R2;
     MoveJ [[-114.440,-60.295,0.000],[9.73406E-05,-0.156597,-0.987662,-8.78936E-05],[-1,-1,-3,1],[9E+09,9E+09,9E+09,9E+09,9E+09,9E+09]],v50,z0,T2_R2\WObj:=DHI_WO_R2;
     MoveJ [[-114.250,-60.317,0.000],[9.73406E-05,-0.156597,-0.987662,-8.78936E-05],[-1,-1,-3,1],[9E+09,9E+09,9E+09,9E+09,9E+09,9E+09]],v50,z0,T2_R2\WObj:=DHI_WO_R2;
     MoveJ [[-114.060,-60.340,0.000],[9.73406E-05,-0.156597,-0.987662,-8.78936E-05],[-1,-1,-3,1],[9E+09,9E+09,9E+09,9E+09,9E+09,9E+09]],v50,z0,T2_R2\WObj:=DHI_WO_R2;
     MoveJ [[-111.780,-60.623,0.000],[9.73406E-05,-0.156597,-0.987662,-8.78936E-05],[-1,-1,-3,1],[9E+09,9E+09,9E+09,9E+09,9E+09,9E+09]],v50,z0,T2_R2\WObj:=DHI_WO_R2;
     MoveJ [[-111.590,-60.646,0.000],[9.73406E-05,-0.156597,-0.987662,-8.78936E-05],[-1,-1,-3,1],[9E+09,9E+09,9E+09,9E+09,9E+09,9E+09]],v50,z0,T2_R2\WObj:=DHI_WO_R2;
     MoveJ [[-110.260,-60.794,0.000],[9.73406E-05,-0.156597,-0.987662,-8.78936E-05],[-1,-1,-3,1],[9E+09,9E+09,9E+09,9E+09,9E+09,9E+09]],v50,z0,T2_R2\WObj:=DHI_WO_R2;
     MoveJ [[-110.150,-60.807,0.000],[9.73406E-05,-0.156597,-0.987662,-8.78936E-05],[-1,-1,-3,1],[9E+09,9E+09,9E+09,9E+09,9E+09,9E+09]],v50,z0,T2_R2\WObj:=DHI_WO_R2;
     MoveJ [[-110.070,-60.816,0.000],[9.73406E-05,-0.156597,-0.987662,-8.78936E-05],[-1,-1,-3,1],[9E+09,9E+09,9E+09,9E+09,9E+09,9E+09]],v50,z0,T2_R2\WObj:=DHI_WO_R2;
     MoveJ [[-107.790,-61.090,0.000],[9.73406E-05,-0.156597,-0.987662,-8.78936E-05],[-1,-1,-3,1],[9E+09,9E+09,9E+09,9E+09,9E+09,9E+09]],v50,z0,T2_R2\WObj:=DHI_WO_R2;
     MoveJ [[-107.600,-61.112,0.000],[9.73406E-05,-0.156597,-0.987662,-8.78936E-05],[-1,-1,-3,1],[9E+09,9E+09,9E+09,9E+09,9E+09,9E+09]],v50,z0,T2_R2\WObj:=DHI_WO_R2;
     MoveJ [[-105.510,-61.355,0.000],[9.73406E-05,-0.156597,-0.987662,-8.78936E-05],[-1,-1,-3,1],[9E+09,9E+09,9E+09,9E+09,9E+09,9E+09]],v50,z0,T2_R2\WObj:=DHI_WO_R2;
     MoveJ [[-105.320,-61.377,0.000],[9.73406E-05,-0.156597,-0.987662,-8.78936E-05],[-1,-1,-3,1],[9E+09,9E+09,9E+09,9E+09,9E+09,9E+09]],v50,z0,T2_R2\WObj:=DHI_WO_R2;
     MoveJ [[-103.800,-61.538,0.000],[9.73406E-05,-0.156597,-0.987662,-8.78936E-05],[-1,-1,-3,1],[9E+09,9E+09,9E+09,9E+09,9E+09,9E+09]],v50,z0,T2_R2\WObj:=DHI_WO_R2;
     MoveJ [[-103.610,-61.559,0.000],[9.73406E-05,-0.156597,-0.987662,-8.78936E-05],[-1,-1,-3,1],[9E+09,9E+09,9E+09,9E+09,9E+09,9E+09]],v50,z0,T2_R2\WObj:=DHI_WO_R2;
     MoveJ [[-101.510,-61.794,0.000],[9.73406E-05,-0.156597,-0.987662,-8.78936E-05],[-1,-1,-3,1],[9E+09,9E+09,9E+09,9E+09,9E+09,9E+09]],v50,z0,T2_R2\WObj:=DHI_WO_R2;
     MoveJ [[-101.320,-61.814,0.000],[9.73406E-05,-0.156597,-0.987662,-8.78936E-05],[-1,-1,-3,1],[9E+09,9E+09,9E+09,9E+09,9E+09,9E+09]],v50,z0,T2_R2\WObj:=DHI_WO_R2;
     MoveJ [[-99.420,-62.005,0.000],[9.73406E-05,-0.156597,-0.987662,-8.78936E-05],[-1,-1,-3,1],[9E+09,9E+09,9E+09,9E+09,9E+09,9E+09]],v50,z0,T2_R2\WObj:=DHI_WO_R2;
     MoveJ [[-99.230,-62.025,0.000],[9.73406E-05,-0.156597,-0.987662,-8.78936E-05],[-1,-1,-3,1],[9E+09,9E+09,9E+09,9E+09,9E+09,9E+09]],v50,z0,T2_R2\WObj:=DHI_WO_R2;
     MoveJ [[-97.330,-62.230,0.000],[9.73406E-05,-0.156597,-0.987662,-8.78936E-05],[-1,-1,-3,1],[9E+09,9E+09,9E+09,9E+09,9E+09,9E+09]],v50,z0,T2_R2\WObj:=DHI_WO_R2;
     MoveJ [[-97.140,-62.251,0.000],[9.73406E-05,-0.156597,-0.987662,-8.78936E-05],[-1,-1,-3,1],[9E+09,9E+09,9E+09,9E+09,9E+09,9E+09]],v50,z0,T2_R2\WObj:=DHI_WO_R2;
     MoveJ [[-95.050,-62.468,0.000],[9.73406E-05,-0.156597,-0.987662,-8.78936E-05],[-1,-1,-3,1],[9E+09,9E+09,9E+09,9E+09,9E+09,9E+09]],v50,z0,T2_R2\WObj:=DHI_WO_R2;
     MoveJ [[-94.860,-62.486,0.000],[9.73406E-05,-0.156597,-0.987662,-8.78936E-05],[-1,-1,-3,1],[9E+09,9E+09,9E+09,9E+09,9E+09,9E+09]],v50,z0,T2_R2\WObj:=DHI_WO_R2;
     MoveJ [[-92.960,-62.665,0.000],[9.73406E-05,-0.156597,-0.987662,-8.78936E-05],[-1,-1,-3,1],[9E+09,9E+09,9E+09,9E+09,9E+09,9E+09]],v50,z0,T2_R2\WObj:=DHI_WO_R2;
     MoveJ [[-92.770,-62.683,0.000],[9.73406E-05,-0.156597,-0.987662,-8.78936E-05],[-1,-1,-3,1],[9E+09,9E+09,9E+09,9E+09,9E+09,9E+09]],v50,z0,T2_R2\WObj:=DHI_WO_R2;
     MoveJ [[-90.870,-62.873,0.000],[9.73406E-05,-0.156597,-0.987662,-8.78936E-05],[-1,-1,-3,1],[9E+09,9E+09,9E+09,9E+09,9E+09,9E+09]],v50,z0,T2_R2\WObj:=DHI_WO_R2;
     MoveJ [[-90.680,-62.892,0.000],[9.73406E-05,-0.156597,-0.987662,-8.78936E-05],[-1,-1,-3,1],[9E+09,9E+09,9E+09,9E+09,9E+09,9E+09]],v50,z0,T2_R2\WObj:=DHI_WO_R2;
     MoveJ [[-89.730,-62.977,0.000],[9.73406E-05,-0.156597,-0.987662,-8.78936E-05],[-1,-1,-3,1],[9E+09,9E+09,9E+09,9E+09,9E+09,9E+09]],v50,z0,T2_R2\WObj:=DHI_WO_R2;
     MoveJ [[-89.540,-62.994,0.000],[9.73406E-05,-0.156597,-0.987662,-8.78936E-05],[-1,-1,-3,1],[9E+09,9E+09,9E+09,9E+09,9E+09,9E+09]],v50,z0,T2_R2\WObj:=DHI_WO_R2;
     MoveJ [[-89.350,-63.012,0.000],[9.73406E-05,-0.156597,-0.987662,-8.78936E-05],[-1,-1,-3,1],[9E+09,9E+09,9E+09,9E+09,9E+09,9E+09]],v50,z0,T2_R2\WObj:=DHI_WO_R2;
     MoveJ [[-87.640,-63.176,0.000],[9.73406E-05,-0.156597,-0.987662,-8.78936E-05],[-1,-1,-3,1],[9E+09,9E+09,9E+09,9E+09,9E+09,9E+09]],v50,z0,T2_R2\WObj:=DHI_WO_R2;
     MoveJ [[-87.450,-63.193,0.000],[9.73406E-05,-0.156597,-0.987662,-8.78936E-05],[-1,-1,-3,1],[9E+09,9E+09,9E+09,9E+09,9E+09,9E+09]],v50,z0,T2_R2\WObj:=DHI_WO_R2;
     MoveJ [[-86.300,-63.291,0.000],[9.73406E-05,-0.156597,-0.987662,-8.78936E-05],[-1,-1,-3,1],[9E+09,9E+09,9E+09,9E+09,9E+09,9E+09]],v50,z0,T2_R2\WObj:=DHI_WO_R2;
     MoveJ [[-86.110,-63.308,0.000],[9.73406E-05,-0.156597,-0.987662,-8.78936E-05],[-1,-1,-3,1],[9E+09,9E+09,9E+09,9E+09,9E+09,9E+09]],v50,z0,T2_R2\WObj:=DHI_WO_R2;
     MoveJ [[-84.370,-63.468,0.000],[9.73406E-05,-0.156597,-0.987662,-8.78936E-05],[-1,-1,-3,1],[9E+09,9E+09,9E+09,9E+09,9E+09,9E+09]],v50,z0,T2_R2\WObj:=DHI_WO_R2;
     MoveJ [[-84.210,-63.481,0.000],[9.73406E-05,-0.156597,-0.987662,-8.78936E-05],[-1,-1,-3,1],[9E+09,9E+09,9E+09,9E+09,9E+09,9E+09]],v50,z0,T2_R2\WObj:=DHI_WO_R2;
     MoveJ [[-83.260,-63.560,0.000],[9.73406E-05,-0.156597,-0.987662,-8.78936E-05],[-1,-1,-3,1],[9E+09,9E+09,9E+09,9E+09,9E+09,9E+09]],v50,z0,T2_R2\WObj:=DHI_WO_R2;
     MoveJ [[-83.070,-63.576,0.000],[9.73406E-05,-0.156597,-0.987662,-8.78936E-05],[-1,-1,-3,1],[9E+09,9E+09,9E+09,9E+09,9E+09,9E+09]],v50,z0,T2_R2\WObj:=DHI_WO_R2;
     MoveJ [[-81.740,-63.681,0.000],[9.73406E-05,-0.156597,-0.987662,-8.78936E-05],[-1,-1,-3,1],[9E+09,9E+09,9E+09,9E+09,9E+09,9E+09]],v50,z0,T2_R2\WObj:=DHI_WO_R2;
     MoveJ [[-81.550,-63.698,0.000],[9.73406E-05,-0.156597,-0.987662,-8.78936E-05],[-1,-1,-3,1],[9E+09,9E+09,9E+09,9E+09,9E+09,9E+09]],v50,z0,T2_R2\WObj:=DHI_WO_R2;
     MoveJ [[-80.030,-63.831,0.000],[9.73406E-05,-0.156597,-0.987662,-8.78936E-05],[-1,-1,-3,1],[9E+09,9E+09,9E+09,9E+09,9E+09,9E+09]],v50,z0,T2_R2\WObj:=DHI_WO_R2;
     MoveJ [[-79.840,-63.847,0.000],[9.73406E-05,-0.156597,-0.987662,-8.78936E-05],[-1,-1,-3,1],[9E+09,9E+09,9E+09,9E+09,9E+09,9E+09]],v50,z0,T2_R2\WObj:=DHI_WO_R2;
     MoveJ [[-78.510,-63.948,0.000],[9.73406E-05,-0.156597,-0.987662,-8.78936E-05],[-1,-1,-3,1],[9E+09,9E+09,9E+09,9E+09,9E+09,9E+09]],v50,z0,T2_R2\WObj:=DHI_WO_R2;
     MoveJ [[-78.320,-63.964,0.000],[9.73406E-05,-0.156597,-0.987662,-8.78936E-05],[-1,-1,-3,1],[9E+09,9E+09,9E+09,9E+09,9E+09,9E+09]],v50,z0,T2_R2\WObj:=DHI_WO_R2;
     MoveJ [[-76.800,-64.090,0.000],[9.73406E-05,-0.156597,-0.987662,-8.78936E-05],[-1,-1,-3,1],[9E+09,9E+09,9E+09,9E+09,9E+09,9E+09]],v50,z0,T2_R2\WObj:=DHI_WO_R2;
     MoveJ [[-76.610,-64.105,0.000],[9.73406E-05,-0.156597,-0.987662,-8.78936E-05],[-1,-1,-3,1],[9E+09,9E+09,9E+09,9E+09,9E+09,9E+09]],v50,z0,T2_R2\WObj:=DHI_WO_R2;
     MoveJ [[-75.280,-64.202,0.000],[9.73406E-05,-0.156597,-0.987662,-8.78936E-05],[-1,-1,-3,1],[9E+09,9E+09,9E+09,9E+09,9E+09,9E+09]],v50,z0,T2_R2\WObj:=DHI_WO_R2;
     MoveJ [[-75.090,-64.216,0.000],[9.73406E-05,-0.156597,-0.987662,-8.78936E-05],[-1,-1,-3,1],[9E+09,9E+09,9E+09,9E+09,9E+09,9E+09]],v50,z0,T2_R2\WObj:=DHI_WO_R2;
     MoveJ [[-73.760,-64.321,0.000],[9.73406E-05,-0.156597,-0.987662,-8.78936E-05],[-1,-1,-3,1],[9E+09,9E+09,9E+09,9E+09,9E+09,9E+09]],v50,z0,T2_R2\WObj:=DHI_WO_R2;
     MoveJ [[-73.570,-64.336,0.000],[9.73406E-05,-0.156597,-0.987662,-8.78936E-05],[-1,-1,-3,1],[9E+09,9E+09,9E+09,9E+09,9E+09,9E+09]],v50,z0,T2_R2\WObj:=DHI_WO_R2;
     MoveJ [[-72.240,-64.428,0.000],[9.73406E-05,-0.156597,-0.987662,-8.78936E-05],[-1,-1,-3,1],[9E+09,9E+09,9E+09,9E+09,9E+09,9E+09]],v50,z0,T2_R2\WObj:=DHI_WO_R2;
     MoveJ [[-72.050,-64.442,0.000],[9.73406E-05,-0.156597,-0.987662,-8.78936E-05],[-1,-1,-3,1],[9E+09,9E+09,9E+09,9E+09,9E+09,9E+09]],v50,z0,T2_R2\WObj:=DHI_WO_R2;
     MoveJ [[-70.520,-64.555,0.000],[9.73406E-05,-0.156597,-0.987662,-8.78936E-05],[-1,-1,-3,1],[9E+09,9E+09,9E+09,9E+09,9E+09,9E+09]],v50,z0,T2_R2\WObj:=DHI_WO_R2;
     MoveJ [[-70.330,-64.568,0.000],[9.73406E-05,-0.156597,-0.987662,-8.78936E-05],[-1,-1,-3,1],[9E+09,9E+09,9E+09,9E+09,9E+09,9E+09]],v50,z0,T2_R2\WObj:=DHI_WO_R2;
     MoveJ [[-69.000,-64.656,0.000],[9.73406E-05,-0.156597,-0.987662,-8.78936E-05],[-1,-1,-3,1],[9E+09,9E+09,9E+09,9E+09,9E+09,9E+09]],v50,z0,T2_R2\WObj:=DHI_WO_R2;
     MoveJ [[-68.810,-64.668,0.000],[9.73406E-05,-0.156597,-0.987662,-8.78936E-05],[-1,-1,-3,1],[9E+09,9E+09,9E+09,9E+09,9E+09,9E+09]],v50,z0,T2_R2\WObj:=DHI_WO_R2;
     MoveJ [[-67.290,-64.763,0.000],[9.73406E-05,-0.156597,-0.987662,-8.78936E-05],[-1,-1,-3,1],[9E+09,9E+09,9E+09,9E+09,9E+09,9E+09]],v50,z0,T2_R2\WObj:=DHI_WO_R2;
     MoveJ [[-67.100,-64.776,0.000],[9.73406E-05,-0.156597,-0.987662,-8.78936E-05],[-1,-1,-3,1],[9E+09,9E+09,9E+09,9E+09,9E+09,9E+09]],v50,z0,T2_R2\WObj:=DHI_WO_R2;
     MoveJ [[-65.960,-64.856,0.000],[9.73406E-05,-0.156597,-0.987662,-8.78936E-05],[-1,-1,-3,1],[9E+09,9E+09,9E+09,9E+09,9E+09,9E+09]],v50,z0,T2_R2\WObj:=DHI_WO_R2;
     MoveJ [[-65.770,-64.869,0.000],[9.73406E-05,-0.156597,-0.987662,-8.78936E-05],[-1,-1,-3,1],[9E+09,9E+09,9E+09,9E+09,9E+09,9E+09]],v50,z0,T2_R2\WObj:=DHI_WO_R2;
     MoveJ [[-64.250,-64.959,0.000],[9.73406E-05,-0.156597,-0.987662,-8.78936E-05],[-1,-1,-3,1],[9E+09,9E+09,9E+09,9E+09,9E+09,9E+09]],v50,z0,T2_R2\WObj:=DHI_WO_R2;
     MoveJ [[-64.060,-64.971,0.000],[9.73406E-05,-0.156597,-0.987662,-8.78936E-05],[-1,-1,-3,1],[9E+09,9E+09,9E+09,9E+09,9E+09,9E+09]],v50,z0,T2_R2\WObj:=DHI_WO_R2;
     MoveJ [[-62.730,-65.058,0.000],[9.73406E-05,-0.156597,-0.987662,-8.78936E-05],[-1,-1,-3,1],[9E+09,9E+09,9E+09,9E+09,9E+09,9E+09]],v50,z0,T2_R2\WObj:=DHI_WO_R2;
     MoveJ [[-62.540,-65.069,0.000],[9.73406E-05,-0.156597,-0.987662,-8.78936E-05],[-1,-1,-3,1],[9E+09,9E+09,9E+09,9E+09,9E+09,9E+09]],v50,z0,T2_R2\WObj:=DHI_WO_R2;
     MoveJ [[-61.020,-65.154,0.000],[9.73406E-05,-0.156597,-0.987662,-8.78936E-05],[-1,-1,-3,1],[9E+09,9E+09,9E+09,9E+09,9E+09,9E+09]],v50,z0,T2_R2\WObj:=DHI_WO_R2;
     MoveJ [[-60.830,-65.165,0.000],[9.73406E-05,-0.156597,-0.987662,-8.78936E-05],[-1,-1,-3,1],[9E+09,9E+09,9E+09,9E+09,9E+09,9E+09]],v50,z0,T2_R2\WObj:=DHI_WO_R2;
     MoveJ [[-59.690,-65.234,0.000],[9.73406E-05,-0.156597,-0.987662,-8.78936E-05],[-1,-1,-3,1],[9E+09,9E+09,9E+09,9E+09,9E+09,9E+09]],v50,z0,T2_R2\WObj:=DHI_WO_R2;
     MoveJ [[-59.500,-65.245,0.000],[9.73406E-05,-0.156597,-0.987662,-8.78936E-05],[-1,-1,-3,1],[9E+09,9E+09,9E+09,9E+09,9E+09,9E+09]],v50,z0,T2_R2\WObj:=DHI_WO_R2;
     MoveJ [[-57.980,-65.325,0.000],[9.73406E-05,-0.156597,-0.987662,-8.78936E-05],[-1,-1,-3,1],[9E+09,9E+09,9E+09,9E+09,9E+09,9E+09]],v50,z0,T2_R2\WObj:=DHI_WO_R2;
     MoveJ [[-57.790,-65.334,0.000],[9.73406E-05,-0.156597,-0.987662,-8.78936E-05],[-1,-1,-3,1],[9E+09,9E+09,9E+09,9E+09,9E+09,9E+09]],v50,z0,T2_R2\WObj:=DHI_WO_R2;
     MoveJ [[-56.270,-65.409,0.000],[9.73406E-05,-0.156597,-0.987662,-8.78936E-05],[-1,-1,-3,1],[9E+09,9E+09,9E+09,9E+09,9E+09,9E+09]],v50,z0,T2_R2\WObj:=DHI_WO_R2;
     MoveJ [[-56.080,-65.419,0.000],[9.73406E-05,-0.156597,-0.987662,-8.78936E-05],[-1,-1,-3,1],[9E+09,9E+09,9E+09,9E+09,9E+09,9E+09]],v50,z0,T2_R2\WObj:=DHI_WO_R2;
     MoveJ [[-55.120,-65.473,0.000],[9.73406E-05,-0.156597,-0.987662,-8.78936E-05],[-1,-1,-3,1],[9E+09,9E+09,9E+09,9E+09,9E+09,9E+09]],v50,z0,T2_R2\WObj:=DHI_WO_R2;
     MoveJ [[-54.930,-65.483,0.000],[9.73406E-05,-0.156597,-0.987662,-8.78936E-05],[-1,-1,-3,1],[9E+09,9E+09,9E+09,9E+09,9E+09,9E+09]],v50,z0,T2_R2\WObj:=DHI_WO_R2;
     MoveJ [[-53.410,-65.553,0.000],[9.73406E-05,-0.156597,-0.987662,-8.78936E-05],[-1,-1,-3,1],[9E+09,9E+09,9E+09,9E+09,9E+09,9E+09]],v50,z0,T2_R2\WObj:=DHI_WO_R2;
     MoveJ [[-53.300,-65.559,0.000],[9.73406E-05,-0.156597,-0.987662,-8.78936E-05],[-1,-1,-3,1],[9E+09,9E+09,9E+09,9E+09,9E+09,9E+09]],v50,z0,T2_R2\WObj:=DHI_WO_R2;
     MoveJ [[-52.270,-65.612,0.000],[9.73406E-05,-0.156597,-0.987662,-8.78936E-05],[-1,-1,-3,1],[9E+09,9E+09,9E+09,9E+09,9E+09,9E+09]],v50,z0,T2_R2\WObj:=DHI_WO_R2;
     MoveJ [[-52.080,-65.621,0.000],[9.73406E-05,-0.156597,-0.987662,-8.78936E-05],[-1,-1,-3,1],[9E+09,9E+09,9E+09,9E+09,9E+09,9E+09]],v50,z0,T2_R2\WObj:=DHI_WO_R2;
     MoveJ [[-50.750,-65.678,0.000],[9.73406E-05,-0.156597,-0.987662,-8.78936E-05],[-1,-1,-3,1],[9E+09,9E+09,9E+09,9E+09,9E+09,9E+09]],v50,z0,T2_R2\WObj:=DHI_WO_R2;
     MoveJ [[-50.560,-65.686,0.000],[9.73406E-05,-0.156597,-0.987662,-8.78936E-05],[-1,-1,-3,1],[9E+09,9E+09,9E+09,9E+09,9E+09,9E+09]],v50,z0,T2_R2\WObj:=DHI_WO_R2;
     MoveJ [[-49.610,-65.732,0.000],[9.73406E-05,-0.156597,-0.987662,-8.78936E-05],[-1,-1,-3,1],[9E+09,9E+09,9E+09,9E+09,9E+09,9E+09]],v50,z0,T2_R2\WObj:=DHI_WO_R2;
     MoveJ [[-49.420,-65.740,0.000],[9.73406E-05,-0.156597,-0.987662,-8.78936E-05],[-1,-1,-3,1],[9E+09,9E+09,9E+09,9E+09,9E+09,9E+09]],v50,z0,T2_R2\WObj:=DHI_WO_R2;
     MoveJ [[-47.900,-65.801,0.000],[9.73406E-05,-0.156597,-0.987662,-8.78936E-05],[-1,-1,-3,1],[9E+09,9E+09,9E+09,9E+09,9E+09,9E+09]],v50,z0,T2_R2\WObj:=DHI_WO_R2;
     MoveJ [[-47.710,-65.808,0.000],[9.73406E-05,-0.156597,-0.987662,-8.78936E-05],[-1,-1,-3,1],[9E+09,9E+09,9E+09,9E+09,9E+09,9E+09]],v50,z0,T2_R2\WObj:=DHI_WO_R2;
     MoveJ [[-46.190,-65.865,0.000],[9.73406E-05,-0.156597,-0.987662,-8.78936E-05],[-1,-1,-3,1],[9E+09,9E+09,9E+09,9E+09,9E+09,9E+09]],v50,z0,T2_R2\WObj:=DHI_WO_R2;
     MoveJ [[-46.000,-65.873,0.000],[9.73406E-05,-0.156597,-0.987662,-8.78936E-05],[-1,-1,-3,1],[9E+09,9E+09,9E+09,9E+09,9E+09,9E+09]],v50,z0,T2_R2\WObj:=DHI_WO_R2;
     MoveJ [[-45.240,-65.906,0.000],[9.73406E-05,-0.156597,-0.987662,-8.78936E-05],[-1,-1,-3,1],[9E+09,9E+09,9E+09,9E+09,9E+09,9E+09]],v50,z0,T2_R2\WObj:=DHI_WO_R2;
     MoveJ [[-45.050,-65.913,0.000],[9.73406E-05,-0.156597,-0.987662,-8.78936E-05],[-1,-1,-3,1],[9E+09,9E+09,9E+09,9E+09,9E+09,9E+09]],v50,z0,T2_R2\WObj:=DHI_WO_R2;
     MoveJ [[-43.530,-65.965,0.000],[9.73406E-05,-0.156597,-0.987662,-8.78936E-05],[-1,-1,-3,1],[9E+09,9E+09,9E+09,9E+09,9E+09,9E+09]],v50,z0,T2_R2\WObj:=DHI_WO_R2;
     MoveJ [[-43.340,-65.972,0.000],[9.73406E-05,-0.156597,-0.987662,-8.78936E-05],[-1,-1,-3,1],[9E+09,9E+09,9E+09,9E+09,9E+09,9E+09]],v50,z0,T2_R2\WObj:=DHI_WO_R2;
     MoveJ [[-42.580,-66.001,0.000],[9.73406E-05,-0.156597,-0.987662,-8.78936E-05],[-1,-1,-3,1],[9E+09,9E+09,9E+09,9E+09,9E+09,9E+09]],v50,z0,T2_R2\WObj:=DHI_WO_R2;
     MoveJ [[-42.390,-66.008,0.000],[9.73406E-05,-0.156597,-0.987662,-8.78936E-05],[-1,-1,-3,1],[9E+09,9E+09,9E+09,9E+09,9E+09,9E+09]],v50,z0,T2_R2\WObj:=DHI_WO_R2;
     MoveJ [[-38.960,-66.109,0.000],[9.73406E-05,-0.156597,-0.987662,-8.78936E-05],[-1,-1,-3,1],[9E+09,9E+09,9E+09,9E+09,9E+09,9E+09]],v50,z0,T2_R2\WObj:=DHI_WO_R2;
     MoveJ [[-38.770,-66.115,0.000],[9.73406E-05,-0.156597,-0.987662,-8.78936E-05],[-1,-1,-3,1],[9E+09,9E+09,9E+09,9E+09,9E+09,9E+09]],v50,z0,T2_R2\WObj:=DHI_WO_R2;
     MoveJ [[-38.200,-66.135,0.000],[9.73406E-05,-0.156597,-0.987662,-8.78936E-05],[-1,-1,-3,1],[9E+09,9E+09,9E+09,9E+09,9E+09,9E+09]],v50,z0,T2_R2\WObj:=DHI_WO_R2;
     MoveJ [[-38.010,-66.141,0.000],[9.73406E-05,-0.156597,-0.987662,-8.78936E-05],[-1,-1,-3,1],[9E+09,9E+09,9E+09,9E+09,9E+09,9E+09]],v50,z0,T2_R2\WObj:=DHI_WO_R2;
     MoveJ [[-34.210,-66.232,0.000],[9.73406E-05,-0.156597,-0.987662,-8.78936E-05],[-1,-1,-3,1],[9E+09,9E+09,9E+09,9E+09,9E+09,9E+09]],v50,z0,T2_R2\WObj:=DHI_WO_R2;
     MoveJ [[-34.020,-66.238,0.000],[9.73406E-05,-0.156597,-0.987662,-8.78936E-05],[-1,-1,-3,1],[9E+09,9E+09,9E+09,9E+09,9E+09,9E+09]],v50,z0,T2_R2\WObj:=DHI_WO_R2;
     MoveJ [[-33.640,-66.250,0.000],[9.73406E-05,-0.156597,-0.987662,-8.78936E-05],[-1,-1,-3,1],[9E+09,9E+09,9E+09,9E+09,9E+09,9E+09]],v50,z0,T2_R2\WObj:=DHI_WO_R2;
     MoveJ [[-33.450,-66.255,0.000],[9.73406E-05,-0.156597,-0.987662,-8.78936E-05],[-1,-1,-3,1],[9E+09,9E+09,9E+09,9E+09,9E+09,9E+09]],v50,z0,T2_R2\WObj:=DHI_WO_R2;
     MoveJ [[-33.070,-66.265,0.000],[9.73406E-05,-0.156597,-0.987662,-8.78936E-05],[-1,-1,-3,1],[9E+09,9E+09,9E+09,9E+09,9E+09,9E+09]],v50,z0,T2_R2\WObj:=DHI_WO_R2;
     MoveJ [[-32.880,-66.269,0.000],[9.73406E-05,-0.156597,-0.987662,-8.78936E-05],[-1,-1,-3,1],[9E+09,9E+09,9E+09,9E+09,9E+09,9E+09]],v50,z0,T2_R2\WObj:=DHI_WO_R2;
     MoveJ [[-29.080,-66.338,0.000],[9.73406E-05,-0.156597,-0.987662,-8.78936E-05],[-1,-1,-3,1],[9E+09,9E+09,9E+09,9E+09,9E+09,9E+09]],v50,z0,T2_R2\WObj:=DHI_WO_R2;
     MoveJ [[-28.890,-66.342,0.000],[9.73406E-05,-0.156597,-0.987662,-8.78936E-05],[-1,-1,-3,1],[9E+09,9E+09,9E+09,9E+09,9E+09,9E+09]],v50,z0,T2_R2\WObj:=DHI_WO_R2;
     MoveJ [[-28.510,-66.350,0.000],[9.73406E-05,-0.156597,-0.987662,-8.78936E-05],[-1,-1,-3,1],[9E+09,9E+09,9E+09,9E+09,9E+09,9E+09]],v50,z0,T2_R2\WObj:=DHI_WO_R2;
     MoveJ [[-28.320,-66.352,0.000],[9.73406E-05,-0.156597,-0.987662,-8.78936E-05],[-1,-1,-3,1],[9E+09,9E+09,9E+09,9E+09,9E+09,9E+09]],v50,z0,T2_R2\WObj:=DHI_WO_R2;
     MoveJ [[-25.470,-66.389,0.000],[9.73406E-05,-0.156597,-0.987662,-8.78936E-05],[-1,-1,-3,1],[9E+09,9E+09,9E+09,9E+09,9E+09,9E+09]],v50,z0,T2_R2\WObj:=DHI_WO_R2;
     MoveJ [[-25.280,-66.392,0.000],[9.73406E-05,-0.156597,-0.987662,-8.78936E-05],[-1,-1,-3,1],[9E+09,9E+09,9E+09,9E+09,9E+09,9E+09]],v50,z0,T2_R2\WObj:=DHI_WO_R2;
     MoveJ [[-25.090,-66.396,0.000],[9.73406E-05,-0.156597,-0.987662,-8.78936E-05],[-1,-1,-3,1],[9E+09,9E+09,9E+09,9E+09,9E+09,9E+09]],v50,z0,T2_R2\WObj:=DHI_WO_R2;
     MoveJ [[-24.900,-66.398,0.000],[9.73406E-05,-0.156597,-0.987662,-8.78936E-05],[-1,-1,-3,1],[9E+09,9E+09,9E+09,9E+09,9E+09,9E+09]],v50,z0,T2_R2\WObj:=DHI_WO_R2;
     MoveJ [[-21.850,-66.425,0.000],[9.73406E-05,-0.156597,-0.987662,-8.78936E-05],[-1,-1,-3,1],[9E+09,9E+09,9E+09,9E+09,9E+09,9E+09]],v50,z0,T2_R2\WObj:=DHI_WO_R2;
     MoveJ [[-21.660,-66.427,0.000],[9.73406E-05,-0.156597,-0.987662,-8.78936E-05],[-1,-1,-3,1],[9E+09,9E+09,9E+09,9E+09,9E+09,9E+09]],v50,z0,T2_R2\WObj:=DHI_WO_R2;
     MoveJ [[-21.470,-66.429,0.000],[9.73406E-05,-0.156597,-0.987662,-8.78936E-05],[-1,-1,-3,1],[9E+09,9E+09,9E+09,9E+09,9E+09,9E+09]],v50,z0,T2_R2\WObj:=DHI_WO_R2;
     MoveJ [[-18.240,-66.443,0.000],[9.73406E-05,-0.156597,-0.987662,-8.78936E-05],[-1,-1,-3,1],[9E+09,9E+09,9E+09,9E+09,9E+09,9E+09]],v50,z0,T2_R2\WObj:=DHI_WO_R2;
     MoveJ [[-18.050,-66.444,0.000],[9.73406E-05,-0.156597,-0.987662,-8.78936E-05],[-1,-1,-3,1],[9E+09,9E+09,9E+09,9E+09,9E+09,9E+09]],v50,z0,T2_R2\WObj:=DHI_WO_R2;
     MoveJ [[-17.860,-66.444,0.000],[9.73406E-05,-0.156597,-0.987662,-8.78936E-05],[-1,-1,-3,1],[9E+09,9E+09,9E+09,9E+09,9E+09,9E+09]],v50,z0,T2_R2\WObj:=DHI_WO_R2;
     MoveJ [[-14.630,-66.445,0.000],[9.73406E-05,-0.156597,-0.987662,-8.78936E-05],[-1,-1,-3,1],[9E+09,9E+09,9E+09,9E+09,9E+09,9E+09]],v50,z0,T2_R2\WObj:=DHI_WO_R2;
     MoveJ [[-14.440,-66.444,0.000],[9.73406E-05,-0.156597,-0.987662,-8.78936E-05],[-1,-1,-3,1],[9E+09,9E+09,9E+09,9E+09,9E+09,9E+09]],v50,z0,T2_R2\WObj:=DHI_WO_R2;
     MoveJ [[-13.870,-66.442,0.000],[9.73406E-05,-0.156597,-0.987662,-8.78936E-05],[-1,-1,-3,1],[9E+09,9E+09,9E+09,9E+09,9E+09,9E+09]],v50,z0,T2_R2\WObj:=DHI_WO_R2;
     MoveJ [[-11.020,-66.430,0.000],[9.73406E-05,-0.156597,-0.987662,-8.78936E-05],[-1,-1,-3,1],[9E+09,9E+09,9E+09,9E+09,9E+09,9E+09]],v50,z0,T2_R2\WObj:=DHI_WO_R2;
     MoveJ [[-10.830,-66.427,0.000],[9.73406E-05,-0.156597,-0.987662,-8.78936E-05],[-1,-1,-3,1],[9E+09,9E+09,9E+09,9E+09,9E+09,9E+09]],v50,z0,T2_R2\WObj:=DHI_WO_R2;
     MoveJ [[-10.640,-66.425,0.000],[9.73406E-05,-0.156597,-0.987662,-8.78936E-05],[-1,-1,-3,1],[9E+09,9E+09,9E+09,9E+09,9E+09,9E+09]],v50,z0,T2_R2\WObj:=DHI_WO_R2;
     MoveJ [[-7.400,-66.398,0.000],[9.73406E-05,-0.156597,-0.987662,-8.78936E-05],[-1,-1,-3,1],[9E+09,9E+09,9E+09,9E+09,9E+09,9E+09]],v50,z0,T2_R2\WObj:=DHI_WO_R2;
     MoveJ [[-7.210,-66.395,0.000],[9.73406E-05,-0.156597,-0.987662,-8.78936E-05],[-1,-1,-3,1],[9E+09,9E+09,9E+09,9E+09,9E+09,9E+09]],v50,z0,T2_R2\WObj:=DHI_WO_R2;
     MoveJ [[-4.170,-66.357,0.000],[9.73406E-05,-0.156597,-0.987662,-8.78936E-05],[-1,-1,-3,1],[9E+09,9E+09,9E+09,9E+09,9E+09,9E+09]],v50,z0,T2_R2\WObj:=DHI_WO_R2;
     MoveJ [[-3.980,-66.354,0.000],[9.73406E-05,-0.156597,-0.987662,-8.78936E-05],[-1,-1,-3,1],[9E+09,9E+09,9E+09,9E+09,9E+09,9E+09]],v50,z0,T2_R2\WObj:=DHI_WO_R2;
     MoveJ [[-3.790,-66.349,0.000],[9.73406E-05,-0.156597,-0.987662,-8.78936E-05],[-1,-1,-3,1],[9E+09,9E+09,9E+09,9E+09,9E+09,9E+09]],v50,z0,T2_R2\WObj:=DHI_WO_R2;
     MoveJ [[-3.600,-66.344,0.000],[9.73406E-05,-0.156597,-0.987662,-8.78936E-05],[-1,-1,-3,1],[9E+09,9E+09,9E+09,9E+09,9E+09,9E+09]],v50,z0,T2_R2\WObj:=DHI_WO_R2;
     MoveJ [[-3.410,-66.339,0.000],[9.73406E-05,-0.156597,-0.987662,-8.78936E-05],[-1,-1,-3,1],[9E+09,9E+09,9E+09,9E+09,9E+09,9E+09]],v50,z0,T2_R2\WObj:=DHI_WO_R2;
     MoveJ [[-3.220,-66.335,0.000],[9.73406E-05,-0.156597,-0.987662,-8.78936E-05],[-1,-1,-3,1],[9E+09,9E+09,9E+09,9E+09,9E+09,9E+09]],v50,z0,T2_R2\WObj:=DHI_WO_R2;
     MoveJ [[-0.180,-66.283,0.000],[9.73406E-05,-0.156597,-0.987662,-8.78936E-05],[-1,-1,-3,1],[9E+09,9E+09,9E+09,9E+09,9E+09,9E+09]],v50,z0,T2_R2\WObj:=DHI_WO_R2;
     MoveJ [[0.010,-66.275,0.000],[9.73406E-05,-0.156597,-0.987662,-8.78936E-05],[-1,-1,-3,1],[9E+09,9E+09,9E+09,9E+09,9E+09,9E+09]],v50,z0,T2_R2\WObj:=DHI_WO_R2;
     MoveJ [[1.720,-66.194,0.000],[9.73406E-05,-0.156597,-0.987662,-8.78936E-05],[-1,-1,-3,1],[9E+09,9E+09,9E+09,9E+09,9E+09,9E+09]],v50,z0,T2_R2\WObj:=DHI_WO_R2;
     MoveJ [[1.910,-66.184,0.000],[9.73406E-05,-0.156597,-0.987662,-8.78936E-05],[-1,-1,-3,1],[9E+09,9E+09,9E+09,9E+09,9E+09,9E+09]],v50,z0,T2_R2\WObj:=DHI_WO_R2;
     MoveJ [[2.100,-66.170,0.000],[9.73406E-05,-0.156597,-0.987662,-8.78936E-05],[-1,-1,-3,1],[9E+09,9E+09,9E+09,9E+09,9E+09,9E+09]],v50,z0,T2_R2\WObj:=DHI_WO_R2;
     MoveJ [[2.290,-66.157,0.000],[9.73406E-05,-0.156597,-0.987662,-8.78936E-05],[-1,-1,-3,1],[9E+09,9E+09,9E+09,9E+09,9E+09,9E+09]],v50,z0,T2_R2\WObj:=DHI_WO_R2;
     MoveJ [[2.480,-66.148,0.000],[9.73406E-05,-0.156597,-0.987662,-8.78936E-05],[-1,-1,-3,1],[9E+09,9E+09,9E+09,9E+09,9E+09,9E+09]],v50,z0,T2_R2\WObj:=DHI_WO_R2;
     MoveJ [[4.000,-66.074,0.000],[9.73406E-05,-0.156597,-0.987662,-8.78936E-05],[-1,-1,-3,1],[9E+09,9E+09,9E+09,9E+09,9E+09,9E+09]],v50,z0,T2_R2\WObj:=DHI_WO_R2;
     MoveJ [[4.190,-66.064,0.000],[9.73406E-05,-0.156597,-0.987662,-8.78936E-05],[-1,-1,-3,1],[9E+09,9E+09,9E+09,9E+09,9E+09,9E+09]],v50,z0,T2_R2\WObj:=DHI_WO_R2;
     MoveJ [[4.570,-66.037,0.000],[9.73406E-05,-0.156597,-0.987662,-8.78936E-05],[-1,-1,-3,1],[9E+09,9E+09,9E+09,9E+09,9E+09,9E+09]],v50,z0,T2_R2\WObj:=DHI_WO_R2;
     MoveJ [[4.760,-66.024,0.000],[9.73406E-05,-0.156597,-0.987662,-8.78936E-05],[-1,-1,-3,1],[9E+09,9E+09,9E+09,9E+09,9E+09,9E+09]],v50,z0,T2_R2\WObj:=DHI_WO_R2;
     MoveJ [[6.290,-65.950,0.000],[9.73406E-05,-0.156597,-0.987662,-8.78936E-05],[-1,-1,-3,1],[9E+09,9E+09,9E+09,9E+09,9E+09,9E+09]],v50,z0,T2_R2\WObj:=DHI_WO_R2;
     MoveJ [[6.480,-65.940,0.000],[9.73406E-05,-0.156597,-0.987662,-8.78936E-05],[-1,-1,-3,1],[9E+09,9E+09,9E+09,9E+09,9E+09,9E+09]],v50,z0,T2_R2\WObj:=DHI_WO_R2;
     MoveJ [[7.050,-65.898,0.000],[9.73406E-05,-0.156597,-0.987662,-8.78936E-05],[-1,-1,-3,1],[9E+09,9E+09,9E+09,9E+09,9E+09,9E+09]],v50,z0,T2_R2\WObj:=DHI_WO_R2;
     MoveJ [[7.240,-65.886,0.000],[9.73406E-05,-0.156597,-0.987662,-8.78936E-05],[-1,-1,-3,1],[9E+09,9E+09,9E+09,9E+09,9E+09,9E+09]],v50,z0,T2_R2\WObj:=DHI_WO_R2;
     MoveJ [[8.570,-65.820,0.000],[9.73406E-05,-0.156597,-0.987662,-8.78936E-05],[-1,-1,-3,1],[9E+09,9E+09,9E+09,9E+09,9E+09,9E+09]],v50,z0,T2_R2\WObj:=DHI_WO_R2;
     MoveJ [[8.760,-65.810,0.000],[9.73406E-05,-0.156597,-0.987662,-8.78936E-05],[-1,-1,-3,1],[9E+09,9E+09,9E+09,9E+09,9E+09,9E+09]],v50,z0,T2_R2\WObj:=DHI_WO_R2;
     MoveJ [[10.470,-65.683,0.000],[9.73406E-05,-0.156597,-0.987662,-8.78936E-05],[-1,-1,-3,1],[9E+09,9E+09,9E+09,9E+09,9E+09,9E+09]],v50,z0,T2_R2\WObj:=DHI_WO_R2;
     MoveJ [[10.660,-65.670,0.000],[9.73406E-05,-0.156597,-0.987662,-8.78936E-05],[-1,-1,-3,1],[9E+09,9E+09,9E+09,9E+09,9E+09,9E+09]],v50,z0,T2_R2\WObj:=DHI_WO_R2;
     MoveJ [[11.990,-65.602,0.000],[9.73406E-05,-0.156597,-0.987662,-8.78936E-05],[-1,-1,-3,1],[9E+09,9E+09,9E+09,9E+09,9E+09,9E+09]],v50,z0,T2_R2\WObj:=DHI_WO_R2;
     MoveJ [[12.180,-65.588,0.000],[9.73406E-05,-0.156597,-0.987662,-8.78936E-05],[-1,-1,-3,1],[9E+09,9E+09,9E+09,9E+09,9E+09,9E+09]],v50,z0,T2_R2\WObj:=DHI_WO_R2;
     MoveJ [[13.130,-65.516,0.000],[9.73406E-05,-0.156597,-0.987662,-8.78936E-05],[-1,-1,-3,1],[9E+09,9E+09,9E+09,9E+09,9E+09,9E+09]],v50,z0,T2_R2\WObj:=DHI_WO_R2;
     MoveJ [[13.320,-65.504,0.000],[9.73406E-05,-0.156597,-0.987662,-8.78936E-05],[-1,-1,-3,1],[9E+09,9E+09,9E+09,9E+09,9E+09,9E+09]],v50,z0,T2_R2\WObj:=DHI_WO_R2;
     MoveJ [[14.270,-65.454,0.000],[9.73406E-05,-0.156597,-0.987662,-8.78936E-05],[-1,-1,-3,1],[9E+09,9E+09,9E+09,9E+09,9E+09,9E+09]],v50,z0,T2_R2\WObj:=DHI_WO_R2;
     MoveJ [[14.460,-65.444,0.000],[9.73406E-05,-0.156597,-0.987662,-8.78936E-05],[-1,-1,-3,1],[9E+09,9E+09,9E+09,9E+09,9E+09,9E+09]],v50,z0,T2_R2\WObj:=DHI_WO_R2;
     MoveJ [[15.790,-65.341,0.000],[9.73406E-05,-0.156597,-0.987662,-8.78936E-05],[-1,-1,-3,1],[9E+09,9E+09,9E+09,9E+09,9E+09,9E+09]],v50,z0,T2_R2\WObj:=DHI_WO_R2;
     MoveJ [[15.980,-65.330,0.000],[9.73406E-05,-0.156597,-0.987662,-8.78936E-05],[-1,-1,-3,1],[9E+09,9E+09,9E+09,9E+09,9E+09,9E+09]],v50,z0,T2_R2\WObj:=DHI_WO_R2;
     MoveJ [[17.310,-65.271,0.000],[9.73406E-05,-0.156597,-0.987662,-8.78936E-05],[-1,-1,-3,1],[9E+09,9E+09,9E+09,9E+09,9E+09,9E+09]],v50,z0,T2_R2\WObj:=DHI_WO_R2;
     MoveJ [[17.500,-65.257,0.000],[9.73406E-05,-0.156597,-0.987662,-8.78936E-05],[-1,-1,-3,1],[9E+09,9E+09,9E+09,9E+09,9E+09,9E+09]],v50,z0,T2_R2\WObj:=DHI_WO_R2;
     MoveJ [[19.210,-65.118,0.000],[9.73406E-05,-0.156597,-0.987662,-8.78936E-05],[-1,-1,-3,1],[9E+09,9E+09,9E+09,9E+09,9E+09,9E+09]],v50,z0,T2_R2\WObj:=DHI_WO_R2;
     MoveJ [[19.400,-65.106,0.000],[9.73406E-05,-0.156597,-0.987662,-8.78936E-05],[-1,-1,-3,1],[9E+09,9E+09,9E+09,9E+09,9E+09,9E+09]],v50,z0,T2_R2\WObj:=DHI_WO_R2;
     MoveJ [[20.730,-65.069,0.000],[9.73406E-05,-0.156597,-0.987662,-8.78936E-05],[-1,-1,-3,1],[9E+09,9E+09,9E+09,9E+09,9E+09,9E+09]],v50,z0,T2_R2\WObj:=DHI_WO_R2;
     MoveJ [[22.640,-65.017,0.000],[9.73406E-05,-0.156597,-0.987662,-8.78936E-05],[-1,-1,-3,1],[9E+09,9E+09,9E+09,9E+09,9E+09,9E+09]],v50,z0,T2_R2\WObj:=DHI_WO_R2;
     MoveJ [[23.020,-65.006,0.000],[9.73406E-05,-0.156597,-0.987662,-8.78936E-05],[-1,-1,-3,1],[9E+09,9E+09,9E+09,9E+09,9E+09,9E+09]],v50,z0,T2_R2\WObj:=DHI_WO_R2;
     MoveJ [[24.540,-64.965,0.000],[9.73406E-05,-0.156597,-0.987662,-8.78936E-05],[-1,-1,-3,1],[9E+09,9E+09,9E+09,9E+09,9E+09,9E+09]],v50,z0,T2_R2\WObj:=DHI_WO_R2;
     MoveJ [[26.440,-64.913,0.000],[9.73406E-05,-0.156597,-0.987662,-8.78936E-05],[-1,-1,-3,1],[9E+09,9E+09,9E+09,9E+09,9E+09,9E+09]],v50,z0,T2_R2\WObj:=DHI_WO_R2;
     MoveJ [[31.380,-64.778,0.000],[9.73406E-05,-0.156597,-0.987662,-8.78936E-05],[-1,-1,-3,1],[9E+09,9E+09,9E+09,9E+09,9E+09,9E+09]],v50,z0,T2_R2\WObj:=DHI_WO_R2;
     MoveJ [[33.090,-64.732,0.000],[9.73406E-05,-0.156597,-0.987662,-8.78936E-05],[-1,-1,-3,1],[9E+09,9E+09,9E+09,9E+09,9E+09,9E+09]],v50,z0,T2_R2\WObj:=DHI_WO_R2;
     MoveJ [[33.280,-64.727,0.000],[9.73406E-05,-0.156597,-0.987662,-8.78936E-05],[-1,-1,-3,1],[9E+09,9E+09,9E+09,9E+09,9E+09,9E+09]],v50,z0,T2_R2\WObj:=DHI_WO_R2;
     MoveJ [[35.180,-64.676,0.000],[9.73406E-05,-0.156597,-0.987662,-8.78936E-05],[-1,-1,-3,1],[9E+09,9E+09,9E+09,9E+09,9E+09,9E+09]],v50,z0,T2_R2\WObj:=DHI_WO_R2;
     MoveJ [[35.750,-64.661,0.000],[9.73406E-05,-0.156597,-0.987662,-8.78936E-05],[-1,-1,-3,1],[9E+09,9E+09,9E+09,9E+09,9E+09,9E+09]],v50,z0,T2_R2\WObj:=DHI_WO_R2;
     MoveJ [[35.940,-64.656,0.000],[9.73406E-05,-0.156597,-0.987662,-8.78936E-05],[-1,-1,-3,1],[9E+09,9E+09,9E+09,9E+09,9E+09,9E+09]],v50,z0,T2_R2\WObj:=DHI_WO_R2;
     MoveJ [[37.710,-64.609,0.000],[9.73406E-05,-0.156597,-0.987662,-8.78936E-05],[-1,-1,-3,1],[9E+09,9E+09,9E+09,9E+09,9E+09,9E+09]],v50,z0,T2_R2\WObj:=DHI_WO_R2;
     MoveJ [[39.180,-64.570,0.000],[9.73406E-05,-0.156597,-0.987662,-8.78936E-05],[-1,-1,-3,1],[9E+09,9E+09,9E+09,9E+09,9E+09,9E+09]],v50,z0,T2_R2\WObj:=DHI_WO_R2;
     MoveJ [[41.080,-64.519,0.000],[9.73406E-05,-0.156597,-0.987662,-8.78936E-05],[-1,-1,-3,1],[9E+09,9E+09,9E+09,9E+09,9E+09,9E+09]],v50,z0,T2_R2\WObj:=DHI_WO_R2;
     MoveJ [[41.270,-64.474,0.000],[9.73406E-05,-0.156597,-0.987662,-8.78936E-05],[-1,-1,-3,1],[9E+09,9E+09,9E+09,9E+09,9E+09,9E+09]],v50,z0,T2_R2\WObj:=DHI_WO_R2;
     MoveJ [[42.410,-64.182,0.000],[9.73406E-05,-0.156597,-0.987662,-8.78936E-05],[-1,-1,-3,1],[9E+09,9E+09,9E+09,9E+09,9E+09,9E+09]],v50,z0,T2_R2\WObj:=DHI_WO_R2;
     MoveJ [[42.600,-64.133,0.000],[9.73406E-05,-0.156597,-0.987662,-8.78936E-05],[-1,-1,-3,1],[9E+09,9E+09,9E+09,9E+09,9E+09,9E+09]],v50,z0,T2_R2\WObj:=DHI_WO_R2;
     MoveJ [[42.790,-64.083,0.000],[9.73406E-05,-0.156597,-0.987662,-8.78936E-05],[-1,-1,-3,1],[9E+09,9E+09,9E+09,9E+09,9E+09,9E+09]],v50,z0,T2_R2\WObj:=DHI_WO_R2;
     MoveJ [[42.960,-64.038,0.000],[9.73406E-05,-0.156597,-0.987662,-8.78936E-05],[-1,-1,-3,1],[9E+09,9E+09,9E+09,9E+09,9E+09,9E+09]],v50,z0,T2_R2\WObj:=DHI_WO_R2;
     MoveJ [[43.930,-63.783,0.000],[9.73406E-05,-0.156597,-0.987662,-8.78936E-05],[-1,-1,-3,1],[9E+09,9E+09,9E+09,9E+09,9E+09,9E+09]],v50,z0,T2_R2\WObj:=DHI_WO_R2;
     MoveJ [[44.120,-63.733,0.000],[9.73406E-05,-0.156597,-0.987662,-8.78936E-05],[-1,-1,-3,1],[9E+09,9E+09,9E+09,9E+09,9E+09,9E+09]],v50,z0,T2_R2\WObj:=DHI_WO_R2;
     MoveJ [[44.310,-63.682,0.000],[9.73406E-05,-0.156597,-0.987662,-8.78936E-05],[-1,-1,-3,1],[9E+09,9E+09,9E+09,9E+09,9E+09,9E+09]],v50,z0,T2_R2\WObj:=DHI_WO_R2;
     MoveJ [[44.400,-63.658,0.000],[9.73406E-05,-0.156597,-0.987662,-8.78936E-05],[-1,-1,-3,1],[9E+09,9E+09,9E+09,9E+09,9E+09,9E+09]],v50,z0,T2_R2\WObj:=DHI_WO_R2;
     MoveJ [[44.500,-63.630,0.000],[9.73406E-05,-0.156597,-0.987662,-8.78936E-05],[-1,-1,-3,1],[9E+09,9E+09,9E+09,9E+09,9E+09,9E+09]],v50,z0,T2_R2\WObj:=DHI_WO_R2;
     MoveJ [[44.690,-63.579,0.000],[9.73406E-05,-0.156597,-0.987662,-8.78936E-05],[-1,-1,-3,1],[9E+09,9E+09,9E+09,9E+09,9E+09,9E+09]],v50,z0,T2_R2\WObj:=DHI_WO_R2;
     MoveJ [[46.490,-63.088,0.000],[9.73406E-05,-0.156597,-0.987662,-8.78936E-05],[-1,-1,-3,1],[9E+09,9E+09,9E+09,9E+09,9E+09,9E+09]],v50,z0,T2_R2\WObj:=DHI_WO_R2;
     MoveJ [[46.590,-63.059,0.000],[9.73406E-05,-0.156597,-0.987662,-8.78936E-05],[-1,-1,-3,1],[9E+09,9E+09,9E+09,9E+09,9E+09,9E+09]],v50,z0,T2_R2\WObj:=DHI_WO_R2;
     MoveJ [[46.780,-63.007,0.000],[9.73406E-05,-0.156597,-0.987662,-8.78936E-05],[-1,-1,-3,1],[9E+09,9E+09,9E+09,9E+09,9E+09,9E+09]],v50,z0,T2_R2\WObj:=DHI_WO_R2;
     MoveJ [[46.970,-62.954,0.000],[9.73406E-05,-0.156597,-0.987662,-8.78936E-05],[-1,-1,-3,1],[9E+09,9E+09,9E+09,9E+09,9E+09,9E+09]],v50,z0,T2_R2\WObj:=DHI_WO_R2;
     MoveJ [[47.160,-62.900,0.000],[9.73406E-05,-0.156597,-0.987662,-8.78936E-05],[-1,-1,-3,1],[9E+09,9E+09,9E+09,9E+09,9E+09,9E+09]],v50,z0,T2_R2\WObj:=DHI_WO_R2;
     MoveJ [[47.920,-62.685,0.000],[9.73406E-05,-0.156597,-0.987662,-8.78936E-05],[-1,-1,-3,1],[9E+09,9E+09,9E+09,9E+09,9E+09,9E+09]],v50,z0,T2_R2\WObj:=DHI_WO_R2;
     MoveJ [[48.110,-62.631,0.000],[9.73406E-05,-0.156597,-0.987662,-8.78936E-05],[-1,-1,-3,1],[9E+09,9E+09,9E+09,9E+09,9E+09,9E+09]],v50,z0,T2_R2\WObj:=DHI_WO_R2;
     MoveJ [[48.300,-62.578,0.000],[9.73406E-05,-0.156597,-0.987662,-8.78936E-05],[-1,-1,-3,1],[9E+09,9E+09,9E+09,9E+09,9E+09,9E+09]],v50,z0,T2_R2\WObj:=DHI_WO_R2;
     MoveJ [[48.510,-62.518,0.000],[9.73406E-05,-0.156597,-0.987662,-8.78936E-05],[-1,-1,-3,1],[9E+09,9E+09,9E+09,9E+09,9E+09,9E+09]],v50,z0,T2_R2\WObj:=DHI_WO_R2;
     MoveJ [[48.680,-62.468,0.000],[9.73406E-05,-0.156597,-0.987662,-8.78936E-05],[-1,-1,-3,1],[9E+09,9E+09,9E+09,9E+09,9E+09,9E+09]],v50,z0,T2_R2\WObj:=DHI_WO_R2;
     MoveJ [[49.630,-62.193,0.000],[9.73406E-05,-0.156597,-0.987662,-8.78936E-05],[-1,-1,-3,1],[9E+09,9E+09,9E+09,9E+09,9E+09,9E+09]],v50,z0,T2_R2\WObj:=DHI_WO_R2;
     MoveJ [[49.830,-62.137,0.000],[9.73406E-05,-0.156597,-0.987662,-8.78936E-05],[-1,-1,-3,1],[9E+09,9E+09,9E+09,9E+09,9E+09,9E+09]],v50,z0,T2_R2\WObj:=DHI_WO_R2;
     MoveJ [[50.010,-62.083,0.000],[9.73406E-05,-0.156597,-0.987662,-8.78936E-05],[-1,-1,-3,1],[9E+09,9E+09,9E+09,9E+09,9E+09,9E+09]],v50,z0,T2_R2\WObj:=DHI_WO_R2;
     MoveJ [[50.200,-62.027,0.000],[9.73406E-05,-0.156597,-0.987662,-8.78936E-05],[-1,-1,-3,1],[9E+09,9E+09,9E+09,9E+09,9E+09,9E+09]],v50,z0,T2_R2\WObj:=DHI_WO_R2;
     MoveJ [[50.470,-61.947,0.000],[9.73406E-05,-0.156597,-0.987662,-8.78936E-05],[-1,-1,-3,1],[9E+09,9E+09,9E+09,9E+09,9E+09,9E+09]],v50,z0,T2_R2\WObj:=DHI_WO_R2;
     MoveJ [[50.960,-61.802,0.000],[9.73406E-05,-0.156597,-0.987662,-8.78936E-05],[-1,-1,-3,1],[9E+09,9E+09,9E+09,9E+09,9E+09,9E+09]],v50,z0,T2_R2\WObj:=DHI_WO_R2;
     MoveJ [[51.120,-61.757,0.000],[9.73406E-05,-0.156597,-0.987662,-8.78936E-05],[-1,-1,-3,1],[9E+09,9E+09,9E+09,9E+09,9E+09,9E+09]],v50,z0,T2_R2\WObj:=DHI_WO_R2;
     MoveJ [[51.150,-61.746,0.000],[9.73406E-05,-0.156597,-0.987662,-8.78936E-05],[-1,-1,-3,1],[9E+09,9E+09,9E+09,9E+09,9E+09,9E+09]],v50,z0,T2_R2\WObj:=DHI_WO_R2;
     MoveJ [[51.340,-61.689,0.000],[9.73406E-05,-0.156597,-0.987662,-8.78936E-05],[-1,-1,-3,1],[9E+09,9E+09,9E+09,9E+09,9E+09,9E+09]],v50,z0,T2_R2\WObj:=DHI_WO_R2;
     MoveJ [[52.480,-61.345,0.000],[9.73406E-05,-0.156597,-0.987662,-8.78936E-05],[-1,-1,-3,1],[9E+09,9E+09,9E+09,9E+09,9E+09,9E+09]],v50,z0,T2_R2\WObj:=DHI_WO_R2;
     MoveJ [[52.670,-61.288,0.000],[9.73406E-05,-0.156597,-0.987662,-8.78936E-05],[-1,-1,-3,1],[9E+09,9E+09,9E+09,9E+09,9E+09,9E+09]],v50,z0,T2_R2\WObj:=DHI_WO_R2;
     MoveJ [[52.860,-61.230,0.000],[9.73406E-05,-0.156597,-0.987662,-8.78936E-05],[-1,-1,-3,1],[9E+09,9E+09,9E+09,9E+09,9E+09,9E+09]],v50,z0,T2_R2\WObj:=DHI_WO_R2;
     MoveJ [[53.010,-61.187,0.000],[9.73406E-05,-0.156597,-0.987662,-8.78936E-05],[-1,-1,-3,1],[9E+09,9E+09,9E+09,9E+09,9E+09,9E+09]],v50,z0,T2_R2\WObj:=DHI_WO_R2;
     MoveJ [[53.060,-61.172,0.000],[9.73406E-05,-0.156597,-0.987662,-8.78936E-05],[-1,-1,-3,1],[9E+09,9E+09,9E+09,9E+09,9E+09,9E+09]],v50,z0,T2_R2\WObj:=DHI_WO_R2;
     MoveJ [[53.250,-61.113,0.000],[9.73406E-05,-0.156597,-0.987662,-8.78936E-05],[-1,-1,-3,1],[9E+09,9E+09,9E+09,9E+09,9E+09,9E+09]],v50,z0,T2_R2\WObj:=DHI_WO_R2;
     MoveJ [[53.440,-61.054,0.000],[9.73406E-05,-0.156597,-0.987662,-8.78936E-05],[-1,-1,-3,1],[9E+09,9E+09,9E+09,9E+09,9E+09,9E+09]],v50,z0,T2_R2\WObj:=DHI_WO_R2;
     MoveJ [[54.960,-60.582,0.000],[9.73406E-05,-0.156597,-0.987662,-8.78936E-05],[-1,-1,-3,1],[9E+09,9E+09,9E+09,9E+09,9E+09,9E+09]],v50,z0,T2_R2\WObj:=DHI_WO_R2;
     MoveJ [[55.150,-60.523,0.000],[9.73406E-05,-0.156597,-0.987662,-8.78936E-05],[-1,-1,-3,1],[9E+09,9E+09,9E+09,9E+09,9E+09,9E+09]],v50,z0,T2_R2\WObj:=DHI_WO_R2;
     MoveJ [[55.340,-60.463,0.000],[9.73406E-05,-0.156597,-0.987662,-8.78936E-05],[-1,-1,-3,1],[9E+09,9E+09,9E+09,9E+09,9E+09,9E+09]],v50,z0,T2_R2\WObj:=DHI_WO_R2;
     MoveJ [[55.530,-60.402,0.000],[9.73406E-05,-0.156597,-0.987662,-8.78936E-05],[-1,-1,-3,1],[9E+09,9E+09,9E+09,9E+09,9E+09,9E+09]],v50,z0,T2_R2\WObj:=DHI_WO_R2;
     MoveJ [[55.720,-60.342,0.000],[9.73406E-05,-0.156597,-0.987662,-8.78936E-05],[-1,-1,-3,1],[9E+09,9E+09,9E+09,9E+09,9E+09,9E+09]],v50,z0,T2_R2\WObj:=DHI_WO_R2;
     MoveJ [[56.290,-60.160,0.000],[9.73406E-05,-0.156597,-0.987662,-8.78936E-05],[-1,-1,-3,1],[9E+09,9E+09,9E+09,9E+09,9E+09,9E+09]],v50,z0,T2_R2\WObj:=DHI_WO_R2;
     MoveJ [[56.480,-60.098,0.000],[9.73406E-05,-0.156597,-0.987662,-8.78936E-05],[-1,-1,-3,1],[9E+09,9E+09,9E+09,9E+09,9E+09,9E+09]],v50,z0,T2_R2\WObj:=DHI_WO_R2;
     MoveJ [[56.640,-60.047,0.000],[9.73406E-05,-0.156597,-0.987662,-8.78936E-05],[-1,-1,-3,1],[9E+09,9E+09,9E+09,9E+09,9E+09,9E+09]],v50,z0,T2_R2\WObj:=DHI_WO_R2;
     MoveJ [[57.240,-59.851,0.000],[9.73406E-05,-0.156597,-0.987662,-8.78936E-05],[-1,-1,-3,1],[9E+09,9E+09,9E+09,9E+09,9E+09,9E+09]],v50,z0,T2_R2\WObj:=DHI_WO_R2;
     MoveJ [[57.430,-59.789,0.000],[9.73406E-05,-0.156597,-0.987662,-8.78936E-05],[-1,-1,-3,1],[9E+09,9E+09,9E+09,9E+09,9E+09,9E+09]],v50,z0,T2_R2\WObj:=DHI_WO_R2;
     MoveJ [[57.620,-59.726,0.000],[9.73406E-05,-0.156597,-0.987662,-8.78936E-05],[-1,-1,-3,1],[9E+09,9E+09,9E+09,9E+09,9E+09,9E+09]],v50,z0,T2_R2\WObj:=DHI_WO_R2;
     MoveJ [[58.190,-59.537,0.000],[9.73406E-05,-0.156597,-0.987662,-8.78936E-05],[-1,-1,-3,1],[9E+09,9E+09,9E+09,9E+09,9E+09,9E+09]],v50,z0,T2_R2\WObj:=DHI_WO_R2;
     MoveJ [[58.380,-59.474,0.000],[9.73406E-05,-0.156597,-0.987662,-8.78936E-05],[-1,-1,-3,1],[9E+09,9E+09,9E+09,9E+09,9E+09,9E+09]],v50,z0,T2_R2\WObj:=DHI_WO_R2;
     MoveJ [[58.570,-59.410,0.000],[9.73406E-05,-0.156597,-0.987662,-8.78936E-05],[-1,-1,-3,1],[9E+09,9E+09,9E+09,9E+09,9E+09,9E+09]],v50,z0,T2_R2\WObj:=DHI_WO_R2;
     MoveJ [[58.760,-59.346,0.000],[9.73406E-05,-0.156597,-0.987662,-8.78936E-05],[-1,-1,-3,1],[9E+09,9E+09,9E+09,9E+09,9E+09,9E+09]],v50,z0,T2_R2\WObj:=DHI_WO_R2;
     MoveJ [[58.940,-59.286,0.000],[9.73406E-05,-0.156597,-0.987662,-8.78936E-05],[-1,-1,-3,1],[9E+09,9E+09,9E+09,9E+09,9E+09,9E+09]],v50,z0,T2_R2\WObj:=DHI_WO_R2;
     MoveJ [[59.520,-59.088,0.000],[9.73406E-05,-0.156597,-0.987662,-8.78936E-05],[-1,-1,-3,1],[9E+09,9E+09,9E+09,9E+09,9E+09,9E+09]],v50,z0,T2_R2\WObj:=DHI_WO_R2;
     MoveJ [[59.710,-59.022,0.000],[9.73406E-05,-0.156597,-0.987662,-8.78936E-05],[-1,-1,-3,1],[9E+09,9E+09,9E+09,9E+09,9E+09,9E+09]],v50,z0,T2_R2\WObj:=DHI_WO_R2;
     MoveJ [[59.900,-58.956,0.000],[9.73406E-05,-0.156597,-0.987662,-8.78936E-05],[-1,-1,-3,1],[9E+09,9E+09,9E+09,9E+09,9E+09,9E+09]],v50,z0,T2_R2\WObj:=DHI_WO_R2;
     MoveJ [[60.470,-58.758,0.000],[9.73406E-05,-0.156597,-0.987662,-8.78936E-05],[-1,-1,-3,1],[9E+09,9E+09,9E+09,9E+09,9E+09,9E+09]],v50,z0,T2_R2\WObj:=DHI_WO_R2;
     MoveJ [[60.590,-58.716,0.000],[9.73406E-05,-0.156597,-0.987662,-8.78936E-05],[-1,-1,-3,1],[9E+09,9E+09,9E+09,9E+09,9E+09,9E+09]],v50,z0,T2_R2\WObj:=DHI_WO_R2;
     MoveJ [[60.660,-58.690,0.000],[9.73406E-05,-0.156597,-0.987662,-8.78936E-05],[-1,-1,-3,1],[9E+09,9E+09,9E+09,9E+09,9E+09,9E+09]],v50,z0,T2_R2\WObj:=DHI_WO_R2;
     MoveJ [[60.850,-58.623,0.000],[9.73406E-05,-0.156597,-0.987662,-8.78936E-05],[-1,-1,-3,1],[9E+09,9E+09,9E+09,9E+09,9E+09,9E+09]],v50,z0,T2_R2\WObj:=DHI_WO_R2;
     MoveJ [[61.420,-58.419,0.000],[9.73406E-05,-0.156597,-0.987662,-8.78936E-05],[-1,-1,-3,1],[9E+09,9E+09,9E+09,9E+09,9E+09,9E+09]],v50,z0,T2_R2\WObj:=DHI_WO_R2;
     MoveJ [[61.650,-58.336,0.000],[9.73406E-05,-0.156597,-0.987662,-8.78936E-05],[-1,-1,-3,1],[9E+09,9E+09,9E+09,9E+09,9E+09,9E+09]],v50,z0,T2_R2\WObj:=DHI_WO_R2;
     MoveJ [[61.800,-58.280,0.000],[9.73406E-05,-0.156597,-0.987662,-8.78936E-05],[-1,-1,-3,1],[9E+09,9E+09,9E+09,9E+09,9E+09,9E+09]],v50,z0,T2_R2\WObj:=DHI_WO_R2;
     MoveJ [[62.180,-58.141,0.000],[9.73406E-05,-0.156597,-0.987662,-8.78936E-05],[-1,-1,-3,1],[9E+09,9E+09,9E+09,9E+09,9E+09,9E+09]],v50,z0,T2_R2\WObj:=DHI_WO_R2;
     MoveJ [[62.370,-58.071,0.000],[9.73406E-05,-0.156597,-0.987662,-8.78936E-05],[-1,-1,-3,1],[9E+09,9E+09,9E+09,9E+09,9E+09,9E+09]],v50,z0,T2_R2\WObj:=DHI_WO_R2;
     MoveJ [[62.560,-57.999,0.000],[9.73406E-05,-0.156597,-0.987662,-8.78936E-05],[-1,-1,-3,1],[9E+09,9E+09,9E+09,9E+09,9E+09,9E+09]],v50,z0,T2_R2\WObj:=DHI_WO_R2;
     MoveJ [[62.680,-57.956,0.000],[9.73406E-05,-0.156597,-0.987662,-8.78936E-05],[-1,-1,-3,1],[9E+09,9E+09,9E+09,9E+09,9E+09,9E+09]],v50,z0,T2_R2\WObj:=DHI_WO_R2;
     MoveJ [[63.130,-57.784,0.000],[9.73406E-05,-0.156597,-0.987662,-8.78936E-05],[-1,-1,-3,1],[9E+09,9E+09,9E+09,9E+09,9E+09,9E+09]],v50,z0,T2_R2\WObj:=DHI_WO_R2;
     MoveJ [[63.180,-57.765,0.000],[9.73406E-05,-0.156597,-0.987662,-8.78936E-05],[-1,-1,-3,1],[9E+09,9E+09,9E+09,9E+09,9E+09,9E+09]],v50,z0,T2_R2\WObj:=DHI_WO_R2;
     MoveJ [[63.320,-57.711,0.000],[9.73406E-05,-0.156597,-0.987662,-8.78936E-05],[-1,-1,-3,1],[9E+09,9E+09,9E+09,9E+09,9E+09,9E+09]],v50,z0,T2_R2\WObj:=DHI_WO_R2;
     MoveJ [[63.510,-57.637,0.000],[9.73406E-05,-0.156597,-0.987662,-8.78936E-05],[-1,-1,-3,1],[9E+09,9E+09,9E+09,9E+09,9E+09,9E+09]],v50,z0,T2_R2\WObj:=DHI_WO_R2;
     MoveJ [[63.890,-57.489,0.000],[9.73406E-05,-0.156597,-0.987662,-8.78936E-05],[-1,-1,-3,1],[9E+09,9E+09,9E+09,9E+09,9E+09,9E+09]],v50,z0,T2_R2\WObj:=DHI_WO_R2;
     MoveJ [[64.080,-57.415,0.000],[9.73406E-05,-0.156597,-0.987662,-8.78936E-05],[-1,-1,-3,1],[9E+09,9E+09,9E+09,9E+09,9E+09,9E+09]],v50,z0,T2_R2\WObj:=DHI_WO_R2;
     MoveJ [[64.160,-57.385,0.000],[9.73406E-05,-0.156597,-0.987662,-8.78936E-05],[-1,-1,-3,1],[9E+09,9E+09,9E+09,9E+09,9E+09,9E+09]],v50,z0,T2_R2\WObj:=DHI_WO_R2;
     MoveJ [[64.460,-57.262,0.000],[9.73406E-05,-0.156597,-0.987662,-8.78936E-05],[-1,-1,-3,1],[9E+09,9E+09,9E+09,9E+09,9E+09,9E+09]],v50,z0,T2_R2\WObj:=DHI_WO_R2;
     MoveJ [[64.630,-57.195,0.000],[9.73406E-05,-0.156597,-0.987662,-8.78936E-05],[-1,-1,-3,1],[9E+09,9E+09,9E+09,9E+09,9E+09,9E+09]],v50,z0,T2_R2\WObj:=DHI_WO_R2;
     MoveJ [[64.650,-57.186,0.000],[9.73406E-05,-0.156597,-0.987662,-8.78936E-05],[-1,-1,-3,1],[9E+09,9E+09,9E+09,9E+09,9E+09,9E+09]],v50,z0,T2_R2\WObj:=DHI_WO_R2;
     MoveJ [[64.840,-57.107,0.000],[9.73406E-05,-0.156597,-0.987662,-8.78936E-05],[-1,-1,-3,1],[9E+09,9E+09,9E+09,9E+09,9E+09,9E+09]],v50,z0,T2_R2\WObj:=DHI_WO_R2;
     MoveJ [[65.090,-57.005,0.000],[9.73406E-05,-0.156597,-0.987662,-8.78936E-05],[-1,-1,-3,1],[9E+09,9E+09,9E+09,9E+09,9E+09,9E+09]],v50,z0,T2_R2\WObj:=DHI_WO_R2;
     MoveJ [[65.220,-56.951,0.000],[9.73406E-05,-0.156597,-0.987662,-8.78936E-05],[-1,-1,-3,1],[9E+09,9E+09,9E+09,9E+09,9E+09,9E+09]],v50,z0,T2_R2\WObj:=DHI_WO_R2;
     MoveJ [[65.410,-56.870,0.000],[9.73406E-05,-0.156597,-0.987662,-8.78936E-05],[-1,-1,-3,1],[9E+09,9E+09,9E+09,9E+09,9E+09,9E+09]],v50,z0,T2_R2\WObj:=DHI_WO_R2;
     MoveJ [[65.790,-56.708,0.000],[9.73406E-05,-0.156597,-0.987662,-8.78936E-05],[-1,-1,-3,1],[9E+09,9E+09,9E+09,9E+09,9E+09,9E+09]],v50,z0,T2_R2\WObj:=DHI_WO_R2;
     MoveJ [[65.990,-56.625,0.000],[9.73406E-05,-0.156597,-0.987662,-8.78936E-05],[-1,-1,-3,1],[9E+09,9E+09,9E+09,9E+09,9E+09,9E+09]],v50,z0,T2_R2\WObj:=DHI_WO_R2;
     MoveJ [[66.170,-56.545,0.000],[9.73406E-05,-0.156597,-0.987662,-8.78936E-05],[-1,-1,-3,1],[9E+09,9E+09,9E+09,9E+09,9E+09,9E+09]],v50,z0,T2_R2\WObj:=DHI_WO_R2;
     MoveJ [[66.360,-56.461,0.000],[9.73406E-05,-0.156597,-0.987662,-8.78936E-05],[-1,-1,-3,1],[9E+09,9E+09,9E+09,9E+09,9E+09,9E+09]],v50,z0,T2_R2\WObj:=DHI_WO_R2;
     MoveJ [[66.420,-56.435,0.000],[9.73406E-05,-0.156597,-0.987662,-8.78936E-05],[-1,-1,-3,1],[9E+09,9E+09,9E+09,9E+09,9E+09,9E+09]],v50,z0,T2_R2\WObj:=DHI_WO_R2;
     MoveJ [[66.550,-56.376,0.000],[9.73406E-05,-0.156597,-0.987662,-8.78936E-05],[-1,-1,-3,1],[9E+09,9E+09,9E+09,9E+09,9E+09,9E+09]],v50,z0,T2_R2\WObj:=DHI_WO_R2;
     MoveJ [[66.930,-56.205,0.000],[9.73406E-05,-0.156597,-0.987662,-8.78936E-05],[-1,-1,-3,1],[9E+09,9E+09,9E+09,9E+09,9E+09,9E+09]],v50,z0,T2_R2\WObj:=DHI_WO_R2;
     MoveJ [[67.120,-56.119,0.000],[9.73406E-05,-0.156597,-0.987662,-8.78936E-05],[-1,-1,-3,1],[9E+09,9E+09,9E+09,9E+09,9E+09,9E+09]],v50,z0,T2_R2\WObj:=DHI_WO_R2;
     MoveJ [[67.310,-56.029,0.000],[9.73406E-05,-0.156597,-0.987662,-8.78936E-05],[-1,-1,-3,1],[9E+09,9E+09,9E+09,9E+09,9E+09,9E+09]],v50,z0,T2_R2\WObj:=DHI_WO_R2;
     MoveJ [[67.500,-55.940,0.000],[9.73406E-05,-0.156597,-0.987662,-8.78936E-05],[-1,-1,-3,1],[9E+09,9E+09,9E+09,9E+09,9E+09,9E+09]],v50,z0,T2_R2\WObj:=DHI_WO_R2;
     MoveJ [[67.880,-55.760,0.000],[9.73406E-05,-0.156597,-0.987662,-8.78936E-05],[-1,-1,-3,1],[9E+09,9E+09,9E+09,9E+09,9E+09,9E+09]],v50,z0,T2_R2\WObj:=DHI_WO_R2;
     MoveJ [[68.060,-55.675,0.000],[9.73406E-05,-0.156597,-0.987662,-8.78936E-05],[-1,-1,-3,1],[9E+09,9E+09,9E+09,9E+09,9E+09,9E+09]],v50,z0,T2_R2\WObj:=DHI_WO_R2;
     MoveJ [[68.070,-55.668,0.000],[9.73406E-05,-0.156597,-0.987662,-8.78936E-05],[-1,-1,-3,1],[9E+09,9E+09,9E+09,9E+09,9E+09,9E+09]],v50,z0,T2_R2\WObj:=DHI_WO_R2;
     MoveJ [[68.260,-55.573,0.000],[9.73406E-05,-0.156597,-0.987662,-8.78936E-05],[-1,-1,-3,1],[9E+09,9E+09,9E+09,9E+09,9E+09,9E+09]],v50,z0,T2_R2\WObj:=DHI_WO_R2;
     MoveJ [[68.840,-55.287,0.000],[9.73406E-05,-0.156597,-0.987662,-8.78936E-05],[-1,-1,-3,1],[9E+09,9E+09,9E+09,9E+09,9E+09,9E+09]],v50,z0,T2_R2\WObj:=DHI_WO_R2;
     MoveJ [[69.030,-55.189,0.000],[9.73406E-05,-0.156597,-0.987662,-8.78936E-05],[-1,-1,-3,1],[9E+09,9E+09,9E+09,9E+09,9E+09,9E+09]],v50,z0,T2_R2\WObj:=DHI_WO_R2;
     MoveJ [[69.190,-55.104,0.000],[9.73406E-05,-0.156597,-0.987662,-8.78936E-05],[-1,-1,-3,1],[9E+09,9E+09,9E+09,9E+09,9E+09,9E+09]],v50,z0,T2_R2\WObj:=DHI_WO_R2;
     MoveJ [[69.600,-54.887,0.000],[9.73406E-05,-0.156597,-0.987662,-8.78936E-05],[-1,-1,-3,1],[9E+09,9E+09,9E+09,9E+09,9E+09,9E+09]],v50,z0,T2_R2\WObj:=DHI_WO_R2;
     MoveJ [[69.790,-54.781,0.000],[9.73406E-05,-0.156597,-0.987662,-8.78936E-05],[-1,-1,-3,1],[9E+09,9E+09,9E+09,9E+09,9E+09,9E+09]],v50,z0,T2_R2\WObj:=DHI_WO_R2;
     MoveJ [[69.890,-54.724,0.000],[9.73406E-05,-0.156597,-0.987662,-8.78936E-05],[-1,-1,-3,1],[9E+09,9E+09,9E+09,9E+09,9E+09,9E+09]],v50,z0,T2_R2\WObj:=DHI_WO_R2;
     MoveJ [[70.360,-54.462,0.000],[9.73406E-05,-0.156597,-0.987662,-8.78936E-05],[-1,-1,-3,1],[9E+09,9E+09,9E+09,9E+09,9E+09,9E+09]],v50,z0,T2_R2\WObj:=DHI_WO_R2;
     MoveJ [[70.550,-54.351,0.000],[9.73406E-05,-0.156597,-0.987662,-8.78936E-05],[-1,-1,-3,1],[9E+09,9E+09,9E+09,9E+09,9E+09,9E+09]],v50,z0,T2_R2\WObj:=DHI_WO_R2;
     MoveJ [[70.560,-54.344,0.000],[9.73406E-05,-0.156597,-0.987662,-8.78936E-05],[-1,-1,-3,1],[9E+09,9E+09,9E+09,9E+09,9E+09,9E+09]],v50,z0,T2_R2\WObj:=DHI_WO_R2;
     MoveJ [[70.740,-54.238,0.000],[9.73406E-05,-0.156597,-0.987662,-8.78936E-05],[-1,-1,-3,1],[9E+09,9E+09,9E+09,9E+09,9E+09,9E+09]],v50,z0,T2_R2\WObj:=DHI_WO_R2;
     MoveJ [[71.120,-54.012,0.000],[9.73406E-05,-0.156597,-0.987662,-8.78936E-05],[-1,-1,-3,1],[9E+09,9E+09,9E+09,9E+09,9E+09,9E+09]],v50,z0,T2_R2\WObj:=DHI_WO_R2;
     MoveJ [[71.190,-53.964,0.000],[9.73406E-05,-0.156597,-0.987662,-8.78936E-05],[-1,-1,-3,1],[9E+09,9E+09,9E+09,9E+09,9E+09,9E+09]],v50,z0,T2_R2\WObj:=DHI_WO_R2;
     MoveJ [[71.310,-53.892,0.000],[9.73406E-05,-0.156597,-0.987662,-8.78936E-05],[-1,-1,-3,1],[9E+09,9E+09,9E+09,9E+09,9E+09,9E+09]],v50,z0,T2_R2\WObj:=DHI_WO_R2;
     MoveJ [[71.500,-53.772,0.000],[9.73406E-05,-0.156597,-0.987662,-8.78936E-05],[-1,-1,-3,1],[9E+09,9E+09,9E+09,9E+09,9E+09,9E+09]],v50,z0,T2_R2\WObj:=DHI_WO_R2;
     MoveJ [[71.790,-53.584,0.000],[9.73406E-05,-0.156597,-0.987662,-8.78936E-05],[-1,-1,-3,1],[9E+09,9E+09,9E+09,9E+09,9E+09,9E+09]],v50,z0,T2_R2\WObj:=DHI_WO_R2;
     MoveJ [[71.880,-53.530,0.000],[9.73406E-05,-0.156597,-0.987662,-8.78936E-05],[-1,-1,-3,1],[9E+09,9E+09,9E+09,9E+09,9E+09,9E+09]],v50,z0,T2_R2\WObj:=DHI_WO_R2;
     MoveJ [[72.080,-53.394,0.000],[9.73406E-05,-0.156597,-0.987662,-8.78936E-05],[-1,-1,-3,1],[9E+09,9E+09,9E+09,9E+09,9E+09,9E+09]],v50,z0,T2_R2\WObj:=DHI_WO_R2;
     MoveJ [[72.260,-53.275,0.000],[9.73406E-05,-0.156597,-0.987662,-8.78936E-05],[-1,-1,-3,1],[9E+09,9E+09,9E+09,9E+09,9E+09,9E+09]],v50,z0,T2_R2\WObj:=DHI_WO_R2;
     MoveJ [[72.640,-53.012,0.000],[9.73406E-05,-0.156597,-0.987662,-8.78936E-05],[-1,-1,-3,1],[9E+09,9E+09,9E+09,9E+09,9E+09,9E+09]],v50,z0,T2_R2\WObj:=DHI_WO_R2;
     MoveJ [[72.830,-52.878,0.000],[9.73406E-05,-0.156597,-0.987662,-8.78936E-05],[-1,-1,-3,1],[9E+09,9E+09,9E+09,9E+09,9E+09,9E+09]],v50,z0,T2_R2\WObj:=DHI_WO_R2;
     MoveJ [[72.900,-52.823,0.000],[9.73406E-05,-0.156597,-0.987662,-8.78936E-05],[-1,-1,-3,1],[9E+09,9E+09,9E+09,9E+09,9E+09,9E+09]],v50,z0,T2_R2\WObj:=DHI_WO_R2;
     MoveJ [[73.020,-52.739,0.000],[9.73406E-05,-0.156597,-0.987662,-8.78936E-05],[-1,-1,-3,1],[9E+09,9E+09,9E+09,9E+09,9E+09,9E+09]],v50,z0,T2_R2\WObj:=DHI_WO_R2;
     MoveJ [[73.160,-52.633,0.000],[9.73406E-05,-0.156597,-0.987662,-8.78936E-05],[-1,-1,-3,1],[9E+09,9E+09,9E+09,9E+09,9E+09,9E+09]],v50,z0,T2_R2\WObj:=DHI_WO_R2;
     MoveJ [[73.210,-52.599,0.000],[9.73406E-05,-0.156597,-0.987662,-8.78936E-05],[-1,-1,-3,1],[9E+09,9E+09,9E+09,9E+09,9E+09,9E+09]],v50,z0,T2_R2\WObj:=DHI_WO_R2;
     MoveJ [[73.400,-52.453,0.000],[9.73406E-05,-0.156597,-0.987662,-8.78936E-05],[-1,-1,-3,1],[9E+09,9E+09,9E+09,9E+09,9E+09,9E+09]],v50,z0,T2_R2\WObj:=DHI_WO_R2;
     MoveJ [[73.660,-52.253,0.000],[9.73406E-05,-0.156597,-0.987662,-8.78936E-05],[-1,-1,-3,1],[9E+09,9E+09,9E+09,9E+09,9E+09,9E+09]],v50,z0,T2_R2\WObj:=DHI_WO_R2;
     MoveJ [[73.780,-52.157,0.000],[9.73406E-05,-0.156597,-0.987662,-8.78936E-05],[-1,-1,-3,1],[9E+09,9E+09,9E+09,9E+09,9E+09,9E+09]],v50,z0,T2_R2\WObj:=DHI_WO_R2;
     MoveJ [[73.890,-52.063,0.000],[9.73406E-05,-0.156597,-0.987662,-8.78936E-05],[-1,-1,-3,1],[9E+09,9E+09,9E+09,9E+09,9E+09,9E+09]],v50,z0,T2_R2\WObj:=DHI_WO_R2;
     MoveJ [[74.160,-51.847,0.000],[9.73406E-05,-0.156597,-0.987662,-8.78936E-05],[-1,-1,-3,1],[9E+09,9E+09,9E+09,9E+09,9E+09,9E+09]],v50,z0,T2_R2\WObj:=DHI_WO_R2;
     MoveJ [[74.350,-51.689,0.000],[9.73406E-05,-0.156597,-0.987662,-8.78936E-05],[-1,-1,-3,1],[9E+09,9E+09,9E+09,9E+09,9E+09,9E+09]],v50,z0,T2_R2\WObj:=DHI_WO_R2;
     MoveJ [[74.540,-51.524,0.000],[9.73406E-05,-0.156597,-0.987662,-8.78936E-05],[-1,-1,-3,1],[9E+09,9E+09,9E+09,9E+09,9E+09,9E+09]],v50,z0,T2_R2\WObj:=DHI_WO_R2;
     MoveJ [[74.580,-51.493,0.000],[9.73406E-05,-0.156597,-0.987662,-8.78936E-05],[-1,-1,-3,1],[9E+09,9E+09,9E+09,9E+09,9E+09,9E+09]],v50,z0,T2_R2\WObj:=DHI_WO_R2;
     MoveJ [[74.730,-51.358,0.000],[9.73406E-05,-0.156597,-0.987662,-8.78936E-05],[-1,-1,-3,1],[9E+09,9E+09,9E+09,9E+09,9E+09,9E+09]],v50,z0,T2_R2\WObj:=DHI_WO_R2;
     MoveJ [[74.790,-51.303,0.000],[9.73406E-05,-0.156597,-0.987662,-8.78936E-05],[-1,-1,-3,1],[9E+09,9E+09,9E+09,9E+09,9E+09,9E+09]],v50,z0,T2_R2\WObj:=DHI_WO_R2;
     MoveJ [[74.920,-51.185,0.000],[9.73406E-05,-0.156597,-0.987662,-8.78936E-05],[-1,-1,-3,1],[9E+09,9E+09,9E+09,9E+09,9E+09,9E+09]],v50,z0,T2_R2\WObj:=DHI_WO_R2;
     MoveJ [[75.000,-51.112,0.000],[9.73406E-05,-0.156597,-0.987662,-8.78936E-05],[-1,-1,-3,1],[9E+09,9E+09,9E+09,9E+09,9E+09,9E+09]],v50,z0,T2_R2\WObj:=DHI_WO_R2;
     MoveJ [[75.110,-51.011,0.000],[9.73406E-05,-0.156597,-0.987662,-8.78936E-05],[-1,-1,-3,1],[9E+09,9E+09,9E+09,9E+09,9E+09,9E+09]],v50,z0,T2_R2\WObj:=DHI_WO_R2;
     MoveJ [[75.200,-50.922,0.000],[9.73406E-05,-0.156597,-0.987662,-8.78936E-05],[-1,-1,-3,1],[9E+09,9E+09,9E+09,9E+09,9E+09,9E+09]],v50,z0,T2_R2\WObj:=DHI_WO_R2;
     MoveJ [[75.300,-50.828,0.000],[9.73406E-05,-0.156597,-0.987662,-8.78936E-05],[-1,-1,-3,1],[9E+09,9E+09,9E+09,9E+09,9E+09,9E+09]],v50,z0,T2_R2\WObj:=DHI_WO_R2;
     MoveJ [[75.490,-50.644,0.000],[9.73406E-05,-0.156597,-0.987662,-8.78936E-05],[-1,-1,-3,1],[9E+09,9E+09,9E+09,9E+09,9E+09,9E+09]],v50,z0,T2_R2\WObj:=DHI_WO_R2;
     MoveJ [[75.590,-50.542,0.000],[9.73406E-05,-0.156597,-0.987662,-8.78936E-05],[-1,-1,-3,1],[9E+09,9E+09,9E+09,9E+09,9E+09,9E+09]],v50,z0,T2_R2\WObj:=DHI_WO_R2;
     MoveJ [[75.680,-50.454,0.000],[9.73406E-05,-0.156597,-0.987662,-8.78936E-05],[-1,-1,-3,1],[9E+09,9E+09,9E+09,9E+09,9E+09,9E+09]],v50,z0,T2_R2\WObj:=DHI_WO_R2;
     MoveJ [[75.780,-50.352,0.000],[9.73406E-05,-0.156597,-0.987662,-8.78936E-05],[-1,-1,-3,1],[9E+09,9E+09,9E+09,9E+09,9E+09,9E+09]],v50,z0,T2_R2\WObj:=DHI_WO_R2;
     MoveJ [[75.870,-50.260,0.000],[9.73406E-05,-0.156597,-0.987662,-8.78936E-05],[-1,-1,-3,1],[9E+09,9E+09,9E+09,9E+09,9E+09,9E+09]],v50,z0,T2_R2\WObj:=DHI_WO_R2;
     MoveJ [[75.960,-50.162,0.000],[9.73406E-05,-0.156597,-0.987662,-8.78936E-05],[-1,-1,-3,1],[9E+09,9E+09,9E+09,9E+09,9E+09,9E+09]],v50,z0,T2_R2\WObj:=DHI_WO_R2;
     MoveJ [[76.060,-50.058,0.000],[9.73406E-05,-0.156597,-0.987662,-8.78936E-05],[-1,-1,-3,1],[9E+09,9E+09,9E+09,9E+09,9E+09,9E+09]],v50,z0,T2_R2\WObj:=DHI_WO_R2;
     MoveJ [[76.140,-49.972,0.000],[9.73406E-05,-0.156597,-0.987662,-8.78936E-05],[-1,-1,-3,1],[9E+09,9E+09,9E+09,9E+09,9E+09,9E+09]],v50,z0,T2_R2\WObj:=DHI_WO_R2;
     MoveJ [[76.250,-49.852,0.000],[9.73406E-05,-0.156597,-0.987662,-8.78936E-05],[-1,-1,-3,1],[9E+09,9E+09,9E+09,9E+09,9E+09,9E+09]],v50,z0,T2_R2\WObj:=DHI_WO_R2;
     MoveJ [[76.310,-49.782,0.000],[9.73406E-05,-0.156597,-0.987662,-8.78936E-05],[-1,-1,-3,1],[9E+09,9E+09,9E+09,9E+09,9E+09,9E+09]],v50,z0,T2_R2\WObj:=DHI_WO_R2;
     MoveJ [[76.480,-49.592,0.000],[9.73406E-05,-0.156597,-0.987662,-8.78936E-05],[-1,-1,-3,1],[9E+09,9E+09,9E+09,9E+09,9E+09,9E+09]],v50,z0,T2_R2\WObj:=DHI_WO_R2;
     MoveJ [[76.630,-49.421,0.000],[9.73406E-05,-0.156597,-0.987662,-8.78936E-05],[-1,-1,-3,1],[9E+09,9E+09,9E+09,9E+09,9E+09,9E+09]],v50,z0,T2_R2\WObj:=DHI_WO_R2;
     MoveJ [[76.650,-49.402,0.000],[9.73406E-05,-0.156597,-0.987662,-8.78936E-05],[-1,-1,-3,1],[9E+09,9E+09,9E+09,9E+09,9E+09,9E+09]],v50,z0,T2_R2\WObj:=DHI_WO_R2;
     MoveJ [[76.810,-49.212,0.000],[9.73406E-05,-0.156597,-0.987662,-8.78936E-05],[-1,-1,-3,1],[9E+09,9E+09,9E+09,9E+09,9E+09,9E+09]],v50,z0,T2_R2\WObj:=DHI_WO_R2;
     MoveJ [[77.010,-48.961,0.000],[9.73406E-05,-0.156597,-0.987662,-8.78936E-05],[-1,-1,-3,1],[9E+09,9E+09,9E+09,9E+09,9E+09,9E+09]],v50,z0,T2_R2\WObj:=DHI_WO_R2;
     MoveJ [[77.120,-48.831,0.000],[9.73406E-05,-0.156597,-0.987662,-8.78936E-05],[-1,-1,-3,1],[9E+09,9E+09,9E+09,9E+09,9E+09,9E+09]],v50,z0,T2_R2\WObj:=DHI_WO_R2;
     MoveJ [[77.200,-48.721,0.000],[9.73406E-05,-0.156597,-0.987662,-8.78936E-05],[-1,-1,-3,1],[9E+09,9E+09,9E+09,9E+09,9E+09,9E+09]],v50,z0,T2_R2\WObj:=DHI_WO_R2;
     MoveJ [[77.410,-48.451,0.000],[9.73406E-05,-0.156597,-0.987662,-8.78936E-05],[-1,-1,-3,1],[9E+09,9E+09,9E+09,9E+09,9E+09,9E+09]],v50,z0,T2_R2\WObj:=DHI_WO_R2;
     MoveJ [[77.550,-48.261,0.000],[9.73406E-05,-0.156597,-0.987662,-8.78936E-05],[-1,-1,-3,1],[9E+09,9E+09,9E+09,9E+09,9E+09,9E+09]],v50,z0,T2_R2\WObj:=DHI_WO_R2;
     MoveJ [[77.580,-48.220,0.000],[9.73406E-05,-0.156597,-0.987662,-8.78936E-05],[-1,-1,-3,1],[9E+09,9E+09,9E+09,9E+09,9E+09,9E+09]],v50,z0,T2_R2\WObj:=DHI_WO_R2;
     MoveJ [[77.690,-48.071,0.000],[9.73406E-05,-0.156597,-0.987662,-8.78936E-05],[-1,-1,-3,1],[9E+09,9E+09,9E+09,9E+09,9E+09,9E+09]],v50,z0,T2_R2\WObj:=DHI_WO_R2;
     MoveJ [[77.820,-47.881,0.000],[9.73406E-05,-0.156597,-0.987662,-8.78936E-05],[-1,-1,-3,1],[9E+09,9E+09,9E+09,9E+09,9E+09,9E+09]],v50,z0,T2_R2\WObj:=DHI_WO_R2;
     MoveJ [[77.950,-47.691,0.000],[9.73406E-05,-0.156597,-0.987662,-8.78936E-05],[-1,-1,-3,1],[9E+09,9E+09,9E+09,9E+09,9E+09,9E+09]],v50,z0,T2_R2\WObj:=DHI_WO_R2;
     MoveJ [[77.960,-47.680,0.000],[9.73406E-05,-0.156597,-0.987662,-8.78936E-05],[-1,-1,-3,1],[9E+09,9E+09,9E+09,9E+09,9E+09,9E+09]],v50,z0,T2_R2\WObj:=DHI_WO_R2;
     MoveJ [[78.080,-47.501,0.000],[9.73406E-05,-0.156597,-0.987662,-8.78936E-05],[-1,-1,-3,1],[9E+09,9E+09,9E+09,9E+09,9E+09,9E+09]],v50,z0,T2_R2\WObj:=DHI_WO_R2;
     MoveJ [[78.330,-47.121,0.000],[9.73406E-05,-0.156597,-0.987662,-8.78936E-05],[-1,-1,-3,1],[9E+09,9E+09,9E+09,9E+09,9E+09,9E+09]],v50,z0,T2_R2\WObj:=DHI_WO_R2;
     MoveJ [[78.340,-47.102,0.000],[9.73406E-05,-0.156597,-0.987662,-8.78936E-05],[-1,-1,-3,1],[9E+09,9E+09,9E+09,9E+09,9E+09,9E+09]],v50,z0,T2_R2\WObj:=DHI_WO_R2;
     MoveJ [[78.450,-46.931,0.000],[9.73406E-05,-0.156597,-0.987662,-8.78936E-05],[-1,-1,-3,1],[9E+09,9E+09,9E+09,9E+09,9E+09,9E+09]],v50,z0,T2_R2\WObj:=DHI_WO_R2;
     MoveJ [[78.560,-46.741,0.000],[9.73406E-05,-0.156597,-0.987662,-8.78936E-05],[-1,-1,-3,1],[9E+09,9E+09,9E+09,9E+09,9E+09,9E+09]],v50,z0,T2_R2\WObj:=DHI_WO_R2;
     MoveJ [[78.680,-46.550,0.000],[9.73406E-05,-0.156597,-0.987662,-8.78936E-05],[-1,-1,-3,1],[9E+09,9E+09,9E+09,9E+09,9E+09,9E+09]],v50,z0,T2_R2\WObj:=DHI_WO_R2;
     MoveJ [[78.720,-46.481,0.000],[9.73406E-05,-0.156597,-0.987662,-8.78936E-05],[-1,-1,-3,1],[9E+09,9E+09,9E+09,9E+09,9E+09,9E+09]],v50,z0,T2_R2\WObj:=DHI_WO_R2;
     MoveJ [[78.790,-46.360,0.000],[9.73406E-05,-0.156597,-0.987662,-8.78936E-05],[-1,-1,-3,1],[9E+09,9E+09,9E+09,9E+09,9E+09,9E+09]],v50,z0,T2_R2\WObj:=DHI_WO_R2;
     MoveJ [[78.900,-46.170,0.000],[9.73406E-05,-0.156597,-0.987662,-8.78936E-05],[-1,-1,-3,1],[9E+09,9E+09,9E+09,9E+09,9E+09,9E+09]],v50,z0,T2_R2\WObj:=DHI_WO_R2;
     MoveJ [[79.010,-45.980,0.000],[9.73406E-05,-0.156597,-0.987662,-8.78936E-05],[-1,-1,-3,1],[9E+09,9E+09,9E+09,9E+09,9E+09,9E+09]],v50,z0,T2_R2\WObj:=DHI_WO_R2;
     MoveJ [[79.100,-45.813,0.000],[9.73406E-05,-0.156597,-0.987662,-8.78936E-05],[-1,-1,-3,1],[9E+09,9E+09,9E+09,9E+09,9E+09,9E+09]],v50,z0,T2_R2\WObj:=DHI_WO_R2;
     MoveJ [[79.110,-45.790,0.000],[9.73406E-05,-0.156597,-0.987662,-8.78936E-05],[-1,-1,-3,1],[9E+09,9E+09,9E+09,9E+09,9E+09,9E+09]],v50,z0,T2_R2\WObj:=DHI_WO_R2;
     MoveJ [[79.220,-45.600,0.000],[9.73406E-05,-0.156597,-0.987662,-8.78936E-05],[-1,-1,-3,1],[9E+09,9E+09,9E+09,9E+09,9E+09,9E+09]],v50,z0,T2_R2\WObj:=DHI_WO_R2;
     MoveJ [[79.320,-45.410,0.000],[9.73406E-05,-0.156597,-0.987662,-8.78936E-05],[-1,-1,-3,1],[9E+09,9E+09,9E+09,9E+09,9E+09,9E+09]],v50,z0,T2_R2\WObj:=DHI_WO_R2;
     MoveJ [[79.420,-45.220,0.000],[9.73406E-05,-0.156597,-0.987662,-8.78936E-05],[-1,-1,-3,1],[9E+09,9E+09,9E+09,9E+09,9E+09,9E+09]],v50,z0,T2_R2\WObj:=DHI_WO_R2;
     MoveJ [[79.480,-45.097,0.000],[9.73406E-05,-0.156597,-0.987662,-8.78936E-05],[-1,-1,-3,1],[9E+09,9E+09,9E+09,9E+09,9E+09,9E+09]],v50,z0,T2_R2\WObj:=DHI_WO_R2;
     MoveJ [[79.520,-45.030,0.000],[9.73406E-05,-0.156597,-0.987662,-8.78936E-05],[-1,-1,-3,1],[9E+09,9E+09,9E+09,9E+09,9E+09,9E+09]],v50,z0,T2_R2\WObj:=DHI_WO_R2;
     MoveJ [[79.610,-44.840,0.000],[9.73406E-05,-0.156597,-0.987662,-8.78936E-05],[-1,-1,-3,1],[9E+09,9E+09,9E+09,9E+09,9E+09,9E+09]],v50,z0,T2_R2\WObj:=DHI_WO_R2;
     MoveJ [[79.670,-44.719,0.000],[9.73406E-05,-0.156597,-0.987662,-8.78936E-05],[-1,-1,-3,1],[9E+09,9E+09,9E+09,9E+09,9E+09,9E+09]],v50,z0,T2_R2\WObj:=DHI_WO_R2;
     MoveJ [[79.710,-44.650,0.000],[9.73406E-05,-0.156597,-0.987662,-8.78936E-05],[-1,-1,-3,1],[9E+09,9E+09,9E+09,9E+09,9E+09,9E+09]],v50,z0,T2_R2\WObj:=DHI_WO_R2;
     MoveJ [[79.800,-44.459,0.000],[9.73406E-05,-0.156597,-0.987662,-8.78936E-05],[-1,-1,-3,1],[9E+09,9E+09,9E+09,9E+09,9E+09,9E+09]],v50,z0,T2_R2\WObj:=DHI_WO_R2;
     MoveJ [[79.860,-44.327,0.000],[9.73406E-05,-0.156597,-0.987662,-8.78936E-05],[-1,-1,-3,1],[9E+09,9E+09,9E+09,9E+09,9E+09,9E+09]],v50,z0,T2_R2\WObj:=DHI_WO_R2;
     MoveJ [[79.890,-44.269,0.000],[9.73406E-05,-0.156597,-0.987662,-8.78936E-05],[-1,-1,-3,1],[9E+09,9E+09,9E+09,9E+09,9E+09,9E+09]],v50,z0,T2_R2\WObj:=DHI_WO_R2;
     MoveJ [[79.980,-44.079,0.000],[9.73406E-05,-0.156597,-0.987662,-8.78936E-05],[-1,-1,-3,1],[9E+09,9E+09,9E+09,9E+09,9E+09,9E+09]],v50,z0,T2_R2\WObj:=DHI_WO_R2;
