MODULE xyz_R22
    PROC xyz2()
     MoveJ [[78.340,55.207,-3.000],[9.73406E-05,-0.156597,-0.987662,-8.78936E-05],[-1,-1,-3,1],[9E+09,9E+09,9E+09,9E+09,9E+09,9E+09]],v50,z0,T2_R2\WObj:=DHI_WO_R2;
     MoveJ [[78.180,55.336,-3.000],[9.73406E-05,-0.156597,-0.987662,-8.78936E-05],[-1,-1,-3,1],[9E+09,9E+09,9E+09,9E+09,9E+09,9E+09]],v50,z0,T2_R2\WObj:=DHI_WO_R2;
     MoveJ [[77.770,55.653,-3.000],[9.73406E-05,-0.156597,-0.987662,-8.78936E-05],[-1,-1,-3,1],[9E+09,9E+09,9E+09,9E+09,9E+09,9E+09]],v50,z0,T2_R2\WObj:=DHI_WO_R2;
     MoveJ [[77.690,55.716,-3.000],[9.73406E-05,-0.156597,-0.987662,-8.78936E-05],[-1,-1,-3,1],[9E+09,9E+09,9E+09,9E+09,9E+09,9E+09]],v50,z0,T2_R2\WObj:=DHI_WO_R2;
     MoveJ [[77.390,55.949,-3.000],[9.73406E-05,-0.156597,-0.987662,-8.78936E-05],[-1,-1,-3,1],[9E+09,9E+09,9E+09,9E+09,9E+09,9E+09]],v50,z0,T2_R2\WObj:=DHI_WO_R2;
     MoveJ [[77.200,56.096,-3.000],[9.73406E-05,-0.156597,-0.987662,-8.78936E-05],[-1,-1,-3,1],[9E+09,9E+09,9E+09,9E+09,9E+09,9E+09]],v50,z0,T2_R2\WObj:=DHI_WO_R2;
     MoveJ [[76.820,56.388,-3.000],[9.73406E-05,-0.156597,-0.987662,-8.78936E-05],[-1,-1,-3,1],[9E+09,9E+09,9E+09,9E+09,9E+09,9E+09]],v50,z0,T2_R2\WObj:=DHI_WO_R2;
     MoveJ [[76.710,56.476,-3.000],[9.73406E-05,-0.156597,-0.987662,-8.78936E-05],[-1,-1,-3,1],[9E+09,9E+09,9E+09,9E+09,9E+09,9E+09]],v50,z0,T2_R2\WObj:=DHI_WO_R2;
     MoveJ [[76.250,56.824,-3.000],[9.73406E-05,-0.156597,-0.987662,-8.78936E-05],[-1,-1,-3,1],[9E+09,9E+09,9E+09,9E+09,9E+09,9E+09]],v50,z0,T2_R2\WObj:=DHI_WO_R2;
     MoveJ [[76.210,56.856,-3.000],[9.73406E-05,-0.156597,-0.987662,-8.78936E-05],[-1,-1,-3,1],[9E+09,9E+09,9E+09,9E+09,9E+09,9E+09]],v50,z0,T2_R2\WObj:=DHI_WO_R2;
     MoveJ [[75.710,57.236,-3.000],[9.73406E-05,-0.156597,-0.987662,-8.78936E-05],[-1,-1,-3,1],[9E+09,9E+09,9E+09,9E+09,9E+09,9E+09]],v50,z0,T2_R2\WObj:=DHI_WO_R2;
     MoveJ [[75.680,57.256,-3.000],[9.73406E-05,-0.156597,-0.987662,-8.78936E-05],[-1,-1,-3,1],[9E+09,9E+09,9E+09,9E+09,9E+09,9E+09]],v50,z0,T2_R2\WObj:=DHI_WO_R2;
     MoveJ [[75.200,57.617,-3.000],[9.73406E-05,-0.156597,-0.987662,-8.78936E-05],[-1,-1,-3,1],[9E+09,9E+09,9E+09,9E+09,9E+09,9E+09]],v50,z0,T2_R2\WObj:=DHI_WO_R2;
     MoveJ [[75.110,57.684,-3.000],[9.73406E-05,-0.156597,-0.987662,-8.78936E-05],[-1,-1,-3,1],[9E+09,9E+09,9E+09,9E+09,9E+09,9E+09]],v50,z0,T2_R2\WObj:=DHI_WO_R2;
     MoveJ [[74.690,57.997,-3.000],[9.73406E-05,-0.156597,-0.987662,-8.78936E-05],[-1,-1,-3,1],[9E+09,9E+09,9E+09,9E+09,9E+09,9E+09]],v50,z0,T2_R2\WObj:=DHI_WO_R2;
     MoveJ [[74.540,58.108,-3.000],[9.73406E-05,-0.156597,-0.987662,-8.78936E-05],[-1,-1,-3,1],[9E+09,9E+09,9E+09,9E+09,9E+09,9E+09]],v50,z0,T2_R2\WObj:=DHI_WO_R2;
     MoveJ [[74.160,58.389,-3.000],[9.73406E-05,-0.156597,-0.987662,-8.78936E-05],[-1,-1,-3,1],[9E+09,9E+09,9E+09,9E+09,9E+09,9E+09]],v50,z0,T2_R2\WObj:=DHI_WO_R2;
     MoveJ [[73.970,58.529,-3.000],[9.73406E-05,-0.156597,-0.987662,-8.78936E-05],[-1,-1,-3,1],[9E+09,9E+09,9E+09,9E+09,9E+09,9E+09]],v50,z0,T2_R2\WObj:=DHI_WO_R2;
     MoveJ [[73.400,58.947,-3.000],[9.73406E-05,-0.156597,-0.987662,-8.78936E-05],[-1,-1,-3,1],[9E+09,9E+09,9E+09,9E+09,9E+09,9E+09]],v50,z0,T2_R2\WObj:=DHI_WO_R2;
     MoveJ [[73.210,59.083,-3.000],[9.73406E-05,-0.156597,-0.987662,-8.78936E-05],[-1,-1,-3,1],[9E+09,9E+09,9E+09,9E+09,9E+09,9E+09]],v50,z0,T2_R2\WObj:=DHI_WO_R2;
     MoveJ [[72.830,59.358,-3.000],[9.73406E-05,-0.156597,-0.987662,-8.78936E-05],[-1,-1,-3,1],[9E+09,9E+09,9E+09,9E+09,9E+09,9E+09]],v50,z0,T2_R2\WObj:=DHI_WO_R2;
     MoveJ [[72.640,59.495,-3.000],[9.73406E-05,-0.156597,-0.987662,-8.78936E-05],[-1,-1,-3,1],[9E+09,9E+09,9E+09,9E+09,9E+09,9E+09]],v50,z0,T2_R2\WObj:=DHI_WO_R2;
     MoveJ [[72.260,59.767,-3.000],[9.73406E-05,-0.156597,-0.987662,-8.78936E-05],[-1,-1,-3,1],[9E+09,9E+09,9E+09,9E+09,9E+09,9E+09]],v50,z0,T2_R2\WObj:=DHI_WO_R2;
     MoveJ [[72.070,59.898,-3.000],[9.73406E-05,-0.156597,-0.987662,-8.78936E-05],[-1,-1,-3,1],[9E+09,9E+09,9E+09,9E+09,9E+09,9E+09]],v50,z0,T2_R2\WObj:=DHI_WO_R2;
     MoveJ [[71.500,60.307,-3.000],[9.73406E-05,-0.156597,-0.987662,-8.78936E-05],[-1,-1,-3,1],[9E+09,9E+09,9E+09,9E+09,9E+09,9E+09]],v50,z0,T2_R2\WObj:=DHI_WO_R2;
     MoveJ [[71.310,60.440,-3.000],[9.73406E-05,-0.156597,-0.987662,-8.78936E-05],[-1,-1,-3,1],[9E+09,9E+09,9E+09,9E+09,9E+09,9E+09]],v50,z0,T2_R2\WObj:=DHI_WO_R2;
     MoveJ [[70.930,60.707,-3.000],[9.73406E-05,-0.156597,-0.987662,-8.78936E-05],[-1,-1,-3,1],[9E+09,9E+09,9E+09,9E+09,9E+09,9E+09]],v50,z0,T2_R2\WObj:=DHI_WO_R2;
     MoveJ [[70.740,60.840,-3.000],[9.73406E-05,-0.156597,-0.987662,-8.78936E-05],[-1,-1,-3,1],[9E+09,9E+09,9E+09,9E+09,9E+09,9E+09]],v50,z0,T2_R2\WObj:=DHI_WO_R2;
     MoveJ [[70.170,61.235,-3.000],[9.73406E-05,-0.156597,-0.987662,-8.78936E-05],[-1,-1,-3,1],[9E+09,9E+09,9E+09,9E+09,9E+09,9E+09]],v50,z0,T2_R2\WObj:=DHI_WO_R2;
     MoveJ [[69.980,61.366,-3.000],[9.73406E-05,-0.156597,-0.987662,-8.78936E-05],[-1,-1,-3,1],[9E+09,9E+09,9E+09,9E+09,9E+09,9E+09]],v50,z0,T2_R2\WObj:=DHI_WO_R2;
     MoveJ [[69.410,61.757,-3.000],[9.73406E-05,-0.156597,-0.987662,-8.78936E-05],[-1,-1,-3,1],[9E+09,9E+09,9E+09,9E+09,9E+09,9E+09]],v50,z0,T2_R2\WObj:=DHI_WO_R2;
     MoveJ [[69.340,61.798,-3.000],[9.73406E-05,-0.156597,-0.987662,-8.78936E-05],[-1,-1,-3,1],[9E+09,9E+09,9E+09,9E+09,9E+09,9E+09]],v50,z0,T2_R2\WObj:=DHI_WO_R2;
     MoveJ [[68.780,62.179,-3.000],[9.73406E-05,-0.156597,-0.987662,-8.78936E-05],[-1,-1,-3,1],[9E+09,9E+09,9E+09,9E+09,9E+09,9E+09]],v50,z0,T2_R2\WObj:=DHI_WO_R2;
     MoveJ [[68.650,62.272,-3.000],[9.73406E-05,-0.156597,-0.987662,-8.78936E-05],[-1,-1,-3,1],[9E+09,9E+09,9E+09,9E+09,9E+09,9E+09]],v50,z0,T2_R2\WObj:=DHI_WO_R2;
     MoveJ [[67.930,62.749,-3.000],[9.73406E-05,-0.156597,-0.987662,-8.78936E-05],[-1,-1,-3,1],[9E+09,9E+09,9E+09,9E+09,9E+09,9E+09]],v50,z0,T2_R2\WObj:=DHI_WO_R2;
     MoveJ [[67.880,62.781,-3.000],[9.73406E-05,-0.156597,-0.987662,-8.78936E-05],[-1,-1,-3,1],[9E+09,9E+09,9E+09,9E+09,9E+09,9E+09]],v50,z0,T2_R2\WObj:=DHI_WO_R2;
     MoveJ [[67.310,63.157,-3.000],[9.73406E-05,-0.156597,-0.987662,-8.78936E-05],[-1,-1,-3,1],[9E+09,9E+09,9E+09,9E+09,9E+09,9E+09]],v50,z0,T2_R2\WObj:=DHI_WO_R2;
     MoveJ [[67.120,63.282,-3.000],[9.73406E-05,-0.156597,-0.987662,-8.78936E-05],[-1,-1,-3,1],[9E+09,9E+09,9E+09,9E+09,9E+09,9E+09]],v50,z0,T2_R2\WObj:=DHI_WO_R2;
     MoveJ [[66.480,63.699,-3.000],[9.73406E-05,-0.156597,-0.987662,-8.78936E-05],[-1,-1,-3,1],[9E+09,9E+09,9E+09,9E+09,9E+09,9E+09]],v50,z0,T2_R2\WObj:=DHI_WO_R2;
     MoveJ [[66.360,63.778,-3.000],[9.73406E-05,-0.156597,-0.987662,-8.78936E-05],[-1,-1,-3,1],[9E+09,9E+09,9E+09,9E+09,9E+09,9E+09]],v50,z0,T2_R2\WObj:=DHI_WO_R2;
     MoveJ [[65.790,64.145,-3.000],[9.73406E-05,-0.156597,-0.987662,-8.78936E-05],[-1,-1,-3,1],[9E+09,9E+09,9E+09,9E+09,9E+09,9E+09]],v50,z0,T2_R2\WObj:=DHI_WO_R2;
     MoveJ [[65.600,64.266,-3.000],[9.73406E-05,-0.156597,-0.987662,-8.78936E-05],[-1,-1,-3,1],[9E+09,9E+09,9E+09,9E+09,9E+09,9E+09]],v50,z0,T2_R2\WObj:=DHI_WO_R2;
     MoveJ [[65.000,64.650,-3.000],[9.73406E-05,-0.156597,-0.987662,-8.78936E-05],[-1,-1,-3,1],[9E+09,9E+09,9E+09,9E+09,9E+09,9E+09]],v50,z0,T2_R2\WObj:=DHI_WO_R2;
     MoveJ [[64.840,64.748,-3.000],[9.73406E-05,-0.156597,-0.987662,-8.78936E-05],[-1,-1,-3,1],[9E+09,9E+09,9E+09,9E+09,9E+09,9E+09]],v50,z0,T2_R2\WObj:=DHI_WO_R2;
     MoveJ [[64.270,65.105,-3.000],[9.73406E-05,-0.156597,-0.987662,-8.78936E-05],[-1,-1,-3,1],[9E+09,9E+09,9E+09,9E+09,9E+09,9E+09]],v50,z0,T2_R2\WObj:=DHI_WO_R2;
     MoveJ [[64.090,65.220,-3.000],[9.73406E-05,-0.156597,-0.987662,-8.78936E-05],[-1,-1,-3,1],[9E+09,9E+09,9E+09,9E+09,9E+09,9E+09]],v50,z0,T2_R2\WObj:=DHI_WO_R2;
     MoveJ [[63.470,65.600,-3.000],[9.73406E-05,-0.156597,-0.987662,-8.78936E-05],[-1,-1,-3,1],[9E+09,9E+09,9E+09,9E+09,9E+09,9E+09]],v50,z0,T2_R2\WObj:=DHI_WO_R2;
     MoveJ [[63.320,65.692,-3.000],[9.73406E-05,-0.156597,-0.987662,-8.78936E-05],[-1,-1,-3,1],[9E+09,9E+09,9E+09,9E+09,9E+09,9E+09]],v50,z0,T2_R2\WObj:=DHI_WO_R2;
     MoveJ [[62.750,66.039,-3.000],[9.73406E-05,-0.156597,-0.987662,-8.78936E-05],[-1,-1,-3,1],[9E+09,9E+09,9E+09,9E+09,9E+09,9E+09]],v50,z0,T2_R2\WObj:=DHI_WO_R2;
     MoveJ [[62.560,66.153,-3.000],[9.73406E-05,-0.156597,-0.987662,-8.78936E-05],[-1,-1,-3,1],[9E+09,9E+09,9E+09,9E+09,9E+09,9E+09]],v50,z0,T2_R2\WObj:=DHI_WO_R2;
     MoveJ [[62.180,66.381,-3.000],[9.73406E-05,-0.156597,-0.987662,-8.78936E-05],[-1,-1,-3,1],[9E+09,9E+09,9E+09,9E+09,9E+09,9E+09]],v50,z0,T2_R2\WObj:=DHI_WO_R2;
     MoveJ [[61.990,66.495,-3.000],[9.73406E-05,-0.156597,-0.987662,-8.78936E-05],[-1,-1,-3,1],[9E+09,9E+09,9E+09,9E+09,9E+09,9E+09]],v50,z0,T2_R2\WObj:=DHI_WO_R2;
     MoveJ [[61.420,66.832,-3.000],[9.73406E-05,-0.156597,-0.987662,-8.78936E-05],[-1,-1,-3,1],[9E+09,9E+09,9E+09,9E+09,9E+09,9E+09]],v50,z0,T2_R2\WObj:=DHI_WO_R2;
     MoveJ [[61.250,66.931,-3.000],[9.73406E-05,-0.156597,-0.987662,-8.78936E-05],[-1,-1,-3,1],[9E+09,9E+09,9E+09,9E+09,9E+09,9E+09]],v50,z0,T2_R2\WObj:=DHI_WO_R2;
     MoveJ [[59.900,67.712,-3.000],[9.73406E-05,-0.156597,-0.987662,-8.78936E-05],[-1,-1,-3,1],[9E+09,9E+09,9E+09,9E+09,9E+09,9E+09]],v50,z0,T2_R2\WObj:=DHI_WO_R2;
     MoveJ [[59.710,67.819,-3.000],[9.73406E-05,-0.156597,-0.987662,-8.78936E-05],[-1,-1,-3,1],[9E+09,9E+09,9E+09,9E+09,9E+09,9E+09]],v50,z0,T2_R2\WObj:=DHI_WO_R2;
     MoveJ [[58.570,68.457,-3.000],[9.73406E-05,-0.156597,-0.987662,-8.78936E-05],[-1,-1,-3,1],[9E+09,9E+09,9E+09,9E+09,9E+09,9E+09]],v50,z0,T2_R2\WObj:=DHI_WO_R2;
     MoveJ [[58.380,68.562,-3.000],[9.73406E-05,-0.156597,-0.987662,-8.78936E-05],[-1,-1,-3,1],[9E+09,9E+09,9E+09,9E+09,9E+09,9E+09]],v50,z0,T2_R2\WObj:=DHI_WO_R2;
     MoveJ [[57.180,69.212,-3.000],[9.73406E-05,-0.156597,-0.987662,-8.78936E-05],[-1,-1,-3,1],[9E+09,9E+09,9E+09,9E+09,9E+09,9E+09]],v50,z0,T2_R2\WObj:=DHI_WO_R2;
     MoveJ [[57.050,69.283,-3.000],[9.73406E-05,-0.156597,-0.987662,-8.78936E-05],[-1,-1,-3,1],[9E+09,9E+09,9E+09,9E+09,9E+09,9E+09]],v50,z0,T2_R2\WObj:=DHI_WO_R2;
     MoveJ [[55.720,69.980,-3.000],[9.73406E-05,-0.156597,-0.987662,-8.78936E-05],[-1,-1,-3,1],[9E+09,9E+09,9E+09,9E+09,9E+09,9E+09]],v50,z0,T2_R2\WObj:=DHI_WO_R2;
     MoveJ [[55.530,70.077,-3.000],[9.73406E-05,-0.156597,-0.987662,-8.78936E-05],[-1,-1,-3,1],[9E+09,9E+09,9E+09,9E+09,9E+09,9E+09]],v50,z0,T2_R2\WObj:=DHI_WO_R2;
     MoveJ [[54.390,70.655,-3.000],[9.73406E-05,-0.156597,-0.987662,-8.78936E-05],[-1,-1,-3,1],[9E+09,9E+09,9E+09,9E+09,9E+09,9E+09]],v50,z0,T2_R2\WObj:=DHI_WO_R2;
     MoveJ [[54.230,70.732,-3.000],[9.73406E-05,-0.156597,-0.987662,-8.78936E-05],[-1,-1,-3,1],[9E+09,9E+09,9E+09,9E+09,9E+09,9E+09]],v50,z0,T2_R2\WObj:=DHI_WO_R2;
     MoveJ [[53.060,71.306,-3.000],[9.73406E-05,-0.156597,-0.987662,-8.78936E-05],[-1,-1,-3,1],[9E+09,9E+09,9E+09,9E+09,9E+09,9E+09]],v50,z0,T2_R2\WObj:=DHI_WO_R2;
     MoveJ [[52.860,71.397,-3.000],[9.73406E-05,-0.156597,-0.987662,-8.78936E-05],[-1,-1,-3,1],[9E+09,9E+09,9E+09,9E+09,9E+09,9E+09]],v50,z0,T2_R2\WObj:=DHI_WO_R2;
     MoveJ [[51.720,71.933,-3.000],[9.73406E-05,-0.156597,-0.987662,-8.78936E-05],[-1,-1,-3,1],[9E+09,9E+09,9E+09,9E+09,9E+09,9E+09]],v50,z0,T2_R2\WObj:=DHI_WO_R2;
     MoveJ [[51.530,72.021,-3.000],[9.73406E-05,-0.156597,-0.987662,-8.78936E-05],[-1,-1,-3,1],[9E+09,9E+09,9E+09,9E+09,9E+09,9E+09]],v50,z0,T2_R2\WObj:=DHI_WO_R2;
     MoveJ [[50.390,72.538,-3.000],[9.73406E-05,-0.156597,-0.987662,-8.78936E-05],[-1,-1,-3,1],[9E+09,9E+09,9E+09,9E+09,9E+09,9E+09]],v50,z0,T2_R2\WObj:=DHI_WO_R2;
     MoveJ [[50.200,72.622,-3.000],[9.73406E-05,-0.156597,-0.987662,-8.78936E-05],[-1,-1,-3,1],[9E+09,9E+09,9E+09,9E+09,9E+09,9E+09]],v50,z0,T2_R2\WObj:=DHI_WO_R2;
     MoveJ [[49.060,73.119,-3.000],[9.73406E-05,-0.156597,-0.987662,-8.78936E-05],[-1,-1,-3,1],[9E+09,9E+09,9E+09,9E+09,9E+09,9E+09]],v50,z0,T2_R2\WObj:=DHI_WO_R2;
     MoveJ [[48.870,73.200,-3.000],[9.73406E-05,-0.156597,-0.987662,-8.78936E-05],[-1,-1,-3,1],[9E+09,9E+09,9E+09,9E+09,9E+09,9E+09]],v50,z0,T2_R2\WObj:=DHI_WO_R2;
     MoveJ [[47.730,73.677,-3.000],[9.73406E-05,-0.156597,-0.987662,-8.78936E-05],[-1,-1,-3,1],[9E+09,9E+09,9E+09,9E+09,9E+09,9E+09]],v50,z0,T2_R2\WObj:=DHI_WO_R2;
     MoveJ [[47.540,73.754,-3.000],[9.73406E-05,-0.156597,-0.987662,-8.78936E-05],[-1,-1,-3,1],[9E+09,9E+09,9E+09,9E+09,9E+09,9E+09]],v50,z0,T2_R2\WObj:=DHI_WO_R2;
     MoveJ [[46.400,74.211,-3.000],[9.73406E-05,-0.156597,-0.987662,-8.78936E-05],[-1,-1,-3,1],[9E+09,9E+09,9E+09,9E+09,9E+09,9E+09]],v50,z0,T2_R2\WObj:=DHI_WO_R2;
     MoveJ [[46.210,74.285,-3.000],[9.73406E-05,-0.156597,-0.987662,-8.78936E-05],[-1,-1,-3,1],[9E+09,9E+09,9E+09,9E+09,9E+09,9E+09]],v50,z0,T2_R2\WObj:=DHI_WO_R2;
     MoveJ [[45.070,74.724,-3.000],[9.73406E-05,-0.156597,-0.987662,-8.78936E-05],[-1,-1,-3,1],[9E+09,9E+09,9E+09,9E+09,9E+09,9E+09]],v50,z0,T2_R2\WObj:=DHI_WO_R2;
     MoveJ [[44.880,74.794,-3.000],[9.73406E-05,-0.156597,-0.987662,-8.78936E-05],[-1,-1,-3,1],[9E+09,9E+09,9E+09,9E+09,9E+09,9E+09]],v50,z0,T2_R2\WObj:=DHI_WO_R2;
     MoveJ [[43.930,75.144,-3.000],[9.73406E-05,-0.156597,-0.987662,-8.78936E-05],[-1,-1,-3,1],[9E+09,9E+09,9E+09,9E+09,9E+09,9E+09]],v50,z0,T2_R2\WObj:=DHI_WO_R2;
     MoveJ [[43.740,75.214,-3.000],[9.73406E-05,-0.156597,-0.987662,-8.78936E-05],[-1,-1,-3,1],[9E+09,9E+09,9E+09,9E+09,9E+09,9E+09]],v50,z0,T2_R2\WObj:=DHI_WO_R2;
     MoveJ [[42.600,75.616,-3.000],[9.73406E-05,-0.156597,-0.987662,-8.78936E-05],[-1,-1,-3,1],[9E+09,9E+09,9E+09,9E+09,9E+09,9E+09]],v50,z0,T2_R2\WObj:=DHI_WO_R2;
     MoveJ [[42.430,75.675,-3.000],[9.73406E-05,-0.156597,-0.987662,-8.78936E-05],[-1,-1,-3,1],[9E+09,9E+09,9E+09,9E+09,9E+09,9E+09]],v50,z0,T2_R2\WObj:=DHI_WO_R2;
     MoveJ [[41.270,76.067,-3.000],[9.73406E-05,-0.156597,-0.987662,-8.78936E-05],[-1,-1,-3,1],[9E+09,9E+09,9E+09,9E+09,9E+09,9E+09]],v50,z0,T2_R2\WObj:=DHI_WO_R2;
     MoveJ [[41.080,76.130,-3.000],[9.73406E-05,-0.156597,-0.987662,-8.78936E-05],[-1,-1,-3,1],[9E+09,9E+09,9E+09,9E+09,9E+09,9E+09]],v50,z0,T2_R2\WObj:=DHI_WO_R2;
     MoveJ [[40.370,76.358,-3.000],[9.73406E-05,-0.156597,-0.987662,-8.78936E-05],[-1,-1,-3,1],[9E+09,9E+09,9E+09,9E+09,9E+09,9E+09]],v50,z0,T2_R2\WObj:=DHI_WO_R2;
     MoveJ [[40.370,76.358,-3.000],[9.73406E-05,-0.156597,-0.987662,-8.78936E-05],[-1,-1,-3,1],[9E+09,9E+09,9E+09,9E+09,9E+09,9E+09]],v50,z0,T2_R2\WObj:=DHI_WO_R2;
     MoveJ [[39.940,76.347,-3.000],[9.73406E-05,-0.156597,-0.987662,-8.78936E-05],[-1,-1,-3,1],[9E+09,9E+09,9E+09,9E+09,9E+09,9E+09]],v50,z0,T2_R2\WObj:=DHI_WO_R2;
     MoveJ [[39.370,76.331,-3.000],[9.73406E-05,-0.156597,-0.987662,-8.78936E-05],[-1,-1,-3,1],[9E+09,9E+09,9E+09,9E+09,9E+09,9E+09]],v50,z0,T2_R2\WObj:=DHI_WO_R2;
     MoveJ [[38.800,76.316,-3.000],[9.73406E-05,-0.156597,-0.987662,-8.78936E-05],[-1,-1,-3,1],[9E+09,9E+09,9E+09,9E+09,9E+09,9E+09]],v50,z0,T2_R2\WObj:=DHI_WO_R2;
     MoveJ [[38.420,76.306,-3.000],[9.73406E-05,-0.156597,-0.987662,-8.78936E-05],[-1,-1,-3,1],[9E+09,9E+09,9E+09,9E+09,9E+09,9E+09]],v50,z0,T2_R2\WObj:=DHI_WO_R2;
     MoveJ [[37.850,76.291,-3.000],[9.73406E-05,-0.156597,-0.987662,-8.78936E-05],[-1,-1,-3,1],[9E+09,9E+09,9E+09,9E+09,9E+09,9E+09]],v50,z0,T2_R2\WObj:=DHI_WO_R2;
     MoveJ [[37.280,76.276,-3.000],[9.73406E-05,-0.156597,-0.987662,-8.78936E-05],[-1,-1,-3,1],[9E+09,9E+09,9E+09,9E+09,9E+09,9E+09]],v50,z0,T2_R2\WObj:=DHI_WO_R2;
     MoveJ [[36.700,76.261,-3.000],[9.73406E-05,-0.156597,-0.987662,-8.78936E-05],[-1,-1,-3,1],[9E+09,9E+09,9E+09,9E+09,9E+09,9E+09]],v50,z0,T2_R2\WObj:=DHI_WO_R2;
     MoveJ [[36.130,76.246,-3.000],[9.73406E-05,-0.156597,-0.987662,-8.78936E-05],[-1,-1,-3,1],[9E+09,9E+09,9E+09,9E+09,9E+09,9E+09]],v50,z0,T2_R2\WObj:=DHI_WO_R2;
     MoveJ [[35.560,76.232,-3.000],[9.73406E-05,-0.156597,-0.987662,-8.78936E-05],[-1,-1,-3,1],[9E+09,9E+09,9E+09,9E+09,9E+09,9E+09]],v50,z0,T2_R2\WObj:=DHI_WO_R2;
     MoveJ [[35.180,76.222,-3.000],[9.73406E-05,-0.156597,-0.987662,-8.78936E-05],[-1,-1,-3,1],[9E+09,9E+09,9E+09,9E+09,9E+09,9E+09]],v50,z0,T2_R2\WObj:=DHI_WO_R2;
     MoveJ [[34.800,76.212,-3.000],[9.73406E-05,-0.156597,-0.987662,-8.78936E-05],[-1,-1,-3,1],[9E+09,9E+09,9E+09,9E+09,9E+09,9E+09]],v50,z0,T2_R2\WObj:=DHI_WO_R2;
     MoveJ [[34.420,76.202,-3.000],[9.73406E-05,-0.156597,-0.987662,-8.78936E-05],[-1,-1,-3,1],[9E+09,9E+09,9E+09,9E+09,9E+09,9E+09]],v50,z0,T2_R2\WObj:=DHI_WO_R2;
     MoveJ [[34.040,76.192,-3.000],[9.73406E-05,-0.156597,-0.987662,-8.78936E-05],[-1,-1,-3,1],[9E+09,9E+09,9E+09,9E+09,9E+09,9E+09]],v50,z0,T2_R2\WObj:=DHI_WO_R2;
     MoveJ [[33.660,76.182,-3.000],[9.73406E-05,-0.156597,-0.987662,-8.78936E-05],[-1,-1,-3,1],[9E+09,9E+09,9E+09,9E+09,9E+09,9E+09]],v50,z0,T2_R2\WObj:=DHI_WO_R2;
     MoveJ [[33.280,76.173,-3.000],[9.73406E-05,-0.156597,-0.987662,-8.78936E-05],[-1,-1,-3,1],[9E+09,9E+09,9E+09,9E+09,9E+09,9E+09]],v50,z0,T2_R2\WObj:=DHI_WO_R2;
     MoveJ [[32.900,76.163,-3.000],[9.73406E-05,-0.156597,-0.987662,-8.78936E-05],[-1,-1,-3,1],[9E+09,9E+09,9E+09,9E+09,9E+09,9E+09]],v50,z0,T2_R2\WObj:=DHI_WO_R2;
     MoveJ [[32.520,76.153,-3.000],[9.73406E-05,-0.156597,-0.987662,-8.78936E-05],[-1,-1,-3,1],[9E+09,9E+09,9E+09,9E+09,9E+09,9E+09]],v50,z0,T2_R2\WObj:=DHI_WO_R2;
     MoveJ [[32.140,76.143,-3.000],[9.73406E-05,-0.156597,-0.987662,-8.78936E-05],[-1,-1,-3,1],[9E+09,9E+09,9E+09,9E+09,9E+09,9E+09]],v50,z0,T2_R2\WObj:=DHI_WO_R2;
     MoveJ [[31.760,76.134,-3.000],[9.73406E-05,-0.156597,-0.987662,-8.78936E-05],[-1,-1,-3,1],[9E+09,9E+09,9E+09,9E+09,9E+09,9E+09]],v50,z0,T2_R2\WObj:=DHI_WO_R2;
     MoveJ [[31.380,76.124,-3.000],[9.73406E-05,-0.156597,-0.987662,-8.78936E-05],[-1,-1,-3,1],[9E+09,9E+09,9E+09,9E+09,9E+09,9E+09]],v50,z0,T2_R2\WObj:=DHI_WO_R2;
     MoveJ [[31.000,76.114,-3.000],[9.73406E-05,-0.156597,-0.987662,-8.78936E-05],[-1,-1,-3,1],[9E+09,9E+09,9E+09,9E+09,9E+09,9E+09]],v50,z0,T2_R2\WObj:=DHI_WO_R2;
     MoveJ [[30.620,76.105,-3.000],[9.73406E-05,-0.156597,-0.987662,-8.78936E-05],[-1,-1,-3,1],[9E+09,9E+09,9E+09,9E+09,9E+09,9E+09]],v50,z0,T2_R2\WObj:=DHI_WO_R2;
     MoveJ [[30.240,76.095,-3.000],[9.73406E-05,-0.156597,-0.987662,-8.78936E-05],[-1,-1,-3,1],[9E+09,9E+09,9E+09,9E+09,9E+09,9E+09]],v50,z0,T2_R2\WObj:=DHI_WO_R2;
     MoveJ [[29.860,76.086,-3.000],[9.73406E-05,-0.156597,-0.987662,-8.78936E-05],[-1,-1,-3,1],[9E+09,9E+09,9E+09,9E+09,9E+09,9E+09]],v50,z0,T2_R2\WObj:=DHI_WO_R2;
     MoveJ [[29.480,76.076,-3.000],[9.73406E-05,-0.156597,-0.987662,-8.78936E-05],[-1,-1,-3,1],[9E+09,9E+09,9E+09,9E+09,9E+09,9E+09]],v50,z0,T2_R2\WObj:=DHI_WO_R2;
     MoveJ [[29.100,76.067,-3.000],[9.73406E-05,-0.156597,-0.987662,-8.78936E-05],[-1,-1,-3,1],[9E+09,9E+09,9E+09,9E+09,9E+09,9E+09]],v50,z0,T2_R2\WObj:=DHI_WO_R2;
     MoveJ [[28.630,76.055,-3.000],[9.73406E-05,-0.156597,-0.987662,-8.78936E-05],[-1,-1,-3,1],[9E+09,9E+09,9E+09,9E+09,9E+09,9E+09]],v50,z0,T2_R2\WObj:=DHI_WO_R2;
     MoveJ [[28.150,76.043,-3.000],[9.73406E-05,-0.156597,-0.987662,-8.78936E-05],[-1,-1,-3,1],[9E+09,9E+09,9E+09,9E+09,9E+09,9E+09]],v50,z0,T2_R2\WObj:=DHI_WO_R2;
     MoveJ [[27.770,76.033,-3.000],[9.73406E-05,-0.156597,-0.987662,-8.78936E-05],[-1,-1,-3,1],[9E+09,9E+09,9E+09,9E+09,9E+09,9E+09]],v50,z0,T2_R2\WObj:=DHI_WO_R2;
     MoveJ [[27.390,76.024,-3.000],[9.73406E-05,-0.156597,-0.987662,-8.78936E-05],[-1,-1,-3,1],[9E+09,9E+09,9E+09,9E+09,9E+09,9E+09]],v50,z0,T2_R2\WObj:=DHI_WO_R2;
     MoveJ [[27.010,76.014,-3.000],[9.73406E-05,-0.156597,-0.987662,-8.78936E-05],[-1,-1,-3,1],[9E+09,9E+09,9E+09,9E+09,9E+09,9E+09]],v50,z0,T2_R2\WObj:=DHI_WO_R2;
     MoveJ [[26.630,76.005,-3.000],[9.73406E-05,-0.156597,-0.987662,-8.78936E-05],[-1,-1,-3,1],[9E+09,9E+09,9E+09,9E+09,9E+09,9E+09]],v50,z0,T2_R2\WObj:=DHI_WO_R2;
     MoveJ [[26.250,75.996,-3.000],[9.73406E-05,-0.156597,-0.987662,-8.78936E-05],[-1,-1,-3,1],[9E+09,9E+09,9E+09,9E+09,9E+09,9E+09]],v50,z0,T2_R2\WObj:=DHI_WO_R2;
     MoveJ [[25.870,75.986,-3.000],[9.73406E-05,-0.156597,-0.987662,-8.78936E-05],[-1,-1,-3,1],[9E+09,9E+09,9E+09,9E+09,9E+09,9E+09]],v50,z0,T2_R2\WObj:=DHI_WO_R2;
     MoveJ [[25.490,75.977,-3.000],[9.73406E-05,-0.156597,-0.987662,-8.78936E-05],[-1,-1,-3,1],[9E+09,9E+09,9E+09,9E+09,9E+09,9E+09]],v50,z0,T2_R2\WObj:=DHI_WO_R2;
     MoveJ [[25.110,75.968,-3.000],[9.73406E-05,-0.156597,-0.987662,-8.78936E-05],[-1,-1,-3,1],[9E+09,9E+09,9E+09,9E+09,9E+09,9E+09]],v50,z0,T2_R2\WObj:=DHI_WO_R2;
     MoveJ [[24.730,75.958,-3.000],[9.73406E-05,-0.156597,-0.987662,-8.78936E-05],[-1,-1,-3,1],[9E+09,9E+09,9E+09,9E+09,9E+09,9E+09]],v50,z0,T2_R2\WObj:=DHI_WO_R2;
     MoveJ [[24.350,75.949,-3.000],[9.73406E-05,-0.156597,-0.987662,-8.78936E-05],[-1,-1,-3,1],[9E+09,9E+09,9E+09,9E+09,9E+09,9E+09]],v50,z0,T2_R2\WObj:=DHI_WO_R2;
     MoveJ [[23.970,75.940,-3.000],[9.73406E-05,-0.156597,-0.987662,-8.78936E-05],[-1,-1,-3,1],[9E+09,9E+09,9E+09,9E+09,9E+09,9E+09]],v50,z0,T2_R2\WObj:=DHI_WO_R2;
     MoveJ [[23.590,75.931,-3.000],[9.73406E-05,-0.156597,-0.987662,-8.78936E-05],[-1,-1,-3,1],[9E+09,9E+09,9E+09,9E+09,9E+09,9E+09]],v50,z0,T2_R2\WObj:=DHI_WO_R2;
     MoveJ [[23.210,75.921,-3.000],[9.73406E-05,-0.156597,-0.987662,-8.78936E-05],[-1,-1,-3,1],[9E+09,9E+09,9E+09,9E+09,9E+09,9E+09]],v50,z0,T2_R2\WObj:=DHI_WO_R2;
     MoveJ [[22.830,75.912,-3.000],[9.73406E-05,-0.156597,-0.987662,-8.78936E-05],[-1,-1,-3,1],[9E+09,9E+09,9E+09,9E+09,9E+09,9E+09]],v50,z0,T2_R2\WObj:=DHI_WO_R2;
     MoveJ [[22.450,75.903,-3.000],[9.73406E-05,-0.156597,-0.987662,-8.78936E-05],[-1,-1,-3,1],[9E+09,9E+09,9E+09,9E+09,9E+09,9E+09]],v50,z0,T2_R2\WObj:=DHI_WO_R2;
     MoveJ [[22.070,75.894,-3.000],[9.73406E-05,-0.156597,-0.987662,-8.78936E-05],[-1,-1,-3,1],[9E+09,9E+09,9E+09,9E+09,9E+09,9E+09]],v50,z0,T2_R2\WObj:=DHI_WO_R2;
     MoveJ [[21.690,75.885,-3.000],[9.73406E-05,-0.156597,-0.987662,-8.78936E-05],[-1,-1,-3,1],[9E+09,9E+09,9E+09,9E+09,9E+09,9E+09]],v50,z0,T2_R2\WObj:=DHI_WO_R2;
     MoveJ [[21.300,75.876,-3.000],[9.73406E-05,-0.156597,-0.987662,-8.78936E-05],[-1,-1,-3,1],[9E+09,9E+09,9E+09,9E+09,9E+09,9E+09]],v50,z0,T2_R2\WObj:=DHI_WO_R2;
     MoveJ [[20.850,75.865,-3.000],[9.73406E-05,-0.156597,-0.987662,-8.78936E-05],[-1,-1,-3,1],[9E+09,9E+09,9E+09,9E+09,9E+09,9E+09]],v50,z0,T2_R2\WObj:=DHI_WO_R2;
     MoveJ [[20.350,75.853,-3.000],[9.73406E-05,-0.156597,-0.987662,-8.78936E-05],[-1,-1,-3,1],[9E+09,9E+09,9E+09,9E+09,9E+09,9E+09]],v50,z0,T2_R2\WObj:=DHI_WO_R2;
     MoveJ [[19.970,75.844,-3.000],[9.73406E-05,-0.156597,-0.987662,-8.78936E-05],[-1,-1,-3,1],[9E+09,9E+09,9E+09,9E+09,9E+09,9E+09]],v50,z0,T2_R2\WObj:=DHI_WO_R2;
     MoveJ [[19.590,75.835,-3.000],[9.73406E-05,-0.156597,-0.987662,-8.78936E-05],[-1,-1,-3,1],[9E+09,9E+09,9E+09,9E+09,9E+09,9E+09]],v50,z0,T2_R2\WObj:=DHI_WO_R2;
     MoveJ [[19.210,75.826,-3.000],[9.73406E-05,-0.156597,-0.987662,-8.78936E-05],[-1,-1,-3,1],[9E+09,9E+09,9E+09,9E+09,9E+09,9E+09]],v50,z0,T2_R2\WObj:=DHI_WO_R2;
     MoveJ [[18.830,75.817,-3.000],[9.73406E-05,-0.156597,-0.987662,-8.78936E-05],[-1,-1,-3,1],[9E+09,9E+09,9E+09,9E+09,9E+09,9E+09]],v50,z0,T2_R2\WObj:=DHI_WO_R2;
     MoveJ [[18.450,75.808,-3.000],[9.73406E-05,-0.156597,-0.987662,-8.78936E-05],[-1,-1,-3,1],[9E+09,9E+09,9E+09,9E+09,9E+09,9E+09]],v50,z0,T2_R2\WObj:=DHI_WO_R2;
     MoveJ [[18.070,75.799,-3.000],[9.73406E-05,-0.156597,-0.987662,-8.78936E-05],[-1,-1,-3,1],[9E+09,9E+09,9E+09,9E+09,9E+09,9E+09]],v50,z0,T2_R2\WObj:=DHI_WO_R2;
     MoveJ [[17.690,75.790,-3.000],[9.73406E-05,-0.156597,-0.987662,-8.78936E-05],[-1,-1,-3,1],[9E+09,9E+09,9E+09,9E+09,9E+09,9E+09]],v50,z0,T2_R2\WObj:=DHI_WO_R2;
     MoveJ [[17.310,75.781,-3.000],[9.73406E-05,-0.156597,-0.987662,-8.78936E-05],[-1,-1,-3,1],[9E+09,9E+09,9E+09,9E+09,9E+09,9E+09]],v50,z0,T2_R2\WObj:=DHI_WO_R2;
     MoveJ [[16.930,75.773,-3.000],[9.73406E-05,-0.156597,-0.987662,-8.78936E-05],[-1,-1,-3,1],[9E+09,9E+09,9E+09,9E+09,9E+09,9E+09]],v50,z0,T2_R2\WObj:=DHI_WO_R2;
     MoveJ [[16.550,75.764,-3.000],[9.73406E-05,-0.156597,-0.987662,-8.78936E-05],[-1,-1,-3,1],[9E+09,9E+09,9E+09,9E+09,9E+09,9E+09]],v50,z0,T2_R2\WObj:=DHI_WO_R2;
     MoveJ [[16.170,75.755,-3.000],[9.73406E-05,-0.156597,-0.987662,-8.78936E-05],[-1,-1,-3,1],[9E+09,9E+09,9E+09,9E+09,9E+09,9E+09]],v50,z0,T2_R2\WObj:=DHI_WO_R2;
     MoveJ [[15.790,75.746,-3.000],[9.73406E-05,-0.156597,-0.987662,-8.78936E-05],[-1,-1,-3,1],[9E+09,9E+09,9E+09,9E+09,9E+09,9E+09]],v50,z0,T2_R2\WObj:=DHI_WO_R2;
     MoveJ [[15.410,75.737,-3.000],[9.73406E-05,-0.156597,-0.987662,-8.78936E-05],[-1,-1,-3,1],[9E+09,9E+09,9E+09,9E+09,9E+09,9E+09]],v50,z0,T2_R2\WObj:=DHI_WO_R2;
     MoveJ [[15.030,75.729,-3.000],[9.73406E-05,-0.156597,-0.987662,-8.78936E-05],[-1,-1,-3,1],[9E+09,9E+09,9E+09,9E+09,9E+09,9E+09]],v50,z0,T2_R2\WObj:=DHI_WO_R2;
     MoveJ [[14.650,75.720,-3.000],[9.73406E-05,-0.156597,-0.987662,-8.78936E-05],[-1,-1,-3,1],[9E+09,9E+09,9E+09,9E+09,9E+09,9E+09]],v50,z0,T2_R2\WObj:=DHI_WO_R2;
     MoveJ [[14.270,75.711,-3.000],[9.73406E-05,-0.156597,-0.987662,-8.78936E-05],[-1,-1,-3,1],[9E+09,9E+09,9E+09,9E+09,9E+09,9E+09]],v50,z0,T2_R2\WObj:=DHI_WO_R2;
     MoveJ [[13.890,75.703,-3.000],[9.73406E-05,-0.156597,-0.987662,-8.78936E-05],[-1,-1,-3,1],[9E+09,9E+09,9E+09,9E+09,9E+09,9E+09]],v50,z0,T2_R2\WObj:=DHI_WO_R2;
     MoveJ [[13.510,75.694,-3.000],[9.73406E-05,-0.156597,-0.987662,-8.78936E-05],[-1,-1,-3,1],[9E+09,9E+09,9E+09,9E+09,9E+09,9E+09]],v50,z0,T2_R2\WObj:=DHI_WO_R2;
     MoveJ [[13.130,75.686,-3.000],[9.73406E-05,-0.156597,-0.987662,-8.78936E-05],[-1,-1,-3,1],[9E+09,9E+09,9E+09,9E+09,9E+09,9E+09]],v50,z0,T2_R2\WObj:=DHI_WO_R2;
     MoveJ [[12.650,75.675,-3.000],[9.73406E-05,-0.156597,-0.987662,-8.78936E-05],[-1,-1,-3,1],[9E+09,9E+09,9E+09,9E+09,9E+09,9E+09]],v50,z0,T2_R2\WObj:=DHI_WO_R2;
     MoveJ [[12.180,75.664,-3.000],[9.73406E-05,-0.156597,-0.987662,-8.78936E-05],[-1,-1,-3,1],[9E+09,9E+09,9E+09,9E+09,9E+09,9E+09]],v50,z0,T2_R2\WObj:=DHI_WO_R2;
     MoveJ [[11.800,75.656,-3.000],[9.73406E-05,-0.156597,-0.987662,-8.78936E-05],[-1,-1,-3,1],[9E+09,9E+09,9E+09,9E+09,9E+09,9E+09]],v50,z0,T2_R2\WObj:=DHI_WO_R2;
     MoveJ [[11.420,75.647,-3.000],[9.73406E-05,-0.156597,-0.987662,-8.78936E-05],[-1,-1,-3,1],[9E+09,9E+09,9E+09,9E+09,9E+09,9E+09]],v50,z0,T2_R2\WObj:=DHI_WO_R2;
     MoveJ [[11.040,75.639,-3.000],[9.73406E-05,-0.156597,-0.987662,-8.78936E-05],[-1,-1,-3,1],[9E+09,9E+09,9E+09,9E+09,9E+09,9E+09]],v50,z0,T2_R2\WObj:=DHI_WO_R2;
     MoveJ [[10.660,75.630,-3.000],[9.73406E-05,-0.156597,-0.987662,-8.78936E-05],[-1,-1,-3,1],[9E+09,9E+09,9E+09,9E+09,9E+09,9E+09]],v50,z0,T2_R2\WObj:=DHI_WO_R2;
     MoveJ [[10.280,75.622,-3.000],[9.73406E-05,-0.156597,-0.987662,-8.78936E-05],[-1,-1,-3,1],[9E+09,9E+09,9E+09,9E+09,9E+09,9E+09]],v50,z0,T2_R2\WObj:=DHI_WO_R2;
     MoveJ [[9.900,75.613,-3.000],[9.73406E-05,-0.156597,-0.987662,-8.78936E-05],[-1,-1,-3,1],[9E+09,9E+09,9E+09,9E+09,9E+09,9E+09]],v50,z0,T2_R2\WObj:=DHI_WO_R2;
     MoveJ [[9.520,75.605,-3.000],[9.73406E-05,-0.156597,-0.987662,-8.78936E-05],[-1,-1,-3,1],[9E+09,9E+09,9E+09,9E+09,9E+09,9E+09]],v50,z0,T2_R2\WObj:=DHI_WO_R2;
     MoveJ [[9.140,75.597,-3.000],[9.73406E-05,-0.156597,-0.987662,-8.78936E-05],[-1,-1,-3,1],[9E+09,9E+09,9E+09,9E+09,9E+09,9E+09]],v50,z0,T2_R2\WObj:=DHI_WO_R2;
     MoveJ [[8.760,75.588,-3.000],[9.73406E-05,-0.156597,-0.987662,-8.78936E-05],[-1,-1,-3,1],[9E+09,9E+09,9E+09,9E+09,9E+09,9E+09]],v50,z0,T2_R2\WObj:=DHI_WO_R2;
     MoveJ [[8.380,75.580,-3.000],[9.73406E-05,-0.156597,-0.987662,-8.78936E-05],[-1,-1,-3,1],[9E+09,9E+09,9E+09,9E+09,9E+09,9E+09]],v50,z0,T2_R2\WObj:=DHI_WO_R2;
     MoveJ [[8.000,75.572,-3.000],[9.73406E-05,-0.156597,-0.987662,-8.78936E-05],[-1,-1,-3,1],[9E+09,9E+09,9E+09,9E+09,9E+09,9E+09]],v50,z0,T2_R2\WObj:=DHI_WO_R2;
     MoveJ [[7.620,75.564,-3.000],[9.73406E-05,-0.156597,-0.987662,-8.78936E-05],[-1,-1,-3,1],[9E+09,9E+09,9E+09,9E+09,9E+09,9E+09]],v50,z0,T2_R2\WObj:=DHI_WO_R2;
     MoveJ [[7.240,75.555,-3.000],[9.73406E-05,-0.156597,-0.987662,-8.78936E-05],[-1,-1,-3,1],[9E+09,9E+09,9E+09,9E+09,9E+09,9E+09]],v50,z0,T2_R2\WObj:=DHI_WO_R2;
     MoveJ [[6.860,75.547,-3.000],[9.73406E-05,-0.156597,-0.987662,-8.78936E-05],[-1,-1,-3,1],[9E+09,9E+09,9E+09,9E+09,9E+09,9E+09]],v50,z0,T2_R2\WObj:=DHI_WO_R2;
     MoveJ [[6.480,75.539,-3.000],[9.73406E-05,-0.156597,-0.987662,-8.78936E-05],[-1,-1,-3,1],[9E+09,9E+09,9E+09,9E+09,9E+09,9E+09]],v50,z0,T2_R2\WObj:=DHI_WO_R2;
     MoveJ [[6.100,75.531,-3.000],[9.73406E-05,-0.156597,-0.987662,-8.78936E-05],[-1,-1,-3,1],[9E+09,9E+09,9E+09,9E+09,9E+09,9E+09]],v50,z0,T2_R2\WObj:=DHI_WO_R2;
     MoveJ [[5.710,75.523,-3.000],[9.73406E-05,-0.156597,-0.987662,-8.78936E-05],[-1,-1,-3,1],[9E+09,9E+09,9E+09,9E+09,9E+09,9E+09]],v50,z0,T2_R2\WObj:=DHI_WO_R2;
     MoveJ [[5.330,75.515,-3.000],[9.73406E-05,-0.156597,-0.987662,-8.78936E-05],[-1,-1,-3,1],[9E+09,9E+09,9E+09,9E+09,9E+09,9E+09]],v50,z0,T2_R2\WObj:=DHI_WO_R2;
     MoveJ [[4.950,75.507,-3.000],[9.73406E-05,-0.156597,-0.987662,-8.78936E-05],[-1,-1,-3,1],[9E+09,9E+09,9E+09,9E+09,9E+09,9E+09]],v50,z0,T2_R2\WObj:=DHI_WO_R2;
     MoveJ [[4.570,75.499,-3.000],[9.73406E-05,-0.156597,-0.987662,-8.78936E-05],[-1,-1,-3,1],[9E+09,9E+09,9E+09,9E+09,9E+09,9E+09]],v50,z0,T2_R2\WObj:=DHI_WO_R2;
     MoveJ [[4.190,75.491,-3.000],[9.73406E-05,-0.156597,-0.987662,-8.78936E-05],[-1,-1,-3,1],[9E+09,9E+09,9E+09,9E+09,9E+09,9E+09]],v50,z0,T2_R2\WObj:=DHI_WO_R2;
     MoveJ [[3.810,75.483,-3.000],[9.73406E-05,-0.156597,-0.987662,-8.78936E-05],[-1,-1,-3,1],[9E+09,9E+09,9E+09,9E+09,9E+09,9E+09]],v50,z0,T2_R2\WObj:=DHI_WO_R2;
     MoveJ [[3.430,75.475,-3.000],[9.73406E-05,-0.156597,-0.987662,-8.78936E-05],[-1,-1,-3,1],[9E+09,9E+09,9E+09,9E+09,9E+09,9E+09]],v50,z0,T2_R2\WObj:=DHI_WO_R2;
     MoveJ [[3.050,75.467,-3.000],[9.73406E-05,-0.156597,-0.987662,-8.78936E-05],[-1,-1,-3,1],[9E+09,9E+09,9E+09,9E+09,9E+09,9E+09]],v50,z0,T2_R2\WObj:=DHI_WO_R2;
     MoveJ [[2.670,75.459,-3.000],[9.73406E-05,-0.156597,-0.987662,-8.78936E-05],[-1,-1,-3,1],[9E+09,9E+09,9E+09,9E+09,9E+09,9E+09]],v50,z0,T2_R2\WObj:=DHI_WO_R2;
     MoveJ [[2.290,75.451,-3.000],[9.73406E-05,-0.156597,-0.987662,-8.78936E-05],[-1,-1,-3,1],[9E+09,9E+09,9E+09,9E+09,9E+09,9E+09]],v50,z0,T2_R2\WObj:=DHI_WO_R2;
     MoveJ [[1.910,75.443,-3.000],[9.73406E-05,-0.156597,-0.987662,-8.78936E-05],[-1,-1,-3,1],[9E+09,9E+09,9E+09,9E+09,9E+09,9E+09]],v50,z0,T2_R2\WObj:=DHI_WO_R2;
     MoveJ [[1.530,75.435,-3.000],[9.73406E-05,-0.156597,-0.987662,-8.78936E-05],[-1,-1,-3,1],[9E+09,9E+09,9E+09,9E+09,9E+09,9E+09]],v50,z0,T2_R2\WObj:=DHI_WO_R2;
     MoveJ [[1.150,75.428,-3.000],[9.73406E-05,-0.156597,-0.987662,-8.78936E-05],[-1,-1,-3,1],[9E+09,9E+09,9E+09,9E+09,9E+09,9E+09]],v50,z0,T2_R2\WObj:=DHI_WO_R2;
     MoveJ [[0.770,75.420,-3.000],[9.73406E-05,-0.156597,-0.987662,-8.78936E-05],[-1,-1,-3,1],[9E+09,9E+09,9E+09,9E+09,9E+09,9E+09]],v50,z0,T2_R2\WObj:=DHI_WO_R2;
     MoveJ [[0.390,75.412,-3.000],[9.73406E-05,-0.156597,-0.987662,-8.78936E-05],[-1,-1,-3,1],[9E+09,9E+09,9E+09,9E+09,9E+09,9E+09]],v50,z0,T2_R2\WObj:=DHI_WO_R2;
     MoveJ [[0.010,75.404,-3.000],[9.73406E-05,-0.156597,-0.987662,-8.78936E-05],[-1,-1,-3,1],[9E+09,9E+09,9E+09,9E+09,9E+09,9E+09]],v50,z0,T2_R2\WObj:=DHI_WO_R2;
     MoveJ [[-0.370,75.397,-3.000],[9.73406E-05,-0.156597,-0.987662,-8.78936E-05],[-1,-1,-3,1],[9E+09,9E+09,9E+09,9E+09,9E+09,9E+09]],v50,z0,T2_R2\WObj:=DHI_WO_R2;
     MoveJ [[-0.560,75.393,-3.000],[9.73406E-05,-0.156597,-0.987662,-8.78936E-05],[-1,-1,-3,1],[9E+09,9E+09,9E+09,9E+09,9E+09,9E+09]],v50,z0,T2_R2\WObj:=DHI_WO_R2;
     MoveJ [[-0.750,75.386,-3.000],[9.73406E-05,-0.156597,-0.987662,-8.78936E-05],[-1,-1,-3,1],[9E+09,9E+09,9E+09,9E+09,9E+09,9E+09]],v50,z0,T2_R2\WObj:=DHI_WO_R2;
     MoveJ [[-0.940,75.376,-3.000],[9.73406E-05,-0.156597,-0.987662,-8.78936E-05],[-1,-1,-3,1],[9E+09,9E+09,9E+09,9E+09,9E+09,9E+09]],v50,z0,T2_R2\WObj:=DHI_WO_R2;
     MoveJ [[-1.130,75.367,-3.000],[9.73406E-05,-0.156597,-0.987662,-8.78936E-05],[-1,-1,-3,1],[9E+09,9E+09,9E+09,9E+09,9E+09,9E+09]],v50,z0,T2_R2\WObj:=DHI_WO_R2;
     MoveJ [[-1.320,75.357,-3.000],[9.73406E-05,-0.156597,-0.987662,-8.78936E-05],[-1,-1,-3,1],[9E+09,9E+09,9E+09,9E+09,9E+09,9E+09]],v50,z0,T2_R2\WObj:=DHI_WO_R2;
     MoveJ [[-1.510,75.347,-3.000],[9.73406E-05,-0.156597,-0.987662,-8.78936E-05],[-1,-1,-3,1],[9E+09,9E+09,9E+09,9E+09,9E+09,9E+09]],v50,z0,T2_R2\WObj:=DHI_WO_R2;
     MoveJ [[-1.700,75.337,-3.000],[9.73406E-05,-0.156597,-0.987662,-8.78936E-05],[-1,-1,-3,1],[9E+09,9E+09,9E+09,9E+09,9E+09,9E+09]],v50,z0,T2_R2\WObj:=DHI_WO_R2;
     MoveJ [[-1.890,75.328,-3.000],[9.73406E-05,-0.156597,-0.987662,-8.78936E-05],[-1,-1,-3,1],[9E+09,9E+09,9E+09,9E+09,9E+09,9E+09]],v50,z0,T2_R2\WObj:=DHI_WO_R2;
     MoveJ [[-2.080,75.318,-3.000],[9.73406E-05,-0.156597,-0.987662,-8.78936E-05],[-1,-1,-3,1],[9E+09,9E+09,9E+09,9E+09,9E+09,9E+09]],v50,z0,T2_R2\WObj:=DHI_WO_R2;
     MoveJ [[-2.270,75.308,-3.000],[9.73406E-05,-0.156597,-0.987662,-8.78936E-05],[-1,-1,-3,1],[9E+09,9E+09,9E+09,9E+09,9E+09,9E+09]],v50,z0,T2_R2\WObj:=DHI_WO_R2;
     MoveJ [[-2.460,75.299,-3.000],[9.73406E-05,-0.156597,-0.987662,-8.78936E-05],[-1,-1,-3,1],[9E+09,9E+09,9E+09,9E+09,9E+09,9E+09]],v50,z0,T2_R2\WObj:=DHI_WO_R2;
     MoveJ [[-2.650,75.289,-3.000],[9.73406E-05,-0.156597,-0.987662,-8.78936E-05],[-1,-1,-3,1],[9E+09,9E+09,9E+09,9E+09,9E+09,9E+09]],v50,z0,T2_R2\WObj:=DHI_WO_R2;
     MoveJ [[-2.840,75.280,-3.000],[9.73406E-05,-0.156597,-0.987662,-8.78936E-05],[-1,-1,-3,1],[9E+09,9E+09,9E+09,9E+09,9E+09,9E+09]],v50,z0,T2_R2\WObj:=DHI_WO_R2;
     MoveJ [[-3.030,75.270,-3.000],[9.73406E-05,-0.156597,-0.987662,-8.78936E-05],[-1,-1,-3,1],[9E+09,9E+09,9E+09,9E+09,9E+09,9E+09]],v50,z0,T2_R2\WObj:=DHI_WO_R2;
     MoveJ [[-3.220,75.261,-3.000],[9.73406E-05,-0.156597,-0.987662,-8.78936E-05],[-1,-1,-3,1],[9E+09,9E+09,9E+09,9E+09,9E+09,9E+09]],v50,z0,T2_R2\WObj:=DHI_WO_R2;
     MoveJ [[-3.410,75.251,-3.000],[9.73406E-05,-0.156597,-0.987662,-8.78936E-05],[-1,-1,-3,1],[9E+09,9E+09,9E+09,9E+09,9E+09,9E+09]],v50,z0,T2_R2\WObj:=DHI_WO_R2;
     MoveJ [[-3.600,75.242,-3.000],[9.73406E-05,-0.156597,-0.987662,-8.78936E-05],[-1,-1,-3,1],[9E+09,9E+09,9E+09,9E+09,9E+09,9E+09]],v50,z0,T2_R2\WObj:=DHI_WO_R2;
     MoveJ [[-3.790,75.232,-3.000],[9.73406E-05,-0.156597,-0.987662,-8.78936E-05],[-1,-1,-3,1],[9E+09,9E+09,9E+09,9E+09,9E+09,9E+09]],v50,z0,T2_R2\WObj:=DHI_WO_R2;
     MoveJ [[-3.980,75.223,-3.000],[9.73406E-05,-0.156597,-0.987662,-8.78936E-05],[-1,-1,-3,1],[9E+09,9E+09,9E+09,9E+09,9E+09,9E+09]],v50,z0,T2_R2\WObj:=DHI_WO_R2;
     MoveJ [[-4.170,75.213,-3.000],[9.73406E-05,-0.156597,-0.987662,-8.78936E-05],[-1,-1,-3,1],[9E+09,9E+09,9E+09,9E+09,9E+09,9E+09]],v50,z0,T2_R2\WObj:=DHI_WO_R2;
     MoveJ [[-4.360,75.203,-3.000],[9.73406E-05,-0.156597,-0.987662,-8.78936E-05],[-1,-1,-3,1],[9E+09,9E+09,9E+09,9E+09,9E+09,9E+09]],v50,z0,T2_R2\WObj:=DHI_WO_R2;
     MoveJ [[-4.550,75.193,-3.000],[9.73406E-05,-0.156597,-0.987662,-8.78936E-05],[-1,-1,-3,1],[9E+09,9E+09,9E+09,9E+09,9E+09,9E+09]],v50,z0,T2_R2\WObj:=DHI_WO_R2;
     MoveJ [[-4.740,75.183,-3.000],[9.73406E-05,-0.156597,-0.987662,-8.78936E-05],[-1,-1,-3,1],[9E+09,9E+09,9E+09,9E+09,9E+09,9E+09]],v50,z0,T2_R2\WObj:=DHI_WO_R2;
     MoveJ [[-4.930,75.172,-3.000],[9.73406E-05,-0.156597,-0.987662,-8.78936E-05],[-1,-1,-3,1],[9E+09,9E+09,9E+09,9E+09,9E+09,9E+09]],v50,z0,T2_R2\WObj:=DHI_WO_R2;
     MoveJ [[-5.120,75.162,-3.000],[9.73406E-05,-0.156597,-0.987662,-8.78936E-05],[-1,-1,-3,1],[9E+09,9E+09,9E+09,9E+09,9E+09,9E+09]],v50,z0,T2_R2\WObj:=DHI_WO_R2;
     MoveJ [[-5.310,75.152,-3.000],[9.73406E-05,-0.156597,-0.987662,-8.78936E-05],[-1,-1,-3,1],[9E+09,9E+09,9E+09,9E+09,9E+09,9E+09]],v50,z0,T2_R2\WObj:=DHI_WO_R2;
     MoveJ [[-5.500,75.142,-3.000],[9.73406E-05,-0.156597,-0.987662,-8.78936E-05],[-1,-1,-3,1],[9E+09,9E+09,9E+09,9E+09,9E+09,9E+09]],v50,z0,T2_R2\WObj:=DHI_WO_R2;
     MoveJ [[-5.690,75.132,-3.000],[9.73406E-05,-0.156597,-0.987662,-8.78936E-05],[-1,-1,-3,1],[9E+09,9E+09,9E+09,9E+09,9E+09,9E+09]],v50,z0,T2_R2\WObj:=DHI_WO_R2;
     MoveJ [[-5.880,75.122,-3.000],[9.73406E-05,-0.156597,-0.987662,-8.78936E-05],[-1,-1,-3,1],[9E+09,9E+09,9E+09,9E+09,9E+09,9E+09]],v50,z0,T2_R2\WObj:=DHI_WO_R2;
     MoveJ [[-6.070,75.112,-3.000],[9.73406E-05,-0.156597,-0.987662,-8.78936E-05],[-1,-1,-3,1],[9E+09,9E+09,9E+09,9E+09,9E+09,9E+09]],v50,z0,T2_R2\WObj:=DHI_WO_R2;
     MoveJ [[-6.260,75.102,-3.000],[9.73406E-05,-0.156597,-0.987662,-8.78936E-05],[-1,-1,-3,1],[9E+09,9E+09,9E+09,9E+09,9E+09,9E+09]],v50,z0,T2_R2\WObj:=DHI_WO_R2;
     MoveJ [[-6.450,75.092,-3.000],[9.73406E-05,-0.156597,-0.987662,-8.78936E-05],[-1,-1,-3,1],[9E+09,9E+09,9E+09,9E+09,9E+09,9E+09]],v50,z0,T2_R2\WObj:=DHI_WO_R2;
     MoveJ [[-6.640,75.082,-3.000],[9.73406E-05,-0.156597,-0.987662,-8.78936E-05],[-1,-1,-3,1],[9E+09,9E+09,9E+09,9E+09,9E+09,9E+09]],v50,z0,T2_R2\WObj:=DHI_WO_R2;
     MoveJ [[-6.830,75.072,-3.000],[9.73406E-05,-0.156597,-0.987662,-8.78936E-05],[-1,-1,-3,1],[9E+09,9E+09,9E+09,9E+09,9E+09,9E+09]],v50,z0,T2_R2\WObj:=DHI_WO_R2;
     MoveJ [[-7.020,75.062,-3.000],[9.73406E-05,-0.156597,-0.987662,-8.78936E-05],[-1,-1,-3,1],[9E+09,9E+09,9E+09,9E+09,9E+09,9E+09]],v50,z0,T2_R2\WObj:=DHI_WO_R2;
     MoveJ [[-7.210,75.052,-3.000],[9.73406E-05,-0.156597,-0.987662,-8.78936E-05],[-1,-1,-3,1],[9E+09,9E+09,9E+09,9E+09,9E+09,9E+09]],v50,z0,T2_R2\WObj:=DHI_WO_R2;
     MoveJ [[-7.400,75.042,-3.000],[9.73406E-05,-0.156597,-0.987662,-8.78936E-05],[-1,-1,-3,1],[9E+09,9E+09,9E+09,9E+09,9E+09,9E+09]],v50,z0,T2_R2\WObj:=DHI_WO_R2;
     MoveJ [[-7.590,75.032,-3.000],[9.73406E-05,-0.156597,-0.987662,-8.78936E-05],[-1,-1,-3,1],[9E+09,9E+09,9E+09,9E+09,9E+09,9E+09]],v50,z0,T2_R2\WObj:=DHI_WO_R2;
     MoveJ [[-7.780,75.022,-3.000],[9.73406E-05,-0.156597,-0.987662,-8.78936E-05],[-1,-1,-3,1],[9E+09,9E+09,9E+09,9E+09,9E+09,9E+09]],v50,z0,T2_R2\WObj:=DHI_WO_R2;
     MoveJ [[-7.970,75.012,-3.000],[9.73406E-05,-0.156597,-0.987662,-8.78936E-05],[-1,-1,-3,1],[9E+09,9E+09,9E+09,9E+09,9E+09,9E+09]],v50,z0,T2_R2\WObj:=DHI_WO_R2;
     MoveJ [[-8.160,75.001,-3.000],[9.73406E-05,-0.156597,-0.987662,-8.78936E-05],[-1,-1,-3,1],[9E+09,9E+09,9E+09,9E+09,9E+09,9E+09]],v50,z0,T2_R2\WObj:=DHI_WO_R2;
     MoveJ [[-8.360,74.990,-3.000],[9.73406E-05,-0.156597,-0.987662,-8.78936E-05],[-1,-1,-3,1],[9E+09,9E+09,9E+09,9E+09,9E+09,9E+09]],v50,z0,T2_R2\WObj:=DHI_WO_R2;
     MoveJ [[-8.550,74.980,-3.000],[9.73406E-05,-0.156597,-0.987662,-8.78936E-05],[-1,-1,-3,1],[9E+09,9E+09,9E+09,9E+09,9E+09,9E+09]],v50,z0,T2_R2\WObj:=DHI_WO_R2;
     MoveJ [[-8.740,74.969,-3.000],[9.73406E-05,-0.156597,-0.987662,-8.78936E-05],[-1,-1,-3,1],[9E+09,9E+09,9E+09,9E+09,9E+09,9E+09]],v50,z0,T2_R2\WObj:=DHI_WO_R2;
     MoveJ [[-8.930,74.958,-3.000],[9.73406E-05,-0.156597,-0.987662,-8.78936E-05],[-1,-1,-3,1],[9E+09,9E+09,9E+09,9E+09,9E+09,9E+09]],v50,z0,T2_R2\WObj:=DHI_WO_R2;
     MoveJ [[-9.120,74.948,-3.000],[9.73406E-05,-0.156597,-0.987662,-8.78936E-05],[-1,-1,-3,1],[9E+09,9E+09,9E+09,9E+09,9E+09,9E+09]],v50,z0,T2_R2\WObj:=DHI_WO_R2;
     MoveJ [[-9.310,74.937,-3.000],[9.73406E-05,-0.156597,-0.987662,-8.78936E-05],[-1,-1,-3,1],[9E+09,9E+09,9E+09,9E+09,9E+09,9E+09]],v50,z0,T2_R2\WObj:=DHI_WO_R2;
     MoveJ [[-9.500,74.927,-3.000],[9.73406E-05,-0.156597,-0.987662,-8.78936E-05],[-1,-1,-3,1],[9E+09,9E+09,9E+09,9E+09,9E+09,9E+09]],v50,z0,T2_R2\WObj:=DHI_WO_R2;
     MoveJ [[-9.730,74.914,-3.000],[9.73406E-05,-0.156597,-0.987662,-8.78936E-05],[-1,-1,-3,1],[9E+09,9E+09,9E+09,9E+09,9E+09,9E+09]],v50,z0,T2_R2\WObj:=DHI_WO_R2;
     MoveJ [[-9.880,74.906,-3.000],[9.73406E-05,-0.156597,-0.987662,-8.78936E-05],[-1,-1,-3,1],[9E+09,9E+09,9E+09,9E+09,9E+09,9E+09]],v50,z0,T2_R2\WObj:=DHI_WO_R2;
     MoveJ [[-10.070,74.896,-3.000],[9.73406E-05,-0.156597,-0.987662,-8.78936E-05],[-1,-1,-3,1],[9E+09,9E+09,9E+09,9E+09,9E+09,9E+09]],v50,z0,T2_R2\WObj:=DHI_WO_R2;
     MoveJ [[-10.260,74.885,-3.000],[9.73406E-05,-0.156597,-0.987662,-8.78936E-05],[-1,-1,-3,1],[9E+09,9E+09,9E+09,9E+09,9E+09,9E+09]],v50,z0,T2_R2\WObj:=DHI_WO_R2;
     MoveJ [[-10.450,74.875,-3.000],[9.73406E-05,-0.156597,-0.987662,-8.78936E-05],[-1,-1,-3,1],[9E+09,9E+09,9E+09,9E+09,9E+09,9E+09]],v50,z0,T2_R2\WObj:=DHI_WO_R2;
     MoveJ [[-10.640,74.865,-3.000],[9.73406E-05,-0.156597,-0.987662,-8.78936E-05],[-1,-1,-3,1],[9E+09,9E+09,9E+09,9E+09,9E+09,9E+09]],v50,z0,T2_R2\WObj:=DHI_WO_R2;
     MoveJ [[-10.830,74.854,-3.000],[9.73406E-05,-0.156597,-0.987662,-8.78936E-05],[-1,-1,-3,1],[9E+09,9E+09,9E+09,9E+09,9E+09,9E+09]],v50,z0,T2_R2\WObj:=DHI_WO_R2;
     MoveJ [[-11.020,74.844,-3.000],[9.73406E-05,-0.156597,-0.987662,-8.78936E-05],[-1,-1,-3,1],[9E+09,9E+09,9E+09,9E+09,9E+09,9E+09]],v50,z0,T2_R2\WObj:=DHI_WO_R2;
     MoveJ [[-11.210,74.834,-3.000],[9.73406E-05,-0.156597,-0.987662,-8.78936E-05],[-1,-1,-3,1],[9E+09,9E+09,9E+09,9E+09,9E+09,9E+09]],v50,z0,T2_R2\WObj:=DHI_WO_R2;
     MoveJ [[-11.400,74.823,-3.000],[9.73406E-05,-0.156597,-0.987662,-8.78936E-05],[-1,-1,-3,1],[9E+09,9E+09,9E+09,9E+09,9E+09,9E+09]],v50,z0,T2_R2\WObj:=DHI_WO_R2;
     MoveJ [[-11.590,74.812,-3.000],[9.73406E-05,-0.156597,-0.987662,-8.78936E-05],[-1,-1,-3,1],[9E+09,9E+09,9E+09,9E+09,9E+09,9E+09]],v50,z0,T2_R2\WObj:=DHI_WO_R2;
     MoveJ [[-11.780,74.801,-3.000],[9.73406E-05,-0.156597,-0.987662,-8.78936E-05],[-1,-1,-3,1],[9E+09,9E+09,9E+09,9E+09,9E+09,9E+09]],v50,z0,T2_R2\WObj:=DHI_WO_R2;
     MoveJ [[-11.970,74.790,-3.000],[9.73406E-05,-0.156597,-0.987662,-8.78936E-05],[-1,-1,-3,1],[9E+09,9E+09,9E+09,9E+09,9E+09,9E+09]],v50,z0,T2_R2\WObj:=DHI_WO_R2;
     MoveJ [[-12.160,74.779,-3.000],[9.73406E-05,-0.156597,-0.987662,-8.78936E-05],[-1,-1,-3,1],[9E+09,9E+09,9E+09,9E+09,9E+09,9E+09]],v50,z0,T2_R2\WObj:=DHI_WO_R2;
     MoveJ [[-12.350,74.768,-3.000],[9.73406E-05,-0.156597,-0.987662,-8.78936E-05],[-1,-1,-3,1],[9E+09,9E+09,9E+09,9E+09,9E+09,9E+09]],v50,z0,T2_R2\WObj:=DHI_WO_R2;
     MoveJ [[-12.540,74.758,-3.000],[9.73406E-05,-0.156597,-0.987662,-8.78936E-05],[-1,-1,-3,1],[9E+09,9E+09,9E+09,9E+09,9E+09,9E+09]],v50,z0,T2_R2\WObj:=DHI_WO_R2;
     MoveJ [[-12.730,74.747,-3.000],[9.73406E-05,-0.156597,-0.987662,-8.78936E-05],[-1,-1,-3,1],[9E+09,9E+09,9E+09,9E+09,9E+09,9E+09]],v50,z0,T2_R2\WObj:=DHI_WO_R2;
     MoveJ [[-12.920,74.736,-3.000],[9.73406E-05,-0.156597,-0.987662,-8.78936E-05],[-1,-1,-3,1],[9E+09,9E+09,9E+09,9E+09,9E+09,9E+09]],v50,z0,T2_R2\WObj:=DHI_WO_R2;
     MoveJ [[-13.120,74.724,-3.000],[9.73406E-05,-0.156597,-0.987662,-8.78936E-05],[-1,-1,-3,1],[9E+09,9E+09,9E+09,9E+09,9E+09,9E+09]],v50,z0,T2_R2\WObj:=DHI_WO_R2;
     MoveJ [[-13.300,74.714,-3.000],[9.73406E-05,-0.156597,-0.987662,-8.78936E-05],[-1,-1,-3,1],[9E+09,9E+09,9E+09,9E+09,9E+09,9E+09]],v50,z0,T2_R2\WObj:=DHI_WO_R2;
     MoveJ [[-13.490,74.703,-3.000],[9.73406E-05,-0.156597,-0.987662,-8.78936E-05],[-1,-1,-3,1],[9E+09,9E+09,9E+09,9E+09,9E+09,9E+09]],v50,z0,T2_R2\WObj:=DHI_WO_R2;
     MoveJ [[-13.680,74.693,-3.000],[9.73406E-05,-0.156597,-0.987662,-8.78936E-05],[-1,-1,-3,1],[9E+09,9E+09,9E+09,9E+09,9E+09,9E+09]],v50,z0,T2_R2\WObj:=DHI_WO_R2;
     MoveJ [[-13.870,74.682,-3.000],[9.73406E-05,-0.156597,-0.987662,-8.78936E-05],[-1,-1,-3,1],[9E+09,9E+09,9E+09,9E+09,9E+09,9E+09]],v50,z0,T2_R2\WObj:=DHI_WO_R2;
     MoveJ [[-14.060,74.671,-3.000],[9.73406E-05,-0.156597,-0.987662,-8.78936E-05],[-1,-1,-3,1],[9E+09,9E+09,9E+09,9E+09,9E+09,9E+09]],v50,z0,T2_R2\WObj:=DHI_WO_R2;
     MoveJ [[-14.250,74.661,-3.000],[9.73406E-05,-0.156597,-0.987662,-8.78936E-05],[-1,-1,-3,1],[9E+09,9E+09,9E+09,9E+09,9E+09,9E+09]],v50,z0,T2_R2\WObj:=DHI_WO_R2;
     MoveJ [[-14.440,74.650,-3.000],[9.73406E-05,-0.156597,-0.987662,-8.78936E-05],[-1,-1,-3,1],[9E+09,9E+09,9E+09,9E+09,9E+09,9E+09]],v50,z0,T2_R2\WObj:=DHI_WO_R2;
     MoveJ [[-14.630,74.640,-3.000],[9.73406E-05,-0.156597,-0.987662,-8.78936E-05],[-1,-1,-3,1],[9E+09,9E+09,9E+09,9E+09,9E+09,9E+09]],v50,z0,T2_R2\WObj:=DHI_WO_R2;
     MoveJ [[-14.820,74.629,-3.000],[9.73406E-05,-0.156597,-0.987662,-8.78936E-05],[-1,-1,-3,1],[9E+09,9E+09,9E+09,9E+09,9E+09,9E+09]],v50,z0,T2_R2\WObj:=DHI_WO_R2;
     MoveJ [[-15.010,74.618,-3.000],[9.73406E-05,-0.156597,-0.987662,-8.78936E-05],[-1,-1,-3,1],[9E+09,9E+09,9E+09,9E+09,9E+09,9E+09]],v50,z0,T2_R2\WObj:=DHI_WO_R2;
     MoveJ [[-15.200,74.607,-3.000],[9.73406E-05,-0.156597,-0.987662,-8.78936E-05],[-1,-1,-3,1],[9E+09,9E+09,9E+09,9E+09,9E+09,9E+09]],v50,z0,T2_R2\WObj:=DHI_WO_R2;
     MoveJ [[-15.390,74.595,-3.000],[9.73406E-05,-0.156597,-0.987662,-8.78936E-05],[-1,-1,-3,1],[9E+09,9E+09,9E+09,9E+09,9E+09,9E+09]],v50,z0,T2_R2\WObj:=DHI_WO_R2;
     MoveJ [[-15.580,74.584,-3.000],[9.73406E-05,-0.156597,-0.987662,-8.78936E-05],[-1,-1,-3,1],[9E+09,9E+09,9E+09,9E+09,9E+09,9E+09]],v50,z0,T2_R2\WObj:=DHI_WO_R2;
     MoveJ [[-15.770,74.573,-3.000],[9.73406E-05,-0.156597,-0.987662,-8.78936E-05],[-1,-1,-3,1],[9E+09,9E+09,9E+09,9E+09,9E+09,9E+09]],v50,z0,T2_R2\WObj:=DHI_WO_R2;
     MoveJ [[-15.960,74.562,-3.000],[9.73406E-05,-0.156597,-0.987662,-8.78936E-05],[-1,-1,-3,1],[9E+09,9E+09,9E+09,9E+09,9E+09,9E+09]],v50,z0,T2_R2\WObj:=DHI_WO_R2;
     MoveJ [[-16.150,74.550,-3.000],[9.73406E-05,-0.156597,-0.987662,-8.78936E-05],[-1,-1,-3,1],[9E+09,9E+09,9E+09,9E+09,9E+09,9E+09]],v50,z0,T2_R2\WObj:=DHI_WO_R2;
     MoveJ [[-16.340,74.539,-3.000],[9.73406E-05,-0.156597,-0.987662,-8.78936E-05],[-1,-1,-3,1],[9E+09,9E+09,9E+09,9E+09,9E+09,9E+09]],v50,z0,T2_R2\WObj:=DHI_WO_R2;
     MoveJ [[-16.530,74.528,-3.000],[9.73406E-05,-0.156597,-0.987662,-8.78936E-05],[-1,-1,-3,1],[9E+09,9E+09,9E+09,9E+09,9E+09,9E+09]],v50,z0,T2_R2\WObj:=DHI_WO_R2;
     MoveJ [[-16.720,74.517,-3.000],[9.73406E-05,-0.156597,-0.987662,-8.78936E-05],[-1,-1,-3,1],[9E+09,9E+09,9E+09,9E+09,9E+09,9E+09]],v50,z0,T2_R2\WObj:=DHI_WO_R2;
     MoveJ [[-16.910,74.506,-3.000],[9.73406E-05,-0.156597,-0.987662,-8.78936E-05],[-1,-1,-3,1],[9E+09,9E+09,9E+09,9E+09,9E+09,9E+09]],v50,z0,T2_R2\WObj:=DHI_WO_R2;
     MoveJ [[-17.100,74.495,-3.000],[9.73406E-05,-0.156597,-0.987662,-8.78936E-05],[-1,-1,-3,1],[9E+09,9E+09,9E+09,9E+09,9E+09,9E+09]],v50,z0,T2_R2\WObj:=DHI_WO_R2;
     MoveJ [[-17.290,74.484,-3.000],[9.73406E-05,-0.156597,-0.987662,-8.78936E-05],[-1,-1,-3,1],[9E+09,9E+09,9E+09,9E+09,9E+09,9E+09]],v50,z0,T2_R2\WObj:=DHI_WO_R2;
     MoveJ [[-17.480,74.473,-3.000],[9.73406E-05,-0.156597,-0.987662,-8.78936E-05],[-1,-1,-3,1],[9E+09,9E+09,9E+09,9E+09,9E+09,9E+09]],v50,z0,T2_R2\WObj:=DHI_WO_R2;
     MoveJ [[-17.670,74.462,-3.000],[9.73406E-05,-0.156597,-0.987662,-8.78936E-05],[-1,-1,-3,1],[9E+09,9E+09,9E+09,9E+09,9E+09,9E+09]],v50,z0,T2_R2\WObj:=DHI_WO_R2;
     MoveJ [[-17.860,74.451,-3.000],[9.73406E-05,-0.156597,-0.987662,-8.78936E-05],[-1,-1,-3,1],[9E+09,9E+09,9E+09,9E+09,9E+09,9E+09]],v50,z0,T2_R2\WObj:=DHI_WO_R2;
     MoveJ [[-18.050,74.441,-3.000],[9.73406E-05,-0.156597,-0.987662,-8.78936E-05],[-1,-1,-3,1],[9E+09,9E+09,9E+09,9E+09,9E+09,9E+09]],v50,z0,T2_R2\WObj:=DHI_WO_R2;
     MoveJ [[-18.240,74.430,-3.000],[9.73406E-05,-0.156597,-0.987662,-8.78936E-05],[-1,-1,-3,1],[9E+09,9E+09,9E+09,9E+09,9E+09,9E+09]],v50,z0,T2_R2\WObj:=DHI_WO_R2;
     MoveJ [[-18.430,74.419,-3.000],[9.73406E-05,-0.156597,-0.987662,-8.78936E-05],[-1,-1,-3,1],[9E+09,9E+09,9E+09,9E+09,9E+09,9E+09]],v50,z0,T2_R2\WObj:=DHI_WO_R2;
     MoveJ [[-18.620,74.408,-3.000],[9.73406E-05,-0.156597,-0.987662,-8.78936E-05],[-1,-1,-3,1],[9E+09,9E+09,9E+09,9E+09,9E+09,9E+09]],v50,z0,T2_R2\WObj:=DHI_WO_R2;
     MoveJ [[-18.810,74.396,-3.000],[9.73406E-05,-0.156597,-0.987662,-8.78936E-05],[-1,-1,-3,1],[9E+09,9E+09,9E+09,9E+09,9E+09,9E+09]],v50,z0,T2_R2\WObj:=DHI_WO_R2;
     MoveJ [[-19.000,74.384,-3.000],[9.73406E-05,-0.156597,-0.987662,-8.78936E-05],[-1,-1,-3,1],[9E+09,9E+09,9E+09,9E+09,9E+09,9E+09]],v50,z0,T2_R2\WObj:=DHI_WO_R2;
     MoveJ [[-19.190,74.373,-3.000],[9.73406E-05,-0.156597,-0.987662,-8.78936E-05],[-1,-1,-3,1],[9E+09,9E+09,9E+09,9E+09,9E+09,9E+09]],v50,z0,T2_R2\WObj:=DHI_WO_R2;
     MoveJ [[-19.380,74.361,-3.000],[9.73406E-05,-0.156597,-0.987662,-8.78936E-05],[-1,-1,-3,1],[9E+09,9E+09,9E+09,9E+09,9E+09,9E+09]],v50,z0,T2_R2\WObj:=DHI_WO_R2;
     MoveJ [[-19.570,74.350,-3.000],[9.73406E-05,-0.156597,-0.987662,-8.78936E-05],[-1,-1,-3,1],[9E+09,9E+09,9E+09,9E+09,9E+09,9E+09]],v50,z0,T2_R2\WObj:=DHI_WO_R2;
     MoveJ [[-19.670,74.344,-3.000],[9.73406E-05,-0.156597,-0.987662,-8.78936E-05],[-1,-1,-3,1],[9E+09,9E+09,9E+09,9E+09,9E+09,9E+09]],v50,z0,T2_R2\WObj:=DHI_WO_R2;
     MoveJ [[-19.760,74.339,-3.000],[9.73406E-05,-0.156597,-0.987662,-8.78936E-05],[-1,-1,-3,1],[9E+09,9E+09,9E+09,9E+09,9E+09,9E+09]],v50,z0,T2_R2\WObj:=DHI_WO_R2;
     MoveJ [[-19.950,74.327,-3.000],[9.73406E-05,-0.156597,-0.987662,-8.78936E-05],[-1,-1,-3,1],[9E+09,9E+09,9E+09,9E+09,9E+09,9E+09]],v50,z0,T2_R2\WObj:=DHI_WO_R2;
     MoveJ [[-20.140,74.316,-3.000],[9.73406E-05,-0.156597,-0.987662,-8.78936E-05],[-1,-1,-3,1],[9E+09,9E+09,9E+09,9E+09,9E+09,9E+09]],v50,z0,T2_R2\WObj:=DHI_WO_R2;
     MoveJ [[-20.330,74.305,-3.000],[9.73406E-05,-0.156597,-0.987662,-8.78936E-05],[-1,-1,-3,1],[9E+09,9E+09,9E+09,9E+09,9E+09,9E+09]],v50,z0,T2_R2\WObj:=DHI_WO_R2;
     MoveJ [[-20.520,74.294,-3.000],[9.73406E-05,-0.156597,-0.987662,-8.78936E-05],[-1,-1,-3,1],[9E+09,9E+09,9E+09,9E+09,9E+09,9E+09]],v50,z0,T2_R2\WObj:=DHI_WO_R2;
     MoveJ [[-21.470,74.238,-3.000],[9.73406E-05,-0.156597,-0.987662,-8.78936E-05],[-1,-1,-3,1],[9E+09,9E+09,9E+09,9E+09,9E+09,9E+09]],v50,z0,T2_R2\WObj:=DHI_WO_R2;
     MoveJ [[-21.660,74.226,-3.000],[9.73406E-05,-0.156597,-0.987662,-8.78936E-05],[-1,-1,-3,1],[9E+09,9E+09,9E+09,9E+09,9E+09,9E+09]],v50,z0,T2_R2\WObj:=DHI_WO_R2;
     MoveJ [[-21.850,74.214,-3.000],[9.73406E-05,-0.156597,-0.987662,-8.78936E-05],[-1,-1,-3,1],[9E+09,9E+09,9E+09,9E+09,9E+09,9E+09]],v50,z0,T2_R2\WObj:=DHI_WO_R2;
     MoveJ [[-22.040,74.201,-3.000],[9.73406E-05,-0.156597,-0.987662,-8.78936E-05],[-1,-1,-3,1],[9E+09,9E+09,9E+09,9E+09,9E+09,9E+09]],v50,z0,T2_R2\WObj:=DHI_WO_R2;
     MoveJ [[-22.720,74.154,-3.000],[9.73406E-05,-0.156597,-0.987662,-8.78936E-05],[-1,-1,-3,1],[9E+09,9E+09,9E+09,9E+09,9E+09,9E+09]],v50,z0,T2_R2\WObj:=DHI_WO_R2;
     MoveJ [[-22.800,74.148,-3.000],[9.73406E-05,-0.156597,-0.987662,-8.78936E-05],[-1,-1,-3,1],[9E+09,9E+09,9E+09,9E+09,9E+09,9E+09]],v50,z0,T2_R2\WObj:=DHI_WO_R2;
     MoveJ [[-22.990,74.136,-3.000],[9.73406E-05,-0.156597,-0.987662,-8.78936E-05],[-1,-1,-3,1],[9E+09,9E+09,9E+09,9E+09,9E+09,9E+09]],v50,z0,T2_R2\WObj:=DHI_WO_R2;
     MoveJ [[-24.710,74.023,-3.000],[9.73406E-05,-0.156597,-0.987662,-8.78936E-05],[-1,-1,-3,1],[9E+09,9E+09,9E+09,9E+09,9E+09,9E+09]],v50,z0,T2_R2\WObj:=DHI_WO_R2;
     MoveJ [[-24.900,74.010,-3.000],[9.73406E-05,-0.156597,-0.987662,-8.78936E-05],[-1,-1,-3,1],[9E+09,9E+09,9E+09,9E+09,9E+09,9E+09]],v50,z0,T2_R2\WObj:=DHI_WO_R2;
     MoveJ [[-26.420,73.897,-3.000],[9.73406E-05,-0.156597,-0.987662,-8.78936E-05],[-1,-1,-3,1],[9E+09,9E+09,9E+09,9E+09,9E+09,9E+09]],v50,z0,T2_R2\WObj:=DHI_WO_R2;
     MoveJ [[-26.610,73.883,-3.000],[9.73406E-05,-0.156597,-0.987662,-8.78936E-05],[-1,-1,-3,1],[9E+09,9E+09,9E+09,9E+09,9E+09,9E+09]],v50,z0,T2_R2\WObj:=DHI_WO_R2;
     MoveJ [[-26.990,73.855,-3.000],[9.73406E-05,-0.156597,-0.987662,-8.78936E-05],[-1,-1,-3,1],[9E+09,9E+09,9E+09,9E+09,9E+09,9E+09]],v50,z0,T2_R2\WObj:=DHI_WO_R2;
     MoveJ [[-27.180,73.841,-3.000],[9.73406E-05,-0.156597,-0.987662,-8.78936E-05],[-1,-1,-3,1],[9E+09,9E+09,9E+09,9E+09,9E+09,9E+09]],v50,z0,T2_R2\WObj:=DHI_WO_R2;
     MoveJ [[-29.080,73.691,-3.000],[9.73406E-05,-0.156597,-0.987662,-8.78936E-05],[-1,-1,-3,1],[9E+09,9E+09,9E+09,9E+09,9E+09,9E+09]],v50,z0,T2_R2\WObj:=DHI_WO_R2;
     MoveJ [[-29.270,73.675,-3.000],[9.73406E-05,-0.156597,-0.987662,-8.78936E-05],[-1,-1,-3,1],[9E+09,9E+09,9E+09,9E+09,9E+09,9E+09]],v50,z0,T2_R2\WObj:=DHI_WO_R2;
     MoveJ [[-29.650,73.641,-3.000],[9.73406E-05,-0.156597,-0.987662,-8.78936E-05],[-1,-1,-3,1],[9E+09,9E+09,9E+09,9E+09,9E+09,9E+09]],v50,z0,T2_R2\WObj:=DHI_WO_R2;
     MoveJ [[-29.840,73.625,-3.000],[9.73406E-05,-0.156597,-0.987662,-8.78936E-05],[-1,-1,-3,1],[9E+09,9E+09,9E+09,9E+09,9E+09,9E+09]],v50,z0,T2_R2\WObj:=DHI_WO_R2;
     MoveJ [[-30.030,73.609,-3.000],[9.73406E-05,-0.156597,-0.987662,-8.78936E-05],[-1,-1,-3,1],[9E+09,9E+09,9E+09,9E+09,9E+09,9E+09]],v50,z0,T2_R2\WObj:=DHI_WO_R2;
     MoveJ [[-30.220,73.593,-3.000],[9.73406E-05,-0.156597,-0.987662,-8.78936E-05],[-1,-1,-3,1],[9E+09,9E+09,9E+09,9E+09,9E+09,9E+09]],v50,z0,T2_R2\WObj:=DHI_WO_R2;
     MoveJ [[-32.690,73.385,-3.000],[9.73406E-05,-0.156597,-0.987662,-8.78936E-05],[-1,-1,-3,1],[9E+09,9E+09,9E+09,9E+09,9E+09,9E+09]],v50,z0,T2_R2\WObj:=DHI_WO_R2;
     MoveJ [[-32.880,73.367,-3.000],[9.73406E-05,-0.156597,-0.987662,-8.78936E-05],[-1,-1,-3,1],[9E+09,9E+09,9E+09,9E+09,9E+09,9E+09]],v50,z0,T2_R2\WObj:=DHI_WO_R2;
     MoveJ [[-34.780,73.189,-3.000],[9.73406E-05,-0.156597,-0.987662,-8.78936E-05],[-1,-1,-3,1],[9E+09,9E+09,9E+09,9E+09,9E+09,9E+09]],v50,z0,T2_R2\WObj:=DHI_WO_R2;
     MoveJ [[-34.970,73.172,-3.000],[9.73406E-05,-0.156597,-0.987662,-8.78936E-05],[-1,-1,-3,1],[9E+09,9E+09,9E+09,9E+09,9E+09,9E+09]],v50,z0,T2_R2\WObj:=DHI_WO_R2;
     MoveJ [[-35.160,73.154,-3.000],[9.73406E-05,-0.156597,-0.987662,-8.78936E-05],[-1,-1,-3,1],[9E+09,9E+09,9E+09,9E+09,9E+09,9E+09]],v50,z0,T2_R2\WObj:=DHI_WO_R2;
     MoveJ [[-35.350,73.137,-3.000],[9.73406E-05,-0.156597,-0.987662,-8.78936E-05],[-1,-1,-3,1],[9E+09,9E+09,9E+09,9E+09,9E+09,9E+09]],v50,z0,T2_R2\WObj:=DHI_WO_R2;
     MoveJ [[-35.540,73.120,-3.000],[9.73406E-05,-0.156597,-0.987662,-8.78936E-05],[-1,-1,-3,1],[9E+09,9E+09,9E+09,9E+09,9E+09,9E+09]],v50,z0,T2_R2\WObj:=DHI_WO_R2;
     MoveJ [[-36.110,73.068,-3.000],[9.73406E-05,-0.156597,-0.987662,-8.78936E-05],[-1,-1,-3,1],[9E+09,9E+09,9E+09,9E+09,9E+09,9E+09]],v50,z0,T2_R2\WObj:=DHI_WO_R2;
     MoveJ [[-36.300,73.051,-3.000],[9.73406E-05,-0.156597,-0.987662,-8.78936E-05],[-1,-1,-3,1],[9E+09,9E+09,9E+09,9E+09,9E+09,9E+09]],v50,z0,T2_R2\WObj:=DHI_WO_R2;
     MoveJ [[-38.200,72.862,-3.000],[9.73406E-05,-0.156597,-0.987662,-8.78936E-05],[-1,-1,-3,1],[9E+09,9E+09,9E+09,9E+09,9E+09,9E+09]],v50,z0,T2_R2\WObj:=DHI_WO_R2;
     MoveJ [[-38.390,72.843,-3.000],[9.73406E-05,-0.156597,-0.987662,-8.78936E-05],[-1,-1,-3,1],[9E+09,9E+09,9E+09,9E+09,9E+09,9E+09]],v50,z0,T2_R2\WObj:=DHI_WO_R2;
     MoveJ [[-39.730,72.710,-3.000],[9.73406E-05,-0.156597,-0.987662,-8.78936E-05],[-1,-1,-3,1],[9E+09,9E+09,9E+09,9E+09,9E+09,9E+09]],v50,z0,T2_R2\WObj:=DHI_WO_R2;
     MoveJ [[-39.920,72.690,-3.000],[9.73406E-05,-0.156597,-0.987662,-8.78936E-05],[-1,-1,-3,1],[9E+09,9E+09,9E+09,9E+09,9E+09,9E+09]],v50,z0,T2_R2\WObj:=DHI_WO_R2;
     MoveJ [[-40.300,72.649,-3.000],[9.73406E-05,-0.156597,-0.987662,-8.78936E-05],[-1,-1,-3,1],[9E+09,9E+09,9E+09,9E+09,9E+09,9E+09]],v50,z0,T2_R2\WObj:=DHI_WO_R2;
     MoveJ [[-40.440,72.633,-3.000],[9.73406E-05,-0.156597,-0.987662,-8.78936E-05],[-1,-1,-3,1],[9E+09,9E+09,9E+09,9E+09,9E+09,9E+09]],v50,z0,T2_R2\WObj:=DHI_WO_R2;
     MoveJ [[-40.490,72.628,-3.000],[9.73406E-05,-0.156597,-0.987662,-8.78936E-05],[-1,-1,-3,1],[9E+09,9E+09,9E+09,9E+09,9E+09,9E+09]],v50,z0,T2_R2\WObj:=DHI_WO_R2;
     MoveJ [[-40.680,72.607,-3.000],[9.73406E-05,-0.156597,-0.987662,-8.78936E-05],[-1,-1,-3,1],[9E+09,9E+09,9E+09,9E+09,9E+09,9E+09]],v50,z0,T2_R2\WObj:=DHI_WO_R2;
     MoveJ [[-40.870,72.587,-3.000],[9.73406E-05,-0.156597,-0.987662,-8.78936E-05],[-1,-1,-3,1],[9E+09,9E+09,9E+09,9E+09,9E+09,9E+09]],v50,z0,T2_R2\WObj:=DHI_WO_R2;
     MoveJ [[-43.340,72.326,-3.000],[9.73406E-05,-0.156597,-0.987662,-8.78936E-05],[-1,-1,-3,1],[9E+09,9E+09,9E+09,9E+09,9E+09,9E+09]],v50,z0,T2_R2\WObj:=DHI_WO_R2;
     MoveJ [[-43.530,72.304,-3.000],[9.73406E-05,-0.156597,-0.987662,-8.78936E-05],[-1,-1,-3,1],[9E+09,9E+09,9E+09,9E+09,9E+09,9E+09]],v50,z0,T2_R2\WObj:=DHI_WO_R2;
     MoveJ [[-45.050,72.130,-3.000],[9.73406E-05,-0.156597,-0.987662,-8.78936E-05],[-1,-1,-3,1],[9E+09,9E+09,9E+09,9E+09,9E+09,9E+09]],v50,z0,T2_R2\WObj:=DHI_WO_R2;
     MoveJ [[-45.240,72.109,-3.000],[9.73406E-05,-0.156597,-0.987662,-8.78936E-05],[-1,-1,-3,1],[9E+09,9E+09,9E+09,9E+09,9E+09,9E+09]],v50,z0,T2_R2\WObj:=DHI_WO_R2;
     MoveJ [[-45.430,72.087,-3.000],[9.73406E-05,-0.156597,-0.987662,-8.78936E-05],[-1,-1,-3,1],[9E+09,9E+09,9E+09,9E+09,9E+09,9E+09]],v50,z0,T2_R2\WObj:=DHI_WO_R2;
     MoveJ [[-45.620,72.066,-3.000],[9.73406E-05,-0.156597,-0.987662,-8.78936E-05],[-1,-1,-3,1],[9E+09,9E+09,9E+09,9E+09,9E+09,9E+09]],v50,z0,T2_R2\WObj:=DHI_WO_R2;
     MoveJ [[-46.760,71.939,-3.000],[9.73406E-05,-0.156597,-0.987662,-8.78936E-05],[-1,-1,-3,1],[9E+09,9E+09,9E+09,9E+09,9E+09,9E+09]],v50,z0,T2_R2\WObj:=DHI_WO_R2;
     MoveJ [[-46.950,71.918,-3.000],[9.73406E-05,-0.156597,-0.987662,-8.78936E-05],[-1,-1,-3,1],[9E+09,9E+09,9E+09,9E+09,9E+09,9E+09]],v50,z0,T2_R2\WObj:=DHI_WO_R2;
     MoveJ [[-49.800,71.576,-3.000],[9.73406E-05,-0.156597,-0.987662,-8.78936E-05],[-1,-1,-3,1],[9E+09,9E+09,9E+09,9E+09,9E+09,9E+09]],v50,z0,T2_R2\WObj:=DHI_WO_R2;
     MoveJ [[-49.990,71.553,-3.000],[9.73406E-05,-0.156597,-0.987662,-8.78936E-05],[-1,-1,-3,1],[9E+09,9E+09,9E+09,9E+09,9E+09,9E+09]],v50,z0,T2_R2\WObj:=DHI_WO_R2;
     MoveJ [[-50.180,71.531,-3.000],[9.73406E-05,-0.156597,-0.987662,-8.78936E-05],[-1,-1,-3,1],[9E+09,9E+09,9E+09,9E+09,9E+09,9E+09]],v50,z0,T2_R2\WObj:=DHI_WO_R2;
     MoveJ [[-50.370,71.509,-3.000],[9.73406E-05,-0.156597,-0.987662,-8.78936E-05],[-1,-1,-3,1],[9E+09,9E+09,9E+09,9E+09,9E+09,9E+09]],v50,z0,T2_R2\WObj:=DHI_WO_R2;
     MoveJ [[-50.500,71.493,-3.000],[9.73406E-05,-0.156597,-0.987662,-8.78936E-05],[-1,-1,-3,1],[9E+09,9E+09,9E+09,9E+09,9E+09,9E+09]],v50,z0,T2_R2\WObj:=DHI_WO_R2;
     MoveJ [[-50.560,71.486,-3.000],[9.73406E-05,-0.156597,-0.987662,-8.78936E-05],[-1,-1,-3,1],[9E+09,9E+09,9E+09,9E+09,9E+09,9E+09]],v50,z0,T2_R2\WObj:=DHI_WO_R2;
     MoveJ [[-53.980,71.056,-3.000],[9.73406E-05,-0.156597,-0.987662,-8.78936E-05],[-1,-1,-3,1],[9E+09,9E+09,9E+09,9E+09,9E+09,9E+09]],v50,z0,T2_R2\WObj:=DHI_WO_R2;
     MoveJ [[-54.170,71.033,-3.000],[9.73406E-05,-0.156597,-0.987662,-8.78936E-05],[-1,-1,-3,1],[9E+09,9E+09,9E+09,9E+09,9E+09,9E+09]],v50,z0,T2_R2\WObj:=DHI_WO_R2;
     MoveJ [[-55.120,70.920,-3.000],[9.73406E-05,-0.156597,-0.987662,-8.78936E-05],[-1,-1,-3,1],[9E+09,9E+09,9E+09,9E+09,9E+09,9E+09]],v50,z0,T2_R2\WObj:=DHI_WO_R2;
     MoveJ [[-55.310,70.894,-3.000],[9.73406E-05,-0.156597,-0.987662,-8.78936E-05],[-1,-1,-3,1],[9E+09,9E+09,9E+09,9E+09,9E+09,9E+09]],v50,z0,T2_R2\WObj:=DHI_WO_R2;
     MoveJ [[-57.410,70.606,-3.000],[9.73406E-05,-0.156597,-0.987662,-8.78936E-05],[-1,-1,-3,1],[9E+09,9E+09,9E+09,9E+09,9E+09,9E+09]],v50,z0,T2_R2\WObj:=DHI_WO_R2;
     MoveJ [[-57.600,70.580,-3.000],[9.73406E-05,-0.156597,-0.987662,-8.78936E-05],[-1,-1,-3,1],[9E+09,9E+09,9E+09,9E+09,9E+09,9E+09]],v50,z0,T2_R2\WObj:=DHI_WO_R2;
     MoveJ [[-59.310,70.344,-3.000],[9.73406E-05,-0.156597,-0.987662,-8.78936E-05],[-1,-1,-3,1],[9E+09,9E+09,9E+09,9E+09,9E+09,9E+09]],v50,z0,T2_R2\WObj:=DHI_WO_R2;
     MoveJ [[-59.500,70.318,-3.000],[9.73406E-05,-0.156597,-0.987662,-8.78936E-05],[-1,-1,-3,1],[9E+09,9E+09,9E+09,9E+09,9E+09,9E+09]],v50,z0,T2_R2\WObj:=DHI_WO_R2;
     MoveJ [[-59.690,70.295,-3.000],[9.73406E-05,-0.156597,-0.987662,-8.78936E-05],[-1,-1,-3,1],[9E+09,9E+09,9E+09,9E+09,9E+09,9E+09]],v50,z0,T2_R2\WObj:=DHI_WO_R2;
     MoveJ [[-59.880,70.269,-3.000],[9.73406E-05,-0.156597,-0.987662,-8.78936E-05],[-1,-1,-3,1],[9E+09,9E+09,9E+09,9E+09,9E+09,9E+09]],v50,z0,T2_R2\WObj:=DHI_WO_R2;
     MoveJ [[-61.400,70.054,-3.000],[9.73406E-05,-0.156597,-0.987662,-8.78936E-05],[-1,-1,-3,1],[9E+09,9E+09,9E+09,9E+09,9E+09,9E+09]],v50,z0,T2_R2\WObj:=DHI_WO_R2;
     MoveJ [[-61.590,70.028,-3.000],[9.73406E-05,-0.156597,-0.987662,-8.78936E-05],[-1,-1,-3,1],[9E+09,9E+09,9E+09,9E+09,9E+09,9E+09]],v50,z0,T2_R2\WObj:=DHI_WO_R2;
     MoveJ [[-61.780,70.002,-3.000],[9.73406E-05,-0.156597,-0.987662,-8.78936E-05],[-1,-1,-3,1],[9E+09,9E+09,9E+09,9E+09,9E+09,9E+09]],v50,z0,T2_R2\WObj:=DHI_WO_R2;
     MoveJ [[-61.970,69.976,-3.000],[9.73406E-05,-0.156597,-0.987662,-8.78936E-05],[-1,-1,-3,1],[9E+09,9E+09,9E+09,9E+09,9E+09,9E+09]],v50,z0,T2_R2\WObj:=DHI_WO_R2;
     MoveJ [[-63.680,69.730,-3.000],[9.73406E-05,-0.156597,-0.987662,-8.78936E-05],[-1,-1,-3,1],[9E+09,9E+09,9E+09,9E+09,9E+09,9E+09]],v50,z0,T2_R2\WObj:=DHI_WO_R2;
     MoveJ [[-63.870,69.702,-3.000],[9.73406E-05,-0.156597,-0.987662,-8.78936E-05],[-1,-1,-3,1],[9E+09,9E+09,9E+09,9E+09,9E+09,9E+09]],v50,z0,T2_R2\WObj:=DHI_WO_R2;
     MoveJ [[-64.060,69.676,-3.000],[9.73406E-05,-0.156597,-0.987662,-8.78936E-05],[-1,-1,-3,1],[9E+09,9E+09,9E+09,9E+09,9E+09,9E+09]],v50,z0,T2_R2\WObj:=DHI_WO_R2;
     MoveJ [[-64.250,69.649,-3.000],[9.73406E-05,-0.156597,-0.987662,-8.78936E-05],[-1,-1,-3,1],[9E+09,9E+09,9E+09,9E+09,9E+09,9E+09]],v50,z0,T2_R2\WObj:=DHI_WO_R2;
     MoveJ [[-65.960,69.397,-3.000],[9.73406E-05,-0.156597,-0.987662,-8.78936E-05],[-1,-1,-3,1],[9E+09,9E+09,9E+09,9E+09,9E+09,9E+09]],v50,z0,T2_R2\WObj:=DHI_WO_R2;
     MoveJ [[-66.150,69.369,-3.000],[9.73406E-05,-0.156597,-0.987662,-8.78936E-05],[-1,-1,-3,1],[9E+09,9E+09,9E+09,9E+09,9E+09,9E+09]],v50,z0,T2_R2\WObj:=DHI_WO_R2;
     MoveJ [[-66.340,69.342,-3.000],[9.73406E-05,-0.156597,-0.987662,-8.78936E-05],[-1,-1,-3,1],[9E+09,9E+09,9E+09,9E+09,9E+09,9E+09]],v50,z0,T2_R2\WObj:=DHI_WO_R2;
     MoveJ [[-68.240,69.056,-3.000],[9.73406E-05,-0.156597,-0.987662,-8.78936E-05],[-1,-1,-3,1],[9E+09,9E+09,9E+09,9E+09,9E+09,9E+09]],v50,z0,T2_R2\WObj:=DHI_WO_R2;
     MoveJ [[-68.430,69.027,-3.000],[9.73406E-05,-0.156597,-0.987662,-8.78936E-05],[-1,-1,-3,1],[9E+09,9E+09,9E+09,9E+09,9E+09,9E+09]],v50,z0,T2_R2\WObj:=DHI_WO_R2;
     MoveJ [[-68.470,69.022,-3.000],[9.73406E-05,-0.156597,-0.987662,-8.78936E-05],[-1,-1,-3,1],[9E+09,9E+09,9E+09,9E+09,9E+09,9E+09]],v50,z0,T2_R2\WObj:=DHI_WO_R2;
     MoveJ [[-68.810,68.969,-3.000],[9.73406E-05,-0.156597,-0.987662,-8.78936E-05],[-1,-1,-3,1],[9E+09,9E+09,9E+09,9E+09,9E+09,9E+09]],v50,z0,T2_R2\WObj:=DHI_WO_R2;
     MoveJ [[-69.000,68.940,-3.000],[9.73406E-05,-0.156597,-0.987662,-8.78936E-05],[-1,-1,-3,1],[9E+09,9E+09,9E+09,9E+09,9E+09,9E+09]],v50,z0,T2_R2\WObj:=DHI_WO_R2;
     MoveJ [[-70.520,68.707,-3.000],[9.73406E-05,-0.156597,-0.987662,-8.78936E-05],[-1,-1,-3,1],[9E+09,9E+09,9E+09,9E+09,9E+09,9E+09]],v50,z0,T2_R2\WObj:=DHI_WO_R2;
     MoveJ [[-70.710,68.677,-3.000],[9.73406E-05,-0.156597,-0.987662,-8.78936E-05],[-1,-1,-3,1],[9E+09,9E+09,9E+09,9E+09,9E+09,9E+09]],v50,z0,T2_R2\WObj:=DHI_WO_R2;
     MoveJ [[-72.620,68.379,-3.000],[9.73406E-05,-0.156597,-0.987662,-8.78936E-05],[-1,-1,-3,1],[9E+09,9E+09,9E+09,9E+09,9E+09,9E+09]],v50,z0,T2_R2\WObj:=DHI_WO_R2;
     MoveJ [[-72.810,68.349,-3.000],[9.73406E-05,-0.156597,-0.987662,-8.78936E-05],[-1,-1,-3,1],[9E+09,9E+09,9E+09,9E+09,9E+09,9E+09]],v50,z0,T2_R2\WObj:=DHI_WO_R2;
     MoveJ [[-73.000,68.318,-3.000],[9.73406E-05,-0.156597,-0.987662,-8.78936E-05],[-1,-1,-3,1],[9E+09,9E+09,9E+09,9E+09,9E+09,9E+09]],v50,z0,T2_R2\WObj:=DHI_WO_R2;
     MoveJ [[-74.710,68.045,-3.000],[9.73406E-05,-0.156597,-0.987662,-8.78936E-05],[-1,-1,-3,1],[9E+09,9E+09,9E+09,9E+09,9E+09,9E+09]],v50,z0,T2_R2\WObj:=DHI_WO_R2;
     MoveJ [[-74.900,68.014,-3.000],[9.73406E-05,-0.156597,-0.987662,-8.78936E-05],[-1,-1,-3,1],[9E+09,9E+09,9E+09,9E+09,9E+09,9E+09]],v50,z0,T2_R2\WObj:=DHI_WO_R2;
     MoveJ [[-75.090,67.982,-3.000],[9.73406E-05,-0.156597,-0.987662,-8.78936E-05],[-1,-1,-3,1],[9E+09,9E+09,9E+09,9E+09,9E+09,9E+09]],v50,z0,T2_R2\WObj:=DHI_WO_R2;
     MoveJ [[-75.280,67.951,-3.000],[9.73406E-05,-0.156597,-0.987662,-8.78936E-05],[-1,-1,-3,1],[9E+09,9E+09,9E+09,9E+09,9E+09,9E+09]],v50,z0,T2_R2\WObj:=DHI_WO_R2;
     MoveJ [[-76.990,67.673,-3.000],[9.73406E-05,-0.156597,-0.987662,-8.78936E-05],[-1,-1,-3,1],[9E+09,9E+09,9E+09,9E+09,9E+09,9E+09]],v50,z0,T2_R2\WObj:=DHI_WO_R2;
     MoveJ [[-77.180,67.640,-3.000],[9.73406E-05,-0.156597,-0.987662,-8.78936E-05],[-1,-1,-3,1],[9E+09,9E+09,9E+09,9E+09,9E+09,9E+09]],v50,z0,T2_R2\WObj:=DHI_WO_R2;
     MoveJ [[-77.370,67.608,-3.000],[9.73406E-05,-0.156597,-0.987662,-8.78936E-05],[-1,-1,-3,1],[9E+09,9E+09,9E+09,9E+09,9E+09,9E+09]],v50,z0,T2_R2\WObj:=DHI_WO_R2;
     MoveJ [[-77.560,67.576,-3.000],[9.73406E-05,-0.156597,-0.987662,-8.78936E-05],[-1,-1,-3,1],[9E+09,9E+09,9E+09,9E+09,9E+09,9E+09]],v50,z0,T2_R2\WObj:=DHI_WO_R2;
     MoveJ [[-79.080,67.325,-3.000],[9.73406E-05,-0.156597,-0.987662,-8.78936E-05],[-1,-1,-3,1],[9E+09,9E+09,9E+09,9E+09,9E+09,9E+09]],v50,z0,T2_R2\WObj:=DHI_WO_R2;
     MoveJ [[-79.160,67.311,-3.000],[9.73406E-05,-0.156597,-0.987662,-8.78936E-05],[-1,-1,-3,1],[9E+09,9E+09,9E+09,9E+09,9E+09,9E+09]],v50,z0,T2_R2\WObj:=DHI_WO_R2;
     MoveJ [[-79.460,67.259,-3.000],[9.73406E-05,-0.156597,-0.987662,-8.78936E-05],[-1,-1,-3,1],[9E+09,9E+09,9E+09,9E+09,9E+09,9E+09]],v50,z0,T2_R2\WObj:=DHI_WO_R2;
     MoveJ [[-79.650,67.226,-3.000],[9.73406E-05,-0.156597,-0.987662,-8.78936E-05],[-1,-1,-3,1],[9E+09,9E+09,9E+09,9E+09,9E+09,9E+09]],v50,z0,T2_R2\WObj:=DHI_WO_R2;
     MoveJ [[-81.170,66.970,-3.000],[9.73406E-05,-0.156597,-0.987662,-8.78936E-05],[-1,-1,-3,1],[9E+09,9E+09,9E+09,9E+09,9E+09,9E+09]],v50,z0,T2_R2\WObj:=DHI_WO_R2;
     MoveJ [[-81.360,66.937,-3.000],[9.73406E-05,-0.156597,-0.987662,-8.78936E-05],[-1,-1,-3,1],[9E+09,9E+09,9E+09,9E+09,9E+09,9E+09]],v50,z0,T2_R2\WObj:=DHI_WO_R2;
     MoveJ [[-81.550,66.903,-3.000],[9.73406E-05,-0.156597,-0.987662,-8.78936E-05],[-1,-1,-3,1],[9E+09,9E+09,9E+09,9E+09,9E+09,9E+09]],v50,z0,T2_R2\WObj:=DHI_WO_R2;
     MoveJ [[-81.740,66.870,-3.000],[9.73406E-05,-0.156597,-0.987662,-8.78936E-05],[-1,-1,-3,1],[9E+09,9E+09,9E+09,9E+09,9E+09,9E+09]],v50,z0,T2_R2\WObj:=DHI_WO_R2;
     MoveJ [[-81.930,66.837,-3.000],[9.73406E-05,-0.156597,-0.987662,-8.78936E-05],[-1,-1,-3,1],[9E+09,9E+09,9E+09,9E+09,9E+09,9E+09]],v50,z0,T2_R2\WObj:=DHI_WO_R2;
     MoveJ [[-83.260,66.609,-3.000],[9.73406E-05,-0.156597,-0.987662,-8.78936E-05],[-1,-1,-3,1],[9E+09,9E+09,9E+09,9E+09,9E+09,9E+09]],v50,z0,T2_R2\WObj:=DHI_WO_R2;
     MoveJ [[-83.450,66.575,-3.000],[9.73406E-05,-0.156597,-0.987662,-8.78936E-05],[-1,-1,-3,1],[9E+09,9E+09,9E+09,9E+09,9E+09,9E+09]],v50,z0,T2_R2\WObj:=DHI_WO_R2;
     MoveJ [[-83.830,66.507,-3.000],[9.73406E-05,-0.156597,-0.987662,-8.78936E-05],[-1,-1,-3,1],[9E+09,9E+09,9E+09,9E+09,9E+09,9E+09]],v50,z0,T2_R2\WObj:=DHI_WO_R2;
     MoveJ [[-84.020,66.474,-3.000],[9.73406E-05,-0.156597,-0.987662,-8.78936E-05],[-1,-1,-3,1],[9E+09,9E+09,9E+09,9E+09,9E+09,9E+09]],v50,z0,T2_R2\WObj:=DHI_WO_R2;
     MoveJ [[-85.160,66.275,-3.000],[9.73406E-05,-0.156597,-0.987662,-8.78936E-05],[-1,-1,-3,1],[9E+09,9E+09,9E+09,9E+09,9E+09,9E+09]],v50,z0,T2_R2\WObj:=DHI_WO_R2;
     MoveJ [[-85.350,66.242,-3.000],[9.73406E-05,-0.156597,-0.987662,-8.78936E-05],[-1,-1,-3,1],[9E+09,9E+09,9E+09,9E+09,9E+09,9E+09]],v50,z0,T2_R2\WObj:=DHI_WO_R2;
     MoveJ [[-85.920,66.138,-3.000],[9.73406E-05,-0.156597,-0.987662,-8.78936E-05],[-1,-1,-3,1],[9E+09,9E+09,9E+09,9E+09,9E+09,9E+09]],v50,z0,T2_R2\WObj:=DHI_WO_R2;
     MoveJ [[-86.110,66.103,-3.000],[9.73406E-05,-0.156597,-0.987662,-8.78936E-05],[-1,-1,-3,1],[9E+09,9E+09,9E+09,9E+09,9E+09,9E+09]],v50,z0,T2_R2\WObj:=DHI_WO_R2;
     MoveJ [[-87.260,65.901,-3.000],[9.73406E-05,-0.156597,-0.987662,-8.78936E-05],[-1,-1,-3,1],[9E+09,9E+09,9E+09,9E+09,9E+09,9E+09]],v50,z0,T2_R2\WObj:=DHI_WO_R2;
     MoveJ [[-87.450,65.867,-3.000],[9.73406E-05,-0.156597,-0.987662,-8.78936E-05],[-1,-1,-3,1],[9E+09,9E+09,9E+09,9E+09,9E+09,9E+09]],v50,z0,T2_R2\WObj:=DHI_WO_R2;
     MoveJ [[-88.020,65.762,-3.000],[9.73406E-05,-0.156597,-0.987662,-8.78936E-05],[-1,-1,-3,1],[9E+09,9E+09,9E+09,9E+09,9E+09,9E+09]],v50,z0,T2_R2\WObj:=DHI_WO_R2;
     MoveJ [[-88.210,65.727,-3.000],[9.73406E-05,-0.156597,-0.987662,-8.78936E-05],[-1,-1,-3,1],[9E+09,9E+09,9E+09,9E+09,9E+09,9E+09]],v50,z0,T2_R2\WObj:=DHI_WO_R2;
     MoveJ [[-89.350,65.522,-3.000],[9.73406E-05,-0.156597,-0.987662,-8.78936E-05],[-1,-1,-3,1],[9E+09,9E+09,9E+09,9E+09,9E+09,9E+09]],v50,z0,T2_R2\WObj:=DHI_WO_R2;
     MoveJ [[-89.540,65.486,-3.000],[9.73406E-05,-0.156597,-0.987662,-8.78936E-05],[-1,-1,-3,1],[9E+09,9E+09,9E+09,9E+09,9E+09,9E+09]],v50,z0,T2_R2\WObj:=DHI_WO_R2;
     MoveJ [[-90.110,65.379,-3.000],[9.73406E-05,-0.156597,-0.987662,-8.78936E-05],[-1,-1,-3,1],[9E+09,9E+09,9E+09,9E+09,9E+09,9E+09]],v50,z0,T2_R2\WObj:=DHI_WO_R2;
     MoveJ [[-90.300,65.344,-3.000],[9.73406E-05,-0.156597,-0.987662,-8.78936E-05],[-1,-1,-3,1],[9E+09,9E+09,9E+09,9E+09,9E+09,9E+09]],v50,z0,T2_R2\WObj:=DHI_WO_R2;
     MoveJ [[-91.250,65.170,-3.000],[9.73406E-05,-0.156597,-0.987662,-8.78936E-05],[-1,-1,-3,1],[9E+09,9E+09,9E+09,9E+09,9E+09,9E+09]],v50,z0,T2_R2\WObj:=DHI_WO_R2;
     MoveJ [[-91.440,65.135,-3.000],[9.73406E-05,-0.156597,-0.987662,-8.78936E-05],[-1,-1,-3,1],[9E+09,9E+09,9E+09,9E+09,9E+09,9E+09]],v50,z0,T2_R2\WObj:=DHI_WO_R2;
     MoveJ [[-92.200,64.990,-3.000],[9.73406E-05,-0.156597,-0.987662,-8.78936E-05],[-1,-1,-3,1],[9E+09,9E+09,9E+09,9E+09,9E+09,9E+09]],v50,z0,T2_R2\WObj:=DHI_WO_R2;
     MoveJ [[-92.390,64.955,-3.000],[9.73406E-05,-0.156597,-0.987662,-8.78936E-05],[-1,-1,-3,1],[9E+09,9E+09,9E+09,9E+09,9E+09,9E+09]],v50,z0,T2_R2\WObj:=DHI_WO_R2;
     MoveJ [[-93.340,64.778,-3.000],[9.73406E-05,-0.156597,-0.987662,-8.78936E-05],[-1,-1,-3,1],[9E+09,9E+09,9E+09,9E+09,9E+09,9E+09]],v50,z0,T2_R2\WObj:=DHI_WO_R2;
     MoveJ [[-93.530,64.742,-3.000],[9.73406E-05,-0.156597,-0.987662,-8.78936E-05],[-1,-1,-3,1],[9E+09,9E+09,9E+09,9E+09,9E+09,9E+09]],v50,z0,T2_R2\WObj:=DHI_WO_R2;
     MoveJ [[-94.290,64.595,-3.000],[9.73406E-05,-0.156597,-0.987662,-8.78936E-05],[-1,-1,-3,1],[9E+09,9E+09,9E+09,9E+09,9E+09,9E+09]],v50,z0,T2_R2\WObj:=DHI_WO_R2;
     MoveJ [[-94.480,64.559,-3.000],[9.73406E-05,-0.156597,-0.987662,-8.78936E-05],[-1,-1,-3,1],[9E+09,9E+09,9E+09,9E+09,9E+09,9E+09]],v50,z0,T2_R2\WObj:=DHI_WO_R2;
     MoveJ [[-95.240,64.415,-3.000],[9.73406E-05,-0.156597,-0.987662,-8.78936E-05],[-1,-1,-3,1],[9E+09,9E+09,9E+09,9E+09,9E+09,9E+09]],v50,z0,T2_R2\WObj:=DHI_WO_R2;
     MoveJ [[-95.430,64.379,-3.000],[9.73406E-05,-0.156597,-0.987662,-8.78936E-05],[-1,-1,-3,1],[9E+09,9E+09,9E+09,9E+09,9E+09,9E+09]],v50,z0,T2_R2\WObj:=DHI_WO_R2;
     MoveJ [[-96.190,64.230,-3.000],[9.73406E-05,-0.156597,-0.987662,-8.78936E-05],[-1,-1,-3,1],[9E+09,9E+09,9E+09,9E+09,9E+09,9E+09]],v50,z0,T2_R2\WObj:=DHI_WO_R2;
     MoveJ [[-96.380,64.193,-3.000],[9.73406E-05,-0.156597,-0.987662,-8.78936E-05],[-1,-1,-3,1],[9E+09,9E+09,9E+09,9E+09,9E+09,9E+09]],v50,z0,T2_R2\WObj:=DHI_WO_R2;
     MoveJ [[-96.570,64.156,-3.000],[9.73406E-05,-0.156597,-0.987662,-8.78936E-05],[-1,-1,-3,1],[9E+09,9E+09,9E+09,9E+09,9E+09,9E+09]],v50,z0,T2_R2\WObj:=DHI_WO_R2;
     MoveJ [[-97.330,64.011,-3.000],[9.73406E-05,-0.156597,-0.987662,-8.78936E-05],[-1,-1,-3,1],[9E+09,9E+09,9E+09,9E+09,9E+09,9E+09]],v50,z0,T2_R2\WObj:=DHI_WO_R2;
     MoveJ [[-97.520,63.973,-3.000],[9.73406E-05,-0.156597,-0.987662,-8.78936E-05],[-1,-1,-3,1],[9E+09,9E+09,9E+09,9E+09,9E+09,9E+09]],v50,z0,T2_R2\WObj:=DHI_WO_R2;
     MoveJ [[-98.280,63.822,-3.000],[9.73406E-05,-0.156597,-0.987662,-8.78936E-05],[-1,-1,-3,1],[9E+09,9E+09,9E+09,9E+09,9E+09,9E+09]],v50,z0,T2_R2\WObj:=DHI_WO_R2;
     MoveJ [[-98.470,63.784,-3.000],[9.73406E-05,-0.156597,-0.987662,-8.78936E-05],[-1,-1,-3,1],[9E+09,9E+09,9E+09,9E+09,9E+09,9E+09]],v50,z0,T2_R2\WObj:=DHI_WO_R2;
     MoveJ [[-99.230,63.636,-3.000],[9.73406E-05,-0.156597,-0.987662,-8.78936E-05],[-1,-1,-3,1],[9E+09,9E+09,9E+09,9E+09,9E+09,9E+09]],v50,z0,T2_R2\WObj:=DHI_WO_R2;
     MoveJ [[-99.420,63.599,-3.000],[9.73406E-05,-0.156597,-0.987662,-8.78936E-05],[-1,-1,-3,1],[9E+09,9E+09,9E+09,9E+09,9E+09,9E+09]],v50,z0,T2_R2\WObj:=DHI_WO_R2;
     MoveJ [[-100.370,63.407,-3.000],[9.73406E-05,-0.156597,-0.987662,-8.78936E-05],[-1,-1,-3,1],[9E+09,9E+09,9E+09,9E+09,9E+09,9E+09]],v50,z0,T2_R2\WObj:=DHI_WO_R2;
     MoveJ [[-100.560,63.369,-3.000],[9.73406E-05,-0.156597,-0.987662,-8.78936E-05],[-1,-1,-3,1],[9E+09,9E+09,9E+09,9E+09,9E+09,9E+09]],v50,z0,T2_R2\WObj:=DHI_WO_R2;
     MoveJ [[-101.130,63.257,-3.000],[9.73406E-05,-0.156597,-0.987662,-8.78936E-05],[-1,-1,-3,1],[9E+09,9E+09,9E+09,9E+09,9E+09,9E+09]],v50,z0,T2_R2\WObj:=DHI_WO_R2;
     MoveJ [[-101.320,63.219,-3.000],[9.73406E-05,-0.156597,-0.987662,-8.78936E-05],[-1,-1,-3,1],[9E+09,9E+09,9E+09,9E+09,9E+09,9E+09]],v50,z0,T2_R2\WObj:=DHI_WO_R2;
     MoveJ [[-102.270,63.024,-3.000],[9.73406E-05,-0.156597,-0.987662,-8.78936E-05],[-1,-1,-3,1],[9E+09,9E+09,9E+09,9E+09,9E+09,9E+09]],v50,z0,T2_R2\WObj:=DHI_WO_R2;
     MoveJ [[-102.470,62.986,-3.000],[9.73406E-05,-0.156597,-0.987662,-8.78936E-05],[-1,-1,-3,1],[9E+09,9E+09,9E+09,9E+09,9E+09,9E+09]],v50,z0,T2_R2\WObj:=DHI_WO_R2;
     MoveJ [[-103.040,62.872,-3.000],[9.73406E-05,-0.156597,-0.987662,-8.78936E-05],[-1,-1,-3,1],[9E+09,9E+09,9E+09,9E+09,9E+09,9E+09]],v50,z0,T2_R2\WObj:=DHI_WO_R2;
     MoveJ [[-103.230,62.833,-3.000],[9.73406E-05,-0.156597,-0.987662,-8.78936E-05],[-1,-1,-3,1],[9E+09,9E+09,9E+09,9E+09,9E+09,9E+09]],v50,z0,T2_R2\WObj:=DHI_WO_R2;
     MoveJ [[-104.180,62.636,-3.000],[9.73406E-05,-0.156597,-0.987662,-8.78936E-05],[-1,-1,-3,1],[9E+09,9E+09,9E+09,9E+09,9E+09,9E+09]],v50,z0,T2_R2\WObj:=DHI_WO_R2;
     MoveJ [[-104.370,62.597,-3.000],[9.73406E-05,-0.156597,-0.987662,-8.78936E-05],[-1,-1,-3,1],[9E+09,9E+09,9E+09,9E+09,9E+09,9E+09]],v50,z0,T2_R2\WObj:=DHI_WO_R2;
     MoveJ [[-104.940,62.481,-3.000],[9.73406E-05,-0.156597,-0.987662,-8.78936E-05],[-1,-1,-3,1],[9E+09,9E+09,9E+09,9E+09,9E+09,9E+09]],v50,z0,T2_R2\WObj:=DHI_WO_R2;
     MoveJ [[-105.130,62.442,-3.000],[9.73406E-05,-0.156597,-0.987662,-8.78936E-05],[-1,-1,-3,1],[9E+09,9E+09,9E+09,9E+09,9E+09,9E+09]],v50,z0,T2_R2\WObj:=DHI_WO_R2;
     MoveJ [[-106.080,62.242,-3.000],[9.73406E-05,-0.156597,-0.987662,-8.78936E-05],[-1,-1,-3,1],[9E+09,9E+09,9E+09,9E+09,9E+09,9E+09]],v50,z0,T2_R2\WObj:=DHI_WO_R2;
     MoveJ [[-106.270,62.202,-3.000],[9.73406E-05,-0.156597,-0.987662,-8.78936E-05],[-1,-1,-3,1],[9E+09,9E+09,9E+09,9E+09,9E+09,9E+09]],v50,z0,T2_R2\WObj:=DHI_WO_R2;
     MoveJ [[-106.840,62.085,-3.000],[9.73406E-05,-0.156597,-0.987662,-8.78936E-05],[-1,-1,-3,1],[9E+09,9E+09,9E+09,9E+09,9E+09,9E+09]],v50,z0,T2_R2\WObj:=DHI_WO_R2;
     MoveJ [[-107.030,62.045,-3.000],[9.73406E-05,-0.156597,-0.987662,-8.78936E-05],[-1,-1,-3,1],[9E+09,9E+09,9E+09,9E+09,9E+09,9E+09]],v50,z0,T2_R2\WObj:=DHI_WO_R2;
     MoveJ [[-107.980,61.843,-3.000],[9.73406E-05,-0.156597,-0.987662,-8.78936E-05],[-1,-1,-3,1],[9E+09,9E+09,9E+09,9E+09,9E+09,9E+09]],v50,z0,T2_R2\WObj:=DHI_WO_R2;
     MoveJ [[-108.170,61.802,-3.000],[9.73406E-05,-0.156597,-0.987662,-8.78936E-05],[-1,-1,-3,1],[9E+09,9E+09,9E+09,9E+09,9E+09,9E+09]],v50,z0,T2_R2\WObj:=DHI_WO_R2;
     MoveJ [[-108.740,61.683,-3.000],[9.73406E-05,-0.156597,-0.987662,-8.78936E-05],[-1,-1,-3,1],[9E+09,9E+09,9E+09,9E+09,9E+09,9E+09]],v50,z0,T2_R2\WObj:=DHI_WO_R2;
     MoveJ [[-108.930,61.643,-3.000],[9.73406E-05,-0.156597,-0.987662,-8.78936E-05],[-1,-1,-3,1],[9E+09,9E+09,9E+09,9E+09,9E+09,9E+09]],v50,z0,T2_R2\WObj:=DHI_WO_R2;
     MoveJ [[-109.970,61.418,-3.000],[9.73406E-05,-0.156597,-0.987662,-8.78936E-05],[-1,-1,-3,1],[9E+09,9E+09,9E+09,9E+09,9E+09,9E+09]],v50,z0,T2_R2\WObj:=DHI_WO_R2;
     MoveJ [[-110.070,61.396,-3.000],[9.73406E-05,-0.156597,-0.987662,-8.78936E-05],[-1,-1,-3,1],[9E+09,9E+09,9E+09,9E+09,9E+09,9E+09]],v50,z0,T2_R2\WObj:=DHI_WO_R2;
     MoveJ [[-110.640,61.275,-3.000],[9.73406E-05,-0.156597,-0.987662,-8.78936E-05],[-1,-1,-3,1],[9E+09,9E+09,9E+09,9E+09,9E+09,9E+09]],v50,z0,T2_R2\WObj:=DHI_WO_R2;
     MoveJ [[-110.830,61.234,-3.000],[9.73406E-05,-0.156597,-0.987662,-8.78936E-05],[-1,-1,-3,1],[9E+09,9E+09,9E+09,9E+09,9E+09,9E+09]],v50,z0,T2_R2\WObj:=DHI_WO_R2;
     MoveJ [[-111.780,61.026,-3.000],[9.73406E-05,-0.156597,-0.987662,-8.78936E-05],[-1,-1,-3,1],[9E+09,9E+09,9E+09,9E+09,9E+09,9E+09]],v50,z0,T2_R2\WObj:=DHI_WO_R2;
     MoveJ [[-111.970,60.984,-3.000],[9.73406E-05,-0.156597,-0.987662,-8.78936E-05],[-1,-1,-3,1],[9E+09,9E+09,9E+09,9E+09,9E+09,9E+09]],v50,z0,T2_R2\WObj:=DHI_WO_R2;
     MoveJ [[-112.350,60.903,-3.000],[9.73406E-05,-0.156597,-0.987662,-8.78936E-05],[-1,-1,-3,1],[9E+09,9E+09,9E+09,9E+09,9E+09,9E+09]],v50,z0,T2_R2\WObj:=DHI_WO_R2;
     MoveJ [[-112.540,60.862,-3.000],[9.73406E-05,-0.156597,-0.987662,-8.78936E-05],[-1,-1,-3,1],[9E+09,9E+09,9E+09,9E+09,9E+09,9E+09]],v50,z0,T2_R2\WObj:=DHI_WO_R2;
     MoveJ [[-113.680,60.609,-3.000],[9.73406E-05,-0.156597,-0.987662,-8.78936E-05],[-1,-1,-3,1],[9E+09,9E+09,9E+09,9E+09,9E+09,9E+09]],v50,z0,T2_R2\WObj:=DHI_WO_R2;
     MoveJ [[-113.870,60.567,-3.000],[9.73406E-05,-0.156597,-0.987662,-8.78936E-05],[-1,-1,-3,1],[9E+09,9E+09,9E+09,9E+09,9E+09,9E+09]],v50,z0,T2_R2\WObj:=DHI_WO_R2;
     MoveJ [[-114.250,60.484,-3.000],[9.73406E-05,-0.156597,-0.987662,-8.78936E-05],[-1,-1,-3,1],[9E+09,9E+09,9E+09,9E+09,9E+09,9E+09]],v50,z0,T2_R2\WObj:=DHI_WO_R2;
     MoveJ [[-114.330,60.468,-3.000],[9.73406E-05,-0.156597,-0.987662,-8.78936E-05],[-1,-1,-3,1],[9E+09,9E+09,9E+09,9E+09,9E+09,9E+09]],v50,z0,T2_R2\WObj:=DHI_WO_R2;
     MoveJ [[-115.390,60.228,-3.000],[9.73406E-05,-0.156597,-0.987662,-8.78936E-05],[-1,-1,-3,1],[9E+09,9E+09,9E+09,9E+09,9E+09,9E+09]],v50,z0,T2_R2\WObj:=DHI_WO_R2;
     MoveJ [[-115.580,60.185,-3.000],[9.73406E-05,-0.156597,-0.987662,-8.78936E-05],[-1,-1,-3,1],[9E+09,9E+09,9E+09,9E+09,9E+09,9E+09]],v50,z0,T2_R2\WObj:=DHI_WO_R2;
     MoveJ [[-116.030,60.088,-3.000],[9.73406E-05,-0.156597,-0.987662,-8.78936E-05],[-1,-1,-3,1],[9E+09,9E+09,9E+09,9E+09,9E+09,9E+09]],v50,z0,T2_R2\WObj:=DHI_WO_R2;
     MoveJ [[-116.150,60.059,-3.000],[9.73406E-05,-0.156597,-0.987662,-8.78936E-05],[-1,-1,-3,1],[9E+09,9E+09,9E+09,9E+09,9E+09,9E+09]],v50,z0,T2_R2\WObj:=DHI_WO_R2;
     MoveJ [[-117.290,59.799,-3.000],[9.73406E-05,-0.156597,-0.987662,-8.78936E-05],[-1,-1,-3,1],[9E+09,9E+09,9E+09,9E+09,9E+09,9E+09]],v50,z0,T2_R2\WObj:=DHI_WO_R2;
     MoveJ [[-117.480,59.756,-3.000],[9.73406E-05,-0.156597,-0.987662,-8.78936E-05],[-1,-1,-3,1],[9E+09,9E+09,9E+09,9E+09,9E+09,9E+09]],v50,z0,T2_R2\WObj:=DHI_WO_R2;
     MoveJ [[-117.700,59.707,-3.000],[9.73406E-05,-0.156597,-0.987662,-8.78936E-05],[-1,-1,-3,1],[9E+09,9E+09,9E+09,9E+09,9E+09,9E+09]],v50,z0,T2_R2\WObj:=DHI_WO_R2;
     MoveJ [[-117.860,59.671,-3.000],[9.73406E-05,-0.156597,-0.987662,-8.78936E-05],[-1,-1,-3,1],[9E+09,9E+09,9E+09,9E+09,9E+09,9E+09]],v50,z0,T2_R2\WObj:=DHI_WO_R2;
     MoveJ [[-119.010,59.408,-3.000],[9.73406E-05,-0.156597,-0.987662,-8.78936E-05],[-1,-1,-3,1],[9E+09,9E+09,9E+09,9E+09,9E+09,9E+09]],v50,z0,T2_R2\WObj:=DHI_WO_R2;
     MoveJ [[-119.200,59.364,-3.000],[9.73406E-05,-0.156597,-0.987662,-8.78936E-05],[-1,-1,-3,1],[9E+09,9E+09,9E+09,9E+09,9E+09,9E+09]],v50,z0,T2_R2\WObj:=DHI_WO_R2;
     MoveJ [[-119.390,59.321,-3.000],[9.73406E-05,-0.156597,-0.987662,-8.78936E-05],[-1,-1,-3,1],[9E+09,9E+09,9E+09,9E+09,9E+09,9E+09]],v50,z0,T2_R2\WObj:=DHI_WO_R2;
     MoveJ [[-119.580,59.278,-3.000],[9.73406E-05,-0.156597,-0.987662,-8.78936E-05],[-1,-1,-3,1],[9E+09,9E+09,9E+09,9E+09,9E+09,9E+09]],v50,z0,T2_R2\WObj:=DHI_WO_R2;
     MoveJ [[-120.720,59.011,-3.000],[9.73406E-05,-0.156597,-0.987662,-8.78936E-05],[-1,-1,-3,1],[9E+09,9E+09,9E+09,9E+09,9E+09,9E+09]],v50,z0,T2_R2\WObj:=DHI_WO_R2;
     MoveJ [[-120.910,58.967,-3.000],[9.73406E-05,-0.156597,-0.987662,-8.78936E-05],[-1,-1,-3,1],[9E+09,9E+09,9E+09,9E+09,9E+09,9E+09]],v50,z0,T2_R2\WObj:=DHI_WO_R2;
     MoveJ [[-121.100,58.923,-3.000],[9.73406E-05,-0.156597,-0.987662,-8.78936E-05],[-1,-1,-3,1],[9E+09,9E+09,9E+09,9E+09,9E+09,9E+09]],v50,z0,T2_R2\WObj:=DHI_WO_R2;
     MoveJ [[-121.290,58.879,-3.000],[9.73406E-05,-0.156597,-0.987662,-8.78936E-05],[-1,-1,-3,1],[9E+09,9E+09,9E+09,9E+09,9E+09,9E+09]],v50,z0,T2_R2\WObj:=DHI_WO_R2;
     MoveJ [[-122.430,58.610,-3.000],[9.73406E-05,-0.156597,-0.987662,-8.78936E-05],[-1,-1,-3,1],[9E+09,9E+09,9E+09,9E+09,9E+09,9E+09]],v50,z0,T2_R2\WObj:=DHI_WO_R2;
     MoveJ [[-122.620,58.565,-3.000],[9.73406E-05,-0.156597,-0.987662,-8.78936E-05],[-1,-1,-3,1],[9E+09,9E+09,9E+09,9E+09,9E+09,9E+09]],v50,z0,T2_R2\WObj:=DHI_WO_R2;
     MoveJ [[-122.810,58.521,-3.000],[9.73406E-05,-0.156597,-0.987662,-8.78936E-05],[-1,-1,-3,1],[9E+09,9E+09,9E+09,9E+09,9E+09,9E+09]],v50,z0,T2_R2\WObj:=DHI_WO_R2;
     MoveJ [[-123.760,58.293,-3.000],[9.73406E-05,-0.156597,-0.987662,-8.78936E-05],[-1,-1,-3,1],[9E+09,9E+09,9E+09,9E+09,9E+09,9E+09]],v50,z0,T2_R2\WObj:=DHI_WO_R2;
     MoveJ [[-123.950,58.248,-3.000],[9.73406E-05,-0.156597,-0.987662,-8.78936E-05],[-1,-1,-3,1],[9E+09,9E+09,9E+09,9E+09,9E+09,9E+09]],v50,z0,T2_R2\WObj:=DHI_WO_R2;
     MoveJ [[-124.210,58.187,-3.000],[9.73406E-05,-0.156597,-0.987662,-8.78936E-05],[-1,-1,-3,1],[9E+09,9E+09,9E+09,9E+09,9E+09,9E+09]],v50,z0,T2_R2\WObj:=DHI_WO_R2;
     MoveJ [[-124.330,58.158,-3.000],[9.73406E-05,-0.156597,-0.987662,-8.78936E-05],[-1,-1,-3,1],[9E+09,9E+09,9E+09,9E+09,9E+09,9E+09]],v50,z0,T2_R2\WObj:=DHI_WO_R2;
     MoveJ [[-125.280,57.928,-3.000],[9.73406E-05,-0.156597,-0.987662,-8.78936E-05],[-1,-1,-3,1],[9E+09,9E+09,9E+09,9E+09,9E+09,9E+09]],v50,z0,T2_R2\WObj:=DHI_WO_R2;
     MoveJ [[-125.470,57.882,-3.000],[9.73406E-05,-0.156597,-0.987662,-8.78936E-05],[-1,-1,-3,1],[9E+09,9E+09,9E+09,9E+09,9E+09,9E+09]],v50,z0,T2_R2\WObj:=DHI_WO_R2;
     MoveJ [[-125.660,57.837,-3.000],[9.73406E-05,-0.156597,-0.987662,-8.78936E-05],[-1,-1,-3,1],[9E+09,9E+09,9E+09,9E+09,9E+09,9E+09]],v50,z0,T2_R2\WObj:=DHI_WO_R2;
     MoveJ [[-126.800,57.558,-3.000],[9.73406E-05,-0.156597,-0.987662,-8.78936E-05],[-1,-1,-3,1],[9E+09,9E+09,9E+09,9E+09,9E+09,9E+09]],v50,z0,T2_R2\WObj:=DHI_WO_R2;
     MoveJ [[-126.990,57.512,-3.000],[9.73406E-05,-0.156597,-0.987662,-8.78936E-05],[-1,-1,-3,1],[9E+09,9E+09,9E+09,9E+09,9E+09,9E+09]],v50,z0,T2_R2\WObj:=DHI_WO_R2;
     MoveJ [[-127.180,57.465,-3.000],[9.73406E-05,-0.156597,-0.987662,-8.78936E-05],[-1,-1,-3,1],[9E+09,9E+09,9E+09,9E+09,9E+09,9E+09]],v50,z0,T2_R2\WObj:=DHI_WO_R2;
     MoveJ [[-128.130,57.230,-3.000],[9.73406E-05,-0.156597,-0.987662,-8.78936E-05],[-1,-1,-3,1],[9E+09,9E+09,9E+09,9E+09,9E+09,9E+09]],v50,z0,T2_R2\WObj:=DHI_WO_R2;
     MoveJ [[-128.320,57.183,-3.000],[9.73406E-05,-0.156597,-0.987662,-8.78936E-05],[-1,-1,-3,1],[9E+09,9E+09,9E+09,9E+09,9E+09,9E+09]],v50,z0,T2_R2\WObj:=DHI_WO_R2;
     MoveJ [[-128.510,57.137,-3.000],[9.73406E-05,-0.156597,-0.987662,-8.78936E-05],[-1,-1,-3,1],[9E+09,9E+09,9E+09,9E+09,9E+09,9E+09]],v50,z0,T2_R2\WObj:=DHI_WO_R2;
     MoveJ [[-129.650,56.852,-3.000],[9.73406E-05,-0.156597,-0.987662,-8.78936E-05],[-1,-1,-3,1],[9E+09,9E+09,9E+09,9E+09,9E+09,9E+09]],v50,z0,T2_R2\WObj:=DHI_WO_R2;
     MoveJ [[-129.840,56.805,-3.000],[9.73406E-05,-0.156597,-0.987662,-8.78936E-05],[-1,-1,-3,1],[9E+09,9E+09,9E+09,9E+09,9E+09,9E+09]],v50,z0,T2_R2\WObj:=DHI_WO_R2;
     MoveJ [[-130.030,56.757,-3.000],[9.73406E-05,-0.156597,-0.987662,-8.78936E-05],[-1,-1,-3,1],[9E+09,9E+09,9E+09,9E+09,9E+09,9E+09]],v50,z0,T2_R2\WObj:=DHI_WO_R2;
     MoveJ [[-130.980,56.516,-3.000],[9.73406E-05,-0.156597,-0.987662,-8.78936E-05],[-1,-1,-3,1],[9E+09,9E+09,9E+09,9E+09,9E+09,9E+09]],v50,z0,T2_R2\WObj:=DHI_WO_R2;
     MoveJ [[-131.140,56.476,-3.000],[9.73406E-05,-0.156597,-0.987662,-8.78936E-05],[-1,-1,-3,1],[9E+09,9E+09,9E+09,9E+09,9E+09,9E+09]],v50,z0,T2_R2\WObj:=DHI_WO_R2;
     MoveJ [[-131.170,56.468,-3.000],[9.73406E-05,-0.156597,-0.987662,-8.78936E-05],[-1,-1,-3,1],[9E+09,9E+09,9E+09,9E+09,9E+09,9E+09]],v50,z0,T2_R2\WObj:=DHI_WO_R2;
     MoveJ [[-131.360,56.420,-3.000],[9.73406E-05,-0.156597,-0.987662,-8.78936E-05],[-1,-1,-3,1],[9E+09,9E+09,9E+09,9E+09,9E+09,9E+09]],v50,z0,T2_R2\WObj:=DHI_WO_R2;
     MoveJ [[-132.310,56.177,-3.000],[9.73406E-05,-0.156597,-0.987662,-8.78936E-05],[-1,-1,-3,1],[9E+09,9E+09,9E+09,9E+09,9E+09,9E+09]],v50,z0,T2_R2\WObj:=DHI_WO_R2;
     MoveJ [[-132.500,56.129,-3.000],[9.73406E-05,-0.156597,-0.987662,-8.78936E-05],[-1,-1,-3,1],[9E+09,9E+09,9E+09,9E+09,9E+09,9E+09]],v50,z0,T2_R2\WObj:=DHI_WO_R2;
     MoveJ [[-132.630,56.096,-3.000],[9.73406E-05,-0.156597,-0.987662,-8.78936E-05],[-1,-1,-3,1],[9E+09,9E+09,9E+09,9E+09,9E+09,9E+09]],v50,z0,T2_R2\WObj:=DHI_WO_R2;
     MoveJ [[-133.640,55.834,-3.000],[9.73406E-05,-0.156597,-0.987662,-8.78936E-05],[-1,-1,-3,1],[9E+09,9E+09,9E+09,9E+09,9E+09,9E+09]],v50,z0,T2_R2\WObj:=DHI_WO_R2;
     MoveJ [[-133.840,55.785,-3.000],[9.73406E-05,-0.156597,-0.987662,-8.78936E-05],[-1,-1,-3,1],[9E+09,9E+09,9E+09,9E+09,9E+09,9E+09]],v50,z0,T2_R2\WObj:=DHI_WO_R2;
     MoveJ [[-134.030,55.736,-3.000],[9.73406E-05,-0.156597,-0.987662,-8.78936E-05],[-1,-1,-3,1],[9E+09,9E+09,9E+09,9E+09,9E+09,9E+09]],v50,z0,T2_R2\WObj:=DHI_WO_R2;
     MoveJ [[-134.980,55.487,-3.000],[9.73406E-05,-0.156597,-0.987662,-8.78936E-05],[-1,-1,-3,1],[9E+09,9E+09,9E+09,9E+09,9E+09,9E+09]],v50,z0,T2_R2\WObj:=DHI_WO_R2;
     MoveJ [[-135.170,55.437,-3.000],[9.73406E-05,-0.156597,-0.987662,-8.78936E-05],[-1,-1,-3,1],[9E+09,9E+09,9E+09,9E+09,9E+09,9E+09]],v50,z0,T2_R2\WObj:=DHI_WO_R2;
     MoveJ [[-135.360,55.387,-3.000],[9.73406E-05,-0.156597,-0.987662,-8.78936E-05],[-1,-1,-3,1],[9E+09,9E+09,9E+09,9E+09,9E+09,9E+09]],v50,z0,T2_R2\WObj:=DHI_WO_R2;
     MoveJ [[-136.310,55.136,-3.000],[9.73406E-05,-0.156597,-0.987662,-8.78936E-05],[-1,-1,-3,1],[9E+09,9E+09,9E+09,9E+09,9E+09,9E+09]],v50,z0,T2_R2\WObj:=DHI_WO_R2;
     MoveJ [[-136.500,55.085,-3.000],[9.73406E-05,-0.156597,-0.987662,-8.78936E-05],[-1,-1,-3,1],[9E+09,9E+09,9E+09,9E+09,9E+09,9E+09]],v50,z0,T2_R2\WObj:=DHI_WO_R2;
     MoveJ [[-136.690,55.035,-3.000],[9.73406E-05,-0.156597,-0.987662,-8.78936E-05],[-1,-1,-3,1],[9E+09,9E+09,9E+09,9E+09,9E+09,9E+09]],v50,z0,T2_R2\WObj:=DHI_WO_R2;
     MoveJ [[-137.690,54.765,-3.000],[9.73406E-05,-0.156597,-0.987662,-8.78936E-05],[-1,-1,-3,1],[9E+09,9E+09,9E+09,9E+09,9E+09,9E+09]],v50,z0,T2_R2\WObj:=DHI_WO_R2;
     MoveJ [[-137.830,54.729,-3.000],[9.73406E-05,-0.156597,-0.987662,-8.78936E-05],[-1,-1,-3,1],[9E+09,9E+09,9E+09,9E+09,9E+09,9E+09]],v50,z0,T2_R2\WObj:=DHI_WO_R2;
     MoveJ [[-138.970,54.420,-3.000],[9.73406E-05,-0.156597,-0.987662,-8.78936E-05],[-1,-1,-3,1],[9E+09,9E+09,9E+09,9E+09,9E+09,9E+09]],v50,z0,T2_R2\WObj:=DHI_WO_R2;
     MoveJ [[-139.100,54.385,-3.000],[9.73406E-05,-0.156597,-0.987662,-8.78936E-05],[-1,-1,-3,1],[9E+09,9E+09,9E+09,9E+09,9E+09,9E+09]],v50,z0,T2_R2\WObj:=DHI_WO_R2;
     MoveJ [[-140.110,54.108,-3.000],[9.73406E-05,-0.156597,-0.987662,-8.78936E-05],[-1,-1,-3,1],[9E+09,9E+09,9E+09,9E+09,9E+09,9E+09]],v50,z0,T2_R2\WObj:=DHI_WO_R2;
     MoveJ [[-140.300,54.056,-3.000],[9.73406E-05,-0.156597,-0.987662,-8.78936E-05],[-1,-1,-3,1],[9E+09,9E+09,9E+09,9E+09,9E+09,9E+09]],v50,z0,T2_R2\WObj:=DHI_WO_R2;
     MoveJ [[-140.490,54.003,-3.000],[9.73406E-05,-0.156597,-0.987662,-8.78936E-05],[-1,-1,-3,1],[9E+09,9E+09,9E+09,9E+09,9E+09,9E+09]],v50,z0,T2_R2\WObj:=DHI_WO_R2;
     MoveJ [[-141.440,53.739,-3.000],[9.73406E-05,-0.156597,-0.987662,-8.78936E-05],[-1,-1,-3,1],[9E+09,9E+09,9E+09,9E+09,9E+09,9E+09]],v50,z0,T2_R2\WObj:=DHI_WO_R2;
     MoveJ [[-141.630,53.686,-3.000],[9.73406E-05,-0.156597,-0.987662,-8.78936E-05],[-1,-1,-3,1],[9E+09,9E+09,9E+09,9E+09,9E+09,9E+09]],v50,z0,T2_R2\WObj:=DHI_WO_R2;
     MoveJ [[-142.580,53.419,-3.000],[9.73406E-05,-0.156597,-0.987662,-8.78936E-05],[-1,-1,-3,1],[9E+09,9E+09,9E+09,9E+09,9E+09,9E+09]],v50,z0,T2_R2\WObj:=DHI_WO_R2;
     MoveJ [[-142.770,53.365,-3.000],[9.73406E-05,-0.156597,-0.987662,-8.78936E-05],[-1,-1,-3,1],[9E+09,9E+09,9E+09,9E+09,9E+09,9E+09]],v50,z0,T2_R2\WObj:=DHI_WO_R2;
     MoveJ [[-144.670,52.822,-3.000],[9.73406E-05,-0.156597,-0.987662,-8.78936E-05],[-1,-1,-3,1],[9E+09,9E+09,9E+09,9E+09,9E+09,9E+09]],v50,z0,T2_R2\WObj:=DHI_WO_R2;
     MoveJ [[-144.860,52.767,-3.000],[9.73406E-05,-0.156597,-0.987662,-8.78936E-05],[-1,-1,-3,1],[9E+09,9E+09,9E+09,9E+09,9E+09,9E+09]],v50,z0,T2_R2\WObj:=DHI_WO_R2;
     MoveJ [[-146.760,52.211,-3.000],[9.73406E-05,-0.156597,-0.987662,-8.78936E-05],[-1,-1,-3,1],[9E+09,9E+09,9E+09,9E+09,9E+09,9E+09]],v50,z0,T2_R2\WObj:=DHI_WO_R2;
     MoveJ [[-146.950,52.155,-3.000],[9.73406E-05,-0.156597,-0.987662,-8.78936E-05],[-1,-1,-3,1],[9E+09,9E+09,9E+09,9E+09,9E+09,9E+09]],v50,z0,T2_R2\WObj:=DHI_WO_R2;
     MoveJ [[-147.900,51.872,-3.000],[9.73406E-05,-0.156597,-0.987662,-8.78936E-05],[-1,-1,-3,1],[9E+09,9E+09,9E+09,9E+09,9E+09,9E+09]],v50,z0,T2_R2\WObj:=DHI_WO_R2;
     MoveJ [[-148.090,51.815,-3.000],[9.73406E-05,-0.156597,-0.987662,-8.78936E-05],[-1,-1,-3,1],[9E+09,9E+09,9E+09,9E+09,9E+09,9E+09]],v50,z0,T2_R2\WObj:=DHI_WO_R2;
     MoveJ [[-149.040,51.528,-3.000],[9.73406E-05,-0.156597,-0.987662,-8.78936E-05],[-1,-1,-3,1],[9E+09,9E+09,9E+09,9E+09,9E+09,9E+09]],v50,z0,T2_R2\WObj:=DHI_WO_R2;
     MoveJ [[-149.230,51.470,-3.000],[9.73406E-05,-0.156597,-0.987662,-8.78936E-05],[-1,-1,-3,1],[9E+09,9E+09,9E+09,9E+09,9E+09,9E+09]],v50,z0,T2_R2\WObj:=DHI_WO_R2;
     MoveJ [[-150.270,51.154,-3.000],[9.73406E-05,-0.156597,-0.987662,-8.78936E-05],[-1,-1,-3,1],[9E+09,9E+09,9E+09,9E+09,9E+09,9E+09]],v50,z0,T2_R2\WObj:=DHI_WO_R2;
     MoveJ [[-150.380,51.121,-3.000],[9.73406E-05,-0.156597,-0.987662,-8.78936E-05],[-1,-1,-3,1],[9E+09,9E+09,9E+09,9E+09,9E+09,9E+09]],v50,z0,T2_R2\WObj:=DHI_WO_R2;
     MoveJ [[-151.330,50.826,-3.000],[9.73406E-05,-0.156597,-0.987662,-8.78936E-05],[-1,-1,-3,1],[9E+09,9E+09,9E+09,9E+09,9E+09,9E+09]],v50,z0,T2_R2\WObj:=DHI_WO_R2;
     MoveJ [[-151.490,50.773,-3.000],[9.73406E-05,-0.156597,-0.987662,-8.78936E-05],[-1,-1,-3,1],[9E+09,9E+09,9E+09,9E+09,9E+09,9E+09]],v50,z0,T2_R2\WObj:=DHI_WO_R2;
     MoveJ [[-153.040,50.285,-3.000],[9.73406E-05,-0.156597,-0.987662,-8.78936E-05],[-1,-1,-3,1],[9E+09,9E+09,9E+09,9E+09,9E+09,9E+09]],v50,z0,T2_R2\WObj:=DHI_WO_R2;
     MoveJ [[-153.230,50.225,-3.000],[9.73406E-05,-0.156597,-0.987662,-8.78936E-05],[-1,-1,-3,1],[9E+09,9E+09,9E+09,9E+09,9E+09,9E+09]],v50,z0,T2_R2\WObj:=DHI_WO_R2;
     MoveJ [[-153.290,50.203,-3.000],[9.73406E-05,-0.156597,-0.987662,-8.78936E-05],[-1,-1,-3,1],[9E+09,9E+09,9E+09,9E+09,9E+09,9E+09]],v50,z0,T2_R2\WObj:=DHI_WO_R2;
     MoveJ [[-154.940,49.670,-3.000],[9.73406E-05,-0.156597,-0.987662,-8.78936E-05],[-1,-1,-3,1],[9E+09,9E+09,9E+09,9E+09,9E+09,9E+09]],v50,z0,T2_R2\WObj:=DHI_WO_R2;
     MoveJ [[-155.050,49.633,-3.000],[9.73406E-05,-0.156597,-0.987662,-8.78936E-05],[-1,-1,-3,1],[9E+09,9E+09,9E+09,9E+09,9E+09,9E+09]],v50,z0,T2_R2\WObj:=DHI_WO_R2;
     MoveJ [[-156.650,49.102,-3.000],[9.73406E-05,-0.156597,-0.987662,-8.78936E-05],[-1,-1,-3,1],[9E+09,9E+09,9E+09,9E+09,9E+09,9E+09]],v50,z0,T2_R2\WObj:=DHI_WO_R2;
     MoveJ [[-156.770,49.063,-3.000],[9.73406E-05,-0.156597,-0.987662,-8.78936E-05],[-1,-1,-3,1],[9E+09,9E+09,9E+09,9E+09,9E+09,9E+09]],v50,z0,T2_R2\WObj:=DHI_WO_R2;
     MoveJ [[-158.360,48.520,-3.000],[9.73406E-05,-0.156597,-0.987662,-8.78936E-05],[-1,-1,-3,1],[9E+09,9E+09,9E+09,9E+09,9E+09,9E+09]],v50,z0,T2_R2\WObj:=DHI_WO_R2;
     MoveJ [[-158.440,48.492,-3.000],[9.73406E-05,-0.156597,-0.987662,-8.78936E-05],[-1,-1,-3,1],[9E+09,9E+09,9E+09,9E+09,9E+09,9E+09]],v50,z0,T2_R2\WObj:=DHI_WO_R2;
     MoveJ [[-158.550,48.454,-3.000],[9.73406E-05,-0.156597,-0.987662,-8.78936E-05],[-1,-1,-3,1],[9E+09,9E+09,9E+09,9E+09,9E+09,9E+09]],v50,z0,T2_R2\WObj:=DHI_WO_R2;
     MoveJ [[-160.070,47.922,-3.000],[9.73406E-05,-0.156597,-0.987662,-8.78936E-05],[-1,-1,-3,1],[9E+09,9E+09,9E+09,9E+09,9E+09,9E+09]],v50,z0,T2_R2\WObj:=DHI_WO_R2;
     MoveJ [[-160.260,47.854,-3.000],[9.73406E-05,-0.156597,-0.987662,-8.78936E-05],[-1,-1,-3,1],[9E+09,9E+09,9E+09,9E+09,9E+09,9E+09]],v50,z0,T2_R2\WObj:=DHI_WO_R2;
     MoveJ [[-161.780,47.307,-3.000],[9.73406E-05,-0.156597,-0.987662,-8.78936E-05],[-1,-1,-3,1],[9E+09,9E+09,9E+09,9E+09,9E+09,9E+09]],v50,z0,T2_R2\WObj:=DHI_WO_R2;
     MoveJ [[-161.970,47.238,-3.000],[9.73406E-05,-0.156597,-0.987662,-8.78936E-05],[-1,-1,-3,1],[9E+09,9E+09,9E+09,9E+09,9E+09,9E+09]],v50,z0,T2_R2\WObj:=DHI_WO_R2;
     MoveJ [[-163.300,46.746,-3.000],[9.73406E-05,-0.156597,-0.987662,-8.78936E-05],[-1,-1,-3,1],[9E+09,9E+09,9E+09,9E+09,9E+09,9E+09]],v50,z0,T2_R2\WObj:=DHI_WO_R2;
     MoveJ [[-163.490,46.675,-3.000],[9.73406E-05,-0.156597,-0.987662,-8.78936E-05],[-1,-1,-3,1],[9E+09,9E+09,9E+09,9E+09,9E+09,9E+09]],v50,z0,T2_R2\WObj:=DHI_WO_R2;
     MoveJ [[-163.680,46.603,-3.000],[9.73406E-05,-0.156597,-0.987662,-8.78936E-05],[-1,-1,-3,1],[9E+09,9E+09,9E+09,9E+09,9E+09,9E+09]],v50,z0,T2_R2\WObj:=DHI_WO_R2;
     MoveJ [[-165.010,46.097,-3.000],[9.73406E-05,-0.156597,-0.987662,-8.78936E-05],[-1,-1,-3,1],[9E+09,9E+09,9E+09,9E+09,9E+09,9E+09]],v50,z0,T2_R2\WObj:=DHI_WO_R2;
     MoveJ [[-165.200,46.024,-3.000],[9.73406E-05,-0.156597,-0.987662,-8.78936E-05],[-1,-1,-3,1],[9E+09,9E+09,9E+09,9E+09,9E+09,9E+09]],v50,z0,T2_R2\WObj:=DHI_WO_R2;
     MoveJ [[-166.540,45.503,-3.000],[9.73406E-05,-0.156597,-0.987662,-8.78936E-05],[-1,-1,-3,1],[9E+09,9E+09,9E+09,9E+09,9E+09,9E+09]],v50,z0,T2_R2\WObj:=DHI_WO_R2;
     MoveJ [[-166.670,45.451,-3.000],[9.73406E-05,-0.156597,-0.987662,-8.78936E-05],[-1,-1,-3,1],[9E+09,9E+09,9E+09,9E+09,9E+09,9E+09]],v50,z0,T2_R2\WObj:=DHI_WO_R2;
     MoveJ [[-166.730,45.428,-3.000],[9.73406E-05,-0.156597,-0.987662,-8.78936E-05],[-1,-1,-3,1],[9E+09,9E+09,9E+09,9E+09,9E+09,9E+09]],v50,z0,T2_R2\WObj:=DHI_WO_R2;
     MoveJ [[-166.920,45.352,-3.000],[9.73406E-05,-0.156597,-0.987662,-8.78936E-05],[-1,-1,-3,1],[9E+09,9E+09,9E+09,9E+09,9E+09,9E+09]],v50,z0,T2_R2\WObj:=DHI_WO_R2;
     MoveJ [[-168.080,44.881,-3.000],[9.73406E-05,-0.156597,-0.987662,-8.78936E-05],[-1,-1,-3,1],[9E+09,9E+09,9E+09,9E+09,9E+09,9E+09]],v50,z0,T2_R2\WObj:=DHI_WO_R2;
     MoveJ [[-168.250,44.815,-3.000],[9.73406E-05,-0.156597,-0.987662,-8.78936E-05],[-1,-1,-3,1],[9E+09,9E+09,9E+09,9E+09,9E+09,9E+09]],v50,z0,T2_R2\WObj:=DHI_WO_R2;
     MoveJ [[-168.440,44.736,-3.000],[9.73406E-05,-0.156597,-0.987662,-8.78936E-05],[-1,-1,-3,1],[9E+09,9E+09,9E+09,9E+09,9E+09,9E+09]],v50,z0,T2_R2\WObj:=DHI_WO_R2;
     MoveJ [[-169.580,44.263,-3.000],[9.73406E-05,-0.156597,-0.987662,-8.78936E-05],[-1,-1,-3,1],[9E+09,9E+09,9E+09,9E+09,9E+09,9E+09]],v50,z0,T2_R2\WObj:=DHI_WO_R2;
     MoveJ [[-169.770,44.183,-3.000],[9.73406E-05,-0.156597,-0.987662,-8.78936E-05],[-1,-1,-3,1],[9E+09,9E+09,9E+09,9E+09,9E+09,9E+09]],v50,z0,T2_R2\WObj:=DHI_WO_R2;
     MoveJ [[-169.920,44.120,-3.000],[9.73406E-05,-0.156597,-0.987662,-8.78936E-05],[-1,-1,-3,1],[9E+09,9E+09,9E+09,9E+09,9E+09,9E+09]],v50,z0,T2_R2\WObj:=DHI_WO_R2;
     MoveJ [[-171.100,43.614,-3.000],[9.73406E-05,-0.156597,-0.987662,-8.78936E-05],[-1,-1,-3,1],[9E+09,9E+09,9E+09,9E+09,9E+09,9E+09]],v50,z0,T2_R2\WObj:=DHI_WO_R2;
     MoveJ [[-171.250,43.550,-3.000],[9.73406E-05,-0.156597,-0.987662,-8.78936E-05],[-1,-1,-3,1],[9E+09,9E+09,9E+09,9E+09,9E+09,9E+09]],v50,z0,T2_R2\WObj:=DHI_WO_R2;
     MoveJ [[-171.290,43.532,-3.000],[9.73406E-05,-0.156597,-0.987662,-8.78936E-05],[-1,-1,-3,1],[9E+09,9E+09,9E+09,9E+09,9E+09,9E+09]],v50,z0,T2_R2\WObj:=DHI_WO_R2;
     MoveJ [[-171.480,43.449,-3.000],[9.73406E-05,-0.156597,-0.987662,-8.78936E-05],[-1,-1,-3,1],[9E+09,9E+09,9E+09,9E+09,9E+09,9E+09]],v50,z0,T2_R2\WObj:=DHI_WO_R2;
     MoveJ [[-172.620,42.945,-3.000],[9.73406E-05,-0.156597,-0.987662,-8.78936E-05],[-1,-1,-3,1],[9E+09,9E+09,9E+09,9E+09,9E+09,9E+09]],v50,z0,T2_R2\WObj:=DHI_WO_R2;
     MoveJ [[-172.810,42.860,-3.000],[9.73406E-05,-0.156597,-0.987662,-8.78936E-05],[-1,-1,-3,1],[9E+09,9E+09,9E+09,9E+09,9E+09,9E+09]],v50,z0,T2_R2\WObj:=DHI_WO_R2;
     MoveJ [[-173.950,42.340,-3.000],[9.73406E-05,-0.156597,-0.987662,-8.78936E-05],[-1,-1,-3,1],[9E+09,9E+09,9E+09,9E+09,9E+09,9E+09]],v50,z0,T2_R2\WObj:=DHI_WO_R2;
     MoveJ [[-174.140,42.253,-3.000],[9.73406E-05,-0.156597,-0.987662,-8.78936E-05],[-1,-1,-3,1],[9E+09,9E+09,9E+09,9E+09,9E+09,9E+09]],v50,z0,T2_R2\WObj:=DHI_WO_R2;
     MoveJ [[-174.210,42.220,-3.000],[9.73406E-05,-0.156597,-0.987662,-8.78936E-05],[-1,-1,-3,1],[9E+09,9E+09,9E+09,9E+09,9E+09,9E+09]],v50,z0,T2_R2\WObj:=DHI_WO_R2;
     MoveJ [[-174.330,42.165,-3.000],[9.73406E-05,-0.156597,-0.987662,-8.78936E-05],[-1,-1,-3,1],[9E+09,9E+09,9E+09,9E+09,9E+09,9E+09]],v50,z0,T2_R2\WObj:=DHI_WO_R2;
     MoveJ [[-175.470,41.628,-3.000],[9.73406E-05,-0.156597,-0.987662,-8.78936E-05],[-1,-1,-3,1],[9E+09,9E+09,9E+09,9E+09,9E+09,9E+09]],v50,z0,T2_R2\WObj:=DHI_WO_R2;
     MoveJ [[-175.660,41.538,-3.000],[9.73406E-05,-0.156597,-0.987662,-8.78936E-05],[-1,-1,-3,1],[9E+09,9E+09,9E+09,9E+09,9E+09,9E+09]],v50,z0,T2_R2\WObj:=DHI_WO_R2;
     MoveJ [[-175.820,41.459,-3.000],[9.73406E-05,-0.156597,-0.987662,-8.78936E-05],[-1,-1,-3,1],[9E+09,9E+09,9E+09,9E+09,9E+09,9E+09]],v50,z0,T2_R2\WObj:=DHI_WO_R2;
     MoveJ [[-177.000,40.889,-3.000],[9.73406E-05,-0.156597,-0.987662,-8.78936E-05],[-1,-1,-3,1],[9E+09,9E+09,9E+09,9E+09,9E+09,9E+09]],v50,z0,T2_R2\WObj:=DHI_WO_R2;
     MoveJ [[-177.180,40.796,-3.000],[9.73406E-05,-0.156597,-0.987662,-8.78936E-05],[-1,-1,-3,1],[9E+09,9E+09,9E+09,9E+09,9E+09,9E+09]],v50,z0,T2_R2\WObj:=DHI_WO_R2;
     MoveJ [[-177.760,40.509,-3.000],[9.73406E-05,-0.156597,-0.987662,-8.78936E-05],[-1,-1,-3,1],[9E+09,9E+09,9E+09,9E+09,9E+09,9E+09]],v50,z0,T2_R2\WObj:=DHI_WO_R2;
     MoveJ [[-177.940,40.416,-3.000],[9.73406E-05,-0.156597,-0.987662,-8.78936E-05],[-1,-1,-3,1],[9E+09,9E+09,9E+09,9E+09,9E+09,9E+09]],v50,z0,T2_R2\WObj:=DHI_WO_R2;
     MoveJ [[-178.130,40.320,-3.000],[9.73406E-05,-0.156597,-0.987662,-8.78936E-05],[-1,-1,-3,1],[9E+09,9E+09,9E+09,9E+09,9E+09,9E+09]],v50,z0,T2_R2\WObj:=DHI_WO_R2;
     MoveJ [[-178.700,40.028,-3.000],[9.73406E-05,-0.156597,-0.987662,-8.78936E-05],[-1,-1,-3,1],[9E+09,9E+09,9E+09,9E+09,9E+09,9E+09]],v50,z0,T2_R2\WObj:=DHI_WO_R2;
     MoveJ [[-178.880,39.939,-3.000],[9.73406E-05,-0.156597,-0.987662,-8.78936E-05],[-1,-1,-3,1],[9E+09,9E+09,9E+09,9E+09,9E+09,9E+09]],v50,z0,T2_R2\WObj:=DHI_WO_R2;
     MoveJ [[-178.890,39.930,-3.000],[9.73406E-05,-0.156597,-0.987662,-8.78936E-05],[-1,-1,-3,1],[9E+09,9E+09,9E+09,9E+09,9E+09,9E+09]],v50,z0,T2_R2\WObj:=DHI_WO_R2;
     MoveJ [[-179.080,39.831,-3.000],[9.73406E-05,-0.156597,-0.987662,-8.78936E-05],[-1,-1,-3,1],[9E+09,9E+09,9E+09,9E+09,9E+09,9E+09]],v50,z0,T2_R2\WObj:=DHI_WO_R2;
     MoveJ [[-179.650,39.533,-3.000],[9.73406E-05,-0.156597,-0.987662,-8.78936E-05],[-1,-1,-3,1],[9E+09,9E+09,9E+09,9E+09,9E+09,9E+09]],v50,z0,T2_R2\WObj:=DHI_WO_R2;
     MoveJ [[-179.840,39.433,-3.000],[9.73406E-05,-0.156597,-0.987662,-8.78936E-05],[-1,-1,-3,1],[9E+09,9E+09,9E+09,9E+09,9E+09,9E+09]],v50,z0,T2_R2\WObj:=DHI_WO_R2;
     MoveJ [[-179.960,39.368,-3.000],[9.73406E-05,-0.156597,-0.987662,-8.78936E-05],[-1,-1,-3,1],[9E+09,9E+09,9E+09,9E+09,9E+09,9E+09]],v50,z0,T2_R2\WObj:=DHI_WO_R2;
     MoveJ [[-180.670,38.988,-3.000],[9.73406E-05,-0.156597,-0.987662,-8.78936E-05],[-1,-1,-3,1],[9E+09,9E+09,9E+09,9E+09,9E+09,9E+09]],v50,z0,T2_R2\WObj:=DHI_WO_R2;
     MoveJ [[-180.790,38.923,-3.000],[9.73406E-05,-0.156597,-0.987662,-8.78936E-05],[-1,-1,-3,1],[9E+09,9E+09,9E+09,9E+09,9E+09,9E+09]],v50,z0,T2_R2\WObj:=DHI_WO_R2;
     MoveJ [[-181.370,38.608,-3.000],[9.73406E-05,-0.156597,-0.987662,-8.78936E-05],[-1,-1,-3,1],[9E+09,9E+09,9E+09,9E+09,9E+09,9E+09]],v50,z0,T2_R2\WObj:=DHI_WO_R2;
     MoveJ [[-181.560,38.506,-3.000],[9.73406E-05,-0.156597,-0.987662,-8.78936E-05],[-1,-1,-3,1],[9E+09,9E+09,9E+09,9E+09,9E+09,9E+09]],v50,z0,T2_R2\WObj:=DHI_WO_R2;
     MoveJ [[-181.710,38.418,-3.000],[9.73406E-05,-0.156597,-0.987662,-8.78936E-05],[-1,-1,-3,1],[9E+09,9E+09,9E+09,9E+09,9E+09,9E+09]],v50,z0,T2_R2\WObj:=DHI_WO_R2;
     MoveJ [[-182.390,38.038,-3.000],[9.73406E-05,-0.156597,-0.987662,-8.78936E-05],[-1,-1,-3,1],[9E+09,9E+09,9E+09,9E+09,9E+09,9E+09]],v50,z0,T2_R2\WObj:=DHI_WO_R2;
     MoveJ [[-182.510,37.973,-3.000],[9.73406E-05,-0.156597,-0.987662,-8.78936E-05],[-1,-1,-3,1],[9E+09,9E+09,9E+09,9E+09,9E+09,9E+09]],v50,z0,T2_R2\WObj:=DHI_WO_R2;
     MoveJ [[-182.700,37.864,-3.000],[9.73406E-05,-0.156597,-0.987662,-8.78936E-05],[-1,-1,-3,1],[9E+09,9E+09,9E+09,9E+09,9E+09,9E+09]],v50,z0,T2_R2\WObj:=DHI_WO_R2;
     MoveJ [[-183.270,37.536,-3.000],[9.73406E-05,-0.156597,-0.987662,-8.78936E-05],[-1,-1,-3,1],[9E+09,9E+09,9E+09,9E+09,9E+09,9E+09]],v50,z0,T2_R2\WObj:=DHI_WO_R2;
     MoveJ [[-183.390,37.467,-3.000],[9.73406E-05,-0.156597,-0.987662,-8.78936E-05],[-1,-1,-3,1],[9E+09,9E+09,9E+09,9E+09,9E+09,9E+09]],v50,z0,T2_R2\WObj:=DHI_WO_R2;
     MoveJ [[-183.460,37.426,-3.000],[9.73406E-05,-0.156597,-0.987662,-8.78936E-05],[-1,-1,-3,1],[9E+09,9E+09,9E+09,9E+09,9E+09,9E+09]],v50,z0,T2_R2\WObj:=DHI_WO_R2;
     MoveJ [[-183.650,37.314,-3.000],[9.73406E-05,-0.156597,-0.987662,-8.78936E-05],[-1,-1,-3,1],[9E+09,9E+09,9E+09,9E+09,9E+09,9E+09]],v50,z0,T2_R2\WObj:=DHI_WO_R2;
     MoveJ [[-184.220,36.978,-3.000],[9.73406E-05,-0.156597,-0.987662,-8.78936E-05],[-1,-1,-3,1],[9E+09,9E+09,9E+09,9E+09,9E+09,9E+09]],v50,z0,T2_R2\WObj:=DHI_WO_R2;
