MODULE xyz_R23
    PROC xyz3()
     MoveJ [[84.040,48.828,-6.000],[9.73406E-05,-0.156597,-0.987662,-8.78936E-05],[-1,-1,-3,1],[9E+09,9E+09,9E+09,9E+09,9E+09,9E+09]],v50,z0,T2_R2\WObj:=DHI_WO_R2;
     MoveJ [[84.000,48.873,-6.000],[9.73406E-05,-0.156597,-0.987662,-8.78936E-05],[-1,-1,-3,1],[9E+09,9E+09,9E+09,9E+09,9E+09,9E+09]],v50,z0,T2_R2\WObj:=DHI_WO_R2;
     MoveJ [[83.800,49.063,-6.000],[9.73406E-05,-0.156597,-0.987662,-8.78936E-05],[-1,-1,-3,1],[9E+09,9E+09,9E+09,9E+09,9E+09,9E+09]],v50,z0,T2_R2\WObj:=DHI_WO_R2;
     MoveJ [[83.660,49.193,-6.000],[9.73406E-05,-0.156597,-0.987662,-8.78936E-05],[-1,-1,-3,1],[9E+09,9E+09,9E+09,9E+09,9E+09,9E+09]],v50,z0,T2_R2\WObj:=DHI_WO_R2;
     MoveJ [[83.400,49.443,-6.000],[9.73406E-05,-0.156597,-0.987662,-8.78936E-05],[-1,-1,-3,1],[9E+09,9E+09,9E+09,9E+09,9E+09,9E+09]],v50,z0,T2_R2\WObj:=DHI_WO_R2;
     MoveJ [[83.280,49.553,-6.000],[9.73406E-05,-0.156597,-0.987662,-8.78936E-05],[-1,-1,-3,1],[9E+09,9E+09,9E+09,9E+09,9E+09,9E+09]],v50,z0,T2_R2\WObj:=DHI_WO_R2;
     MoveJ [[83.090,49.731,-6.000],[9.73406E-05,-0.156597,-0.987662,-8.78936E-05],[-1,-1,-3,1],[9E+09,9E+09,9E+09,9E+09,9E+09,9E+09]],v50,z0,T2_R2\WObj:=DHI_WO_R2;
     MoveJ [[82.990,49.823,-6.000],[9.73406E-05,-0.156597,-0.987662,-8.78936E-05],[-1,-1,-3,1],[9E+09,9E+09,9E+09,9E+09,9E+09,9E+09]],v50,z0,T2_R2\WObj:=DHI_WO_R2;
     MoveJ [[82.790,50.013,-6.000],[9.73406E-05,-0.156597,-0.987662,-8.78936E-05],[-1,-1,-3,1],[9E+09,9E+09,9E+09,9E+09,9E+09,9E+09]],v50,z0,T2_R2\WObj:=DHI_WO_R2;
     MoveJ [[82.710,50.080,-6.000],[9.73406E-05,-0.156597,-0.987662,-8.78936E-05],[-1,-1,-3,1],[9E+09,9E+09,9E+09,9E+09,9E+09,9E+09]],v50,z0,T2_R2\WObj:=DHI_WO_R2;
     MoveJ [[82.580,50.203,-6.000],[9.73406E-05,-0.156597,-0.987662,-8.78936E-05],[-1,-1,-3,1],[9E+09,9E+09,9E+09,9E+09,9E+09,9E+09]],v50,z0,T2_R2\WObj:=DHI_WO_R2;
     MoveJ [[82.520,50.254,-6.000],[9.73406E-05,-0.156597,-0.987662,-8.78936E-05],[-1,-1,-3,1],[9E+09,9E+09,9E+09,9E+09,9E+09,9E+09]],v50,z0,T2_R2\WObj:=DHI_WO_R2;
     MoveJ [[82.330,50.425,-6.000],[9.73406E-05,-0.156597,-0.987662,-8.78936E-05],[-1,-1,-3,1],[9E+09,9E+09,9E+09,9E+09,9E+09,9E+09]],v50,z0,T2_R2\WObj:=DHI_WO_R2;
     MoveJ [[82.160,50.583,-6.000],[9.73406E-05,-0.156597,-0.987662,-8.78936E-05],[-1,-1,-3,1],[9E+09,9E+09,9E+09,9E+09,9E+09,9E+09]],v50,z0,T2_R2\WObj:=DHI_WO_R2;
     MoveJ [[82.140,50.595,-6.000],[9.73406E-05,-0.156597,-0.987662,-8.78936E-05],[-1,-1,-3,1],[9E+09,9E+09,9E+09,9E+09,9E+09,9E+09]],v50,z0,T2_R2\WObj:=DHI_WO_R2;
     MoveJ [[81.950,50.765,-6.000],[9.73406E-05,-0.156597,-0.987662,-8.78936E-05],[-1,-1,-3,1],[9E+09,9E+09,9E+09,9E+09,9E+09,9E+09]],v50,z0,T2_R2\WObj:=DHI_WO_R2;
     MoveJ [[81.730,50.964,-6.000],[9.73406E-05,-0.156597,-0.987662,-8.78936E-05],[-1,-1,-3,1],[9E+09,9E+09,9E+09,9E+09,9E+09,9E+09]],v50,z0,T2_R2\WObj:=DHI_WO_R2;
     MoveJ [[81.570,51.099,-6.000],[9.73406E-05,-0.156597,-0.987662,-8.78936E-05],[-1,-1,-3,1],[9E+09,9E+09,9E+09,9E+09,9E+09,9E+09]],v50,z0,T2_R2\WObj:=DHI_WO_R2;
     MoveJ [[81.380,51.265,-6.000],[9.73406E-05,-0.156597,-0.987662,-8.78936E-05],[-1,-1,-3,1],[9E+09,9E+09,9E+09,9E+09,9E+09,9E+09]],v50,z0,T2_R2\WObj:=DHI_WO_R2;
     MoveJ [[81.290,51.344,-6.000],[9.73406E-05,-0.156597,-0.987662,-8.78936E-05],[-1,-1,-3,1],[9E+09,9E+09,9E+09,9E+09,9E+09,9E+09]],v50,z0,T2_R2\WObj:=DHI_WO_R2;
     MoveJ [[81.190,51.430,-6.000],[9.73406E-05,-0.156597,-0.987662,-8.78936E-05],[-1,-1,-3,1],[9E+09,9E+09,9E+09,9E+09,9E+09,9E+09]],v50,z0,T2_R2\WObj:=DHI_WO_R2;
     MoveJ [[81.070,51.534,-6.000],[9.73406E-05,-0.156597,-0.987662,-8.78936E-05],[-1,-1,-3,1],[9E+09,9E+09,9E+09,9E+09,9E+09,9E+09]],v50,z0,T2_R2\WObj:=DHI_WO_R2;
     MoveJ [[80.810,51.756,-6.000],[9.73406E-05,-0.156597,-0.987662,-8.78936E-05],[-1,-1,-3,1],[9E+09,9E+09,9E+09,9E+09,9E+09,9E+09]],v50,z0,T2_R2\WObj:=DHI_WO_R2;
     MoveJ [[80.630,51.914,-6.000],[9.73406E-05,-0.156597,-0.987662,-8.78936E-05],[-1,-1,-3,1],[9E+09,9E+09,9E+09,9E+09,9E+09,9E+09]],v50,z0,T2_R2\WObj:=DHI_WO_R2;
     MoveJ [[80.620,51.919,-6.000],[9.73406E-05,-0.156597,-0.987662,-8.78936E-05],[-1,-1,-3,1],[9E+09,9E+09,9E+09,9E+09,9E+09,9E+09]],v50,z0,T2_R2\WObj:=DHI_WO_R2;
     MoveJ [[80.430,52.080,-6.000],[9.73406E-05,-0.156597,-0.987662,-8.78936E-05],[-1,-1,-3,1],[9E+09,9E+09,9E+09,9E+09,9E+09,9E+09]],v50,z0,T2_R2\WObj:=DHI_WO_R2;
     MoveJ [[79.860,52.559,-6.000],[9.73406E-05,-0.156597,-0.987662,-8.78936E-05],[-1,-1,-3,1],[9E+09,9E+09,9E+09,9E+09,9E+09,9E+09]],v50,z0,T2_R2\WObj:=DHI_WO_R2;
     MoveJ [[79.720,52.674,-6.000],[9.73406E-05,-0.156597,-0.987662,-8.78936E-05],[-1,-1,-3,1],[9E+09,9E+09,9E+09,9E+09,9E+09,9E+09]],v50,z0,T2_R2\WObj:=DHI_WO_R2;
     MoveJ [[79.670,52.717,-6.000],[9.73406E-05,-0.156597,-0.987662,-8.78936E-05],[-1,-1,-3,1],[9E+09,9E+09,9E+09,9E+09,9E+09,9E+09]],v50,z0,T2_R2\WObj:=DHI_WO_R2;
     MoveJ [[79.480,52.874,-6.000],[9.73406E-05,-0.156597,-0.987662,-8.78936E-05],[-1,-1,-3,1],[9E+09,9E+09,9E+09,9E+09,9E+09,9E+09]],v50,z0,T2_R2\WObj:=DHI_WO_R2;
     MoveJ [[79.260,53.054,-6.000],[9.73406E-05,-0.156597,-0.987662,-8.78936E-05],[-1,-1,-3,1],[9E+09,9E+09,9E+09,9E+09,9E+09,9E+09]],v50,z0,T2_R2\WObj:=DHI_WO_R2;
     MoveJ [[79.100,53.188,-6.000],[9.73406E-05,-0.156597,-0.987662,-8.78936E-05],[-1,-1,-3,1],[9E+09,9E+09,9E+09,9E+09,9E+09,9E+09]],v50,z0,T2_R2\WObj:=DHI_WO_R2;
     MoveJ [[78.910,53.344,-6.000],[9.73406E-05,-0.156597,-0.987662,-8.78936E-05],[-1,-1,-3,1],[9E+09,9E+09,9E+09,9E+09,9E+09,9E+09]],v50,z0,T2_R2\WObj:=DHI_WO_R2;
     MoveJ [[78.800,53.435,-6.000],[9.73406E-05,-0.156597,-0.987662,-8.78936E-05],[-1,-1,-3,1],[9E+09,9E+09,9E+09,9E+09,9E+09,9E+09]],v50,z0,T2_R2\WObj:=DHI_WO_R2;
     MoveJ [[78.720,53.499,-6.000],[9.73406E-05,-0.156597,-0.987662,-8.78936E-05],[-1,-1,-3,1],[9E+09,9E+09,9E+09,9E+09,9E+09,9E+09]],v50,z0,T2_R2\WObj:=DHI_WO_R2;
     MoveJ [[78.570,53.625,-6.000],[9.73406E-05,-0.156597,-0.987662,-8.78936E-05],[-1,-1,-3,1],[9E+09,9E+09,9E+09,9E+09,9E+09,9E+09]],v50,z0,T2_R2\WObj:=DHI_WO_R2;
     MoveJ [[78.330,53.815,-6.000],[9.73406E-05,-0.156597,-0.987662,-8.78936E-05],[-1,-1,-3,1],[9E+09,9E+09,9E+09,9E+09,9E+09,9E+09]],v50,z0,T2_R2\WObj:=DHI_WO_R2;
     MoveJ [[78.150,53.961,-6.000],[9.73406E-05,-0.156597,-0.987662,-8.78936E-05],[-1,-1,-3,1],[9E+09,9E+09,9E+09,9E+09,9E+09,9E+09]],v50,z0,T2_R2\WObj:=DHI_WO_R2;
     MoveJ [[78.100,54.005,-6.000],[9.73406E-05,-0.156597,-0.987662,-8.78936E-05],[-1,-1,-3,1],[9E+09,9E+09,9E+09,9E+09,9E+09,9E+09]],v50,z0,T2_R2\WObj:=DHI_WO_R2;
     MoveJ [[77.960,54.114,-6.000],[9.73406E-05,-0.156597,-0.987662,-8.78936E-05],[-1,-1,-3,1],[9E+09,9E+09,9E+09,9E+09,9E+09,9E+09]],v50,z0,T2_R2\WObj:=DHI_WO_R2;
     MoveJ [[77.770,54.267,-6.000],[9.73406E-05,-0.156597,-0.987662,-8.78936E-05],[-1,-1,-3,1],[9E+09,9E+09,9E+09,9E+09,9E+09,9E+09]],v50,z0,T2_R2\WObj:=DHI_WO_R2;
     MoveJ [[77.620,54.385,-6.000],[9.73406E-05,-0.156597,-0.987662,-8.78936E-05],[-1,-1,-3,1],[9E+09,9E+09,9E+09,9E+09,9E+09,9E+09]],v50,z0,T2_R2\WObj:=DHI_WO_R2;
     MoveJ [[77.580,54.419,-6.000],[9.73406E-05,-0.156597,-0.987662,-8.78936E-05],[-1,-1,-3,1],[9E+09,9E+09,9E+09,9E+09,9E+09,9E+09]],v50,z0,T2_R2\WObj:=DHI_WO_R2;
     MoveJ [[77.390,54.571,-6.000],[9.73406E-05,-0.156597,-0.987662,-8.78936E-05],[-1,-1,-3,1],[9E+09,9E+09,9E+09,9E+09,9E+09,9E+09]],v50,z0,T2_R2\WObj:=DHI_WO_R2;
     MoveJ [[77.150,54.765,-6.000],[9.73406E-05,-0.156597,-0.987662,-8.78936E-05],[-1,-1,-3,1],[9E+09,9E+09,9E+09,9E+09,9E+09,9E+09]],v50,z0,T2_R2\WObj:=DHI_WO_R2;
     MoveJ [[76.910,54.955,-6.000],[9.73406E-05,-0.156597,-0.987662,-8.78936E-05],[-1,-1,-3,1],[9E+09,9E+09,9E+09,9E+09,9E+09,9E+09]],v50,z0,T2_R2\WObj:=DHI_WO_R2;
     MoveJ [[76.820,55.023,-6.000],[9.73406E-05,-0.156597,-0.987662,-8.78936E-05],[-1,-1,-3,1],[9E+09,9E+09,9E+09,9E+09,9E+09,9E+09]],v50,z0,T2_R2\WObj:=DHI_WO_R2;
     MoveJ [[76.630,55.172,-6.000],[9.73406E-05,-0.156597,-0.987662,-8.78936E-05],[-1,-1,-3,1],[9E+09,9E+09,9E+09,9E+09,9E+09,9E+09]],v50,z0,T2_R2\WObj:=DHI_WO_R2;
     MoveJ [[76.440,55.322,-6.000],[9.73406E-05,-0.156597,-0.987662,-8.78936E-05],[-1,-1,-3,1],[9E+09,9E+09,9E+09,9E+09,9E+09,9E+09]],v50,z0,T2_R2\WObj:=DHI_WO_R2;
     MoveJ [[76.250,55.470,-6.000],[9.73406E-05,-0.156597,-0.987662,-8.78936E-05],[-1,-1,-3,1],[9E+09,9E+09,9E+09,9E+09,9E+09,9E+09]],v50,z0,T2_R2\WObj:=DHI_WO_R2;
     MoveJ [[76.180,55.526,-6.000],[9.73406E-05,-0.156597,-0.987662,-8.78936E-05],[-1,-1,-3,1],[9E+09,9E+09,9E+09,9E+09,9E+09,9E+09]],v50,z0,T2_R2\WObj:=DHI_WO_R2;
     MoveJ [[75.870,55.766,-6.000],[9.73406E-05,-0.156597,-0.987662,-8.78936E-05],[-1,-1,-3,1],[9E+09,9E+09,9E+09,9E+09,9E+09,9E+09]],v50,z0,T2_R2\WObj:=DHI_WO_R2;
     MoveJ [[75.680,55.914,-6.000],[9.73406E-05,-0.156597,-0.987662,-8.78936E-05],[-1,-1,-3,1],[9E+09,9E+09,9E+09,9E+09,9E+09,9E+09]],v50,z0,T2_R2\WObj:=DHI_WO_R2;
     MoveJ [[75.490,56.061,-6.000],[9.73406E-05,-0.156597,-0.987662,-8.78936E-05],[-1,-1,-3,1],[9E+09,9E+09,9E+09,9E+09,9E+09,9E+09]],v50,z0,T2_R2\WObj:=DHI_WO_R2;
     MoveJ [[75.300,56.207,-6.000],[9.73406E-05,-0.156597,-0.987662,-8.78936E-05],[-1,-1,-3,1],[9E+09,9E+09,9E+09,9E+09,9E+09,9E+09]],v50,z0,T2_R2\WObj:=DHI_WO_R2;
     MoveJ [[75.200,56.286,-6.000],[9.73406E-05,-0.156597,-0.987662,-8.78936E-05],[-1,-1,-3,1],[9E+09,9E+09,9E+09,9E+09,9E+09,9E+09]],v50,z0,T2_R2\WObj:=DHI_WO_R2;
     MoveJ [[74.700,56.666,-6.000],[9.73406E-05,-0.156597,-0.987662,-8.78936E-05],[-1,-1,-3,1],[9E+09,9E+09,9E+09,9E+09,9E+09,9E+09]],v50,z0,T2_R2\WObj:=DHI_WO_R2;
     MoveJ [[74.540,56.789,-6.000],[9.73406E-05,-0.156597,-0.987662,-8.78936E-05],[-1,-1,-3,1],[9E+09,9E+09,9E+09,9E+09,9E+09,9E+09]],v50,z0,T2_R2\WObj:=DHI_WO_R2;
     MoveJ [[74.450,56.856,-6.000],[9.73406E-05,-0.156597,-0.987662,-8.78936E-05],[-1,-1,-3,1],[9E+09,9E+09,9E+09,9E+09,9E+09,9E+09]],v50,z0,T2_R2\WObj:=DHI_WO_R2;
     MoveJ [[74.350,56.933,-6.000],[9.73406E-05,-0.156597,-0.987662,-8.78936E-05],[-1,-1,-3,1],[9E+09,9E+09,9E+09,9E+09,9E+09,9E+09]],v50,z0,T2_R2\WObj:=DHI_WO_R2;
     MoveJ [[74.200,57.046,-6.000],[9.73406E-05,-0.156597,-0.987662,-8.78936E-05],[-1,-1,-3,1],[9E+09,9E+09,9E+09,9E+09,9E+09,9E+09]],v50,z0,T2_R2\WObj:=DHI_WO_R2;
     MoveJ [[74.160,57.077,-6.000],[9.73406E-05,-0.156597,-0.987662,-8.78936E-05],[-1,-1,-3,1],[9E+09,9E+09,9E+09,9E+09,9E+09,9E+09]],v50,z0,T2_R2\WObj:=DHI_WO_R2;
     MoveJ [[73.950,57.236,-6.000],[9.73406E-05,-0.156597,-0.987662,-8.78936E-05],[-1,-1,-3,1],[9E+09,9E+09,9E+09,9E+09,9E+09,9E+09]],v50,z0,T2_R2\WObj:=DHI_WO_R2;
     MoveJ [[73.780,57.363,-6.000],[9.73406E-05,-0.156597,-0.987662,-8.78936E-05],[-1,-1,-3,1],[9E+09,9E+09,9E+09,9E+09,9E+09,9E+09]],v50,z0,T2_R2\WObj:=DHI_WO_R2;
     MoveJ [[73.180,57.807,-6.000],[9.73406E-05,-0.156597,-0.987662,-8.78936E-05],[-1,-1,-3,1],[9E+09,9E+09,9E+09,9E+09,9E+09,9E+09]],v50,z0,T2_R2\WObj:=DHI_WO_R2;
     MoveJ [[73.020,57.931,-6.000],[9.73406E-05,-0.156597,-0.987662,-8.78936E-05],[-1,-1,-3,1],[9E+09,9E+09,9E+09,9E+09,9E+09,9E+09]],v50,z0,T2_R2\WObj:=DHI_WO_R2;
     MoveJ [[72.930,57.997,-6.000],[9.73406E-05,-0.156597,-0.987662,-8.78936E-05],[-1,-1,-3,1],[9E+09,9E+09,9E+09,9E+09,9E+09,9E+09]],v50,z0,T2_R2\WObj:=DHI_WO_R2;
     MoveJ [[72.830,58.072,-6.000],[9.73406E-05,-0.156597,-0.987662,-8.78936E-05],[-1,-1,-3,1],[9E+09,9E+09,9E+09,9E+09,9E+09,9E+09]],v50,z0,T2_R2\WObj:=DHI_WO_R2;
     MoveJ [[72.420,58.377,-6.000],[9.73406E-05,-0.156597,-0.987662,-8.78936E-05],[-1,-1,-3,1],[9E+09,9E+09,9E+09,9E+09,9E+09,9E+09]],v50,z0,T2_R2\WObj:=DHI_WO_R2;
     MoveJ [[72.260,58.495,-6.000],[9.73406E-05,-0.156597,-0.987662,-8.78936E-05],[-1,-1,-3,1],[9E+09,9E+09,9E+09,9E+09,9E+09,9E+09]],v50,z0,T2_R2\WObj:=DHI_WO_R2;
     MoveJ [[72.160,58.567,-6.000],[9.73406E-05,-0.156597,-0.987662,-8.78936E-05],[-1,-1,-3,1],[9E+09,9E+09,9E+09,9E+09,9E+09,9E+09]],v50,z0,T2_R2\WObj:=DHI_WO_R2;
     MoveJ [[72.070,58.634,-6.000],[9.73406E-05,-0.156597,-0.987662,-8.78936E-05],[-1,-1,-3,1],[9E+09,9E+09,9E+09,9E+09,9E+09,9E+09]],v50,z0,T2_R2\WObj:=DHI_WO_R2;
     MoveJ [[71.880,58.772,-6.000],[9.73406E-05,-0.156597,-0.987662,-8.78936E-05],[-1,-1,-3,1],[9E+09,9E+09,9E+09,9E+09,9E+09,9E+09]],v50,z0,T2_R2\WObj:=DHI_WO_R2;
     MoveJ [[71.690,58.910,-6.000],[9.73406E-05,-0.156597,-0.987662,-8.78936E-05],[-1,-1,-3,1],[9E+09,9E+09,9E+09,9E+09,9E+09,9E+09]],v50,z0,T2_R2\WObj:=DHI_WO_R2;
     MoveJ [[71.310,59.187,-6.000],[9.73406E-05,-0.156597,-0.987662,-8.78936E-05],[-1,-1,-3,1],[9E+09,9E+09,9E+09,9E+09,9E+09,9E+09]],v50,z0,T2_R2\WObj:=DHI_WO_R2;
     MoveJ [[71.120,59.325,-6.000],[9.73406E-05,-0.156597,-0.987662,-8.78936E-05],[-1,-1,-3,1],[9E+09,9E+09,9E+09,9E+09,9E+09,9E+09]],v50,z0,T2_R2\WObj:=DHI_WO_R2;
     MoveJ [[70.930,59.462,-6.000],[9.73406E-05,-0.156597,-0.987662,-8.78936E-05],[-1,-1,-3,1],[9E+09,9E+09,9E+09,9E+09,9E+09,9E+09]],v50,z0,T2_R2\WObj:=DHI_WO_R2;
     MoveJ [[70.850,59.517,-6.000],[9.73406E-05,-0.156597,-0.987662,-8.78936E-05],[-1,-1,-3,1],[9E+09,9E+09,9E+09,9E+09,9E+09,9E+09]],v50,z0,T2_R2\WObj:=DHI_WO_R2;
     MoveJ [[70.550,59.734,-6.000],[9.73406E-05,-0.156597,-0.987662,-8.78936E-05],[-1,-1,-3,1],[9E+09,9E+09,9E+09,9E+09,9E+09,9E+09]],v50,z0,T2_R2\WObj:=DHI_WO_R2;
     MoveJ [[70.360,59.870,-6.000],[9.73406E-05,-0.156597,-0.987662,-8.78936E-05],[-1,-1,-3,1],[9E+09,9E+09,9E+09,9E+09,9E+09,9E+09]],v50,z0,T2_R2\WObj:=DHI_WO_R2;
     MoveJ [[69.980,60.140,-6.000],[9.73406E-05,-0.156597,-0.987662,-8.78936E-05],[-1,-1,-3,1],[9E+09,9E+09,9E+09,9E+09,9E+09,9E+09]],v50,z0,T2_R2\WObj:=DHI_WO_R2;
     MoveJ [[69.780,60.278,-6.000],[9.73406E-05,-0.156597,-0.987662,-8.78936E-05],[-1,-1,-3,1],[9E+09,9E+09,9E+09,9E+09,9E+09,9E+09]],v50,z0,T2_R2\WObj:=DHI_WO_R2;
     MoveJ [[69.600,60.408,-6.000],[9.73406E-05,-0.156597,-0.987662,-8.78936E-05],[-1,-1,-3,1],[9E+09,9E+09,9E+09,9E+09,9E+09,9E+09]],v50,z0,T2_R2\WObj:=DHI_WO_R2;
     MoveJ [[69.510,60.468,-6.000],[9.73406E-05,-0.156597,-0.987662,-8.78936E-05],[-1,-1,-3,1],[9E+09,9E+09,9E+09,9E+09,9E+09,9E+09]],v50,z0,T2_R2\WObj:=DHI_WO_R2;
     MoveJ [[69.220,60.675,-6.000],[9.73406E-05,-0.156597,-0.987662,-8.78936E-05],[-1,-1,-3,1],[9E+09,9E+09,9E+09,9E+09,9E+09,9E+09]],v50,z0,T2_R2\WObj:=DHI_WO_R2;
     MoveJ [[69.030,60.807,-6.000],[9.73406E-05,-0.156597,-0.987662,-8.78936E-05],[-1,-1,-3,1],[9E+09,9E+09,9E+09,9E+09,9E+09,9E+09]],v50,z0,T2_R2\WObj:=DHI_WO_R2;
     MoveJ [[68.650,61.071,-6.000],[9.73406E-05,-0.156597,-0.987662,-8.78936E-05],[-1,-1,-3,1],[9E+09,9E+09,9E+09,9E+09,9E+09,9E+09]],v50,z0,T2_R2\WObj:=DHI_WO_R2;
     MoveJ [[68.450,61.202,-6.000],[9.73406E-05,-0.156597,-0.987662,-8.78936E-05],[-1,-1,-3,1],[9E+09,9E+09,9E+09,9E+09,9E+09,9E+09]],v50,z0,T2_R2\WObj:=DHI_WO_R2;
     MoveJ [[68.140,61.418,-6.000],[9.73406E-05,-0.156597,-0.987662,-8.78936E-05],[-1,-1,-3,1],[9E+09,9E+09,9E+09,9E+09,9E+09,9E+09]],v50,z0,T2_R2\WObj:=DHI_WO_R2;
     MoveJ [[68.070,61.464,-6.000],[9.73406E-05,-0.156597,-0.987662,-8.78936E-05],[-1,-1,-3,1],[9E+09,9E+09,9E+09,9E+09,9E+09,9E+09]],v50,z0,T2_R2\WObj:=DHI_WO_R2;
     MoveJ [[67.860,61.608,-6.000],[9.73406E-05,-0.156597,-0.987662,-8.78936E-05],[-1,-1,-3,1],[9E+09,9E+09,9E+09,9E+09,9E+09,9E+09]],v50,z0,T2_R2\WObj:=DHI_WO_R2;
     MoveJ [[67.690,61.725,-6.000],[9.73406E-05,-0.156597,-0.987662,-8.78936E-05],[-1,-1,-3,1],[9E+09,9E+09,9E+09,9E+09,9E+09,9E+09]],v50,z0,T2_R2\WObj:=DHI_WO_R2;
     MoveJ [[67.500,61.853,-6.000],[9.73406E-05,-0.156597,-0.987662,-8.78936E-05],[-1,-1,-3,1],[9E+09,9E+09,9E+09,9E+09,9E+09,9E+09]],v50,z0,T2_R2\WObj:=DHI_WO_R2;
     MoveJ [[67.310,61.982,-6.000],[9.73406E-05,-0.156597,-0.987662,-8.78936E-05],[-1,-1,-3,1],[9E+09,9E+09,9E+09,9E+09,9E+09,9E+09]],v50,z0,T2_R2\WObj:=DHI_WO_R2;
     MoveJ [[66.740,62.369,-6.000],[9.73406E-05,-0.156597,-0.987662,-8.78936E-05],[-1,-1,-3,1],[9E+09,9E+09,9E+09,9E+09,9E+09,9E+09]],v50,z0,T2_R2\WObj:=DHI_WO_R2;
     MoveJ [[66.550,62.494,-6.000],[9.73406E-05,-0.156597,-0.987662,-8.78936E-05],[-1,-1,-3,1],[9E+09,9E+09,9E+09,9E+09,9E+09,9E+09]],v50,z0,T2_R2\WObj:=DHI_WO_R2;
     MoveJ [[66.460,62.559,-6.000],[9.73406E-05,-0.156597,-0.987662,-8.78936E-05],[-1,-1,-3,1],[9E+09,9E+09,9E+09,9E+09,9E+09,9E+09]],v50,z0,T2_R2\WObj:=DHI_WO_R2;
     MoveJ [[66.360,62.621,-6.000],[9.73406E-05,-0.156597,-0.987662,-8.78936E-05],[-1,-1,-3,1],[9E+09,9E+09,9E+09,9E+09,9E+09,9E+09]],v50,z0,T2_R2\WObj:=DHI_WO_R2;
     MoveJ [[66.170,62.749,-6.000],[9.73406E-05,-0.156597,-0.987662,-8.78936E-05],[-1,-1,-3,1],[9E+09,9E+09,9E+09,9E+09,9E+09,9E+09]],v50,z0,T2_R2\WObj:=DHI_WO_R2;
     MoveJ [[65.790,62.998,-6.000],[9.73406E-05,-0.156597,-0.987662,-8.78936E-05],[-1,-1,-3,1],[9E+09,9E+09,9E+09,9E+09,9E+09,9E+09]],v50,z0,T2_R2\WObj:=DHI_WO_R2;
     MoveJ [[65.600,63.124,-6.000],[9.73406E-05,-0.156597,-0.987662,-8.78936E-05],[-1,-1,-3,1],[9E+09,9E+09,9E+09,9E+09,9E+09,9E+09]],v50,z0,T2_R2\WObj:=DHI_WO_R2;
     MoveJ [[65.410,63.249,-6.000],[9.73406E-05,-0.156597,-0.987662,-8.78936E-05],[-1,-1,-3,1],[9E+09,9E+09,9E+09,9E+09,9E+09,9E+09]],v50,z0,T2_R2\WObj:=DHI_WO_R2;
     MoveJ [[65.310,63.319,-6.000],[9.73406E-05,-0.156597,-0.987662,-8.78936E-05],[-1,-1,-3,1],[9E+09,9E+09,9E+09,9E+09,9E+09,9E+09]],v50,z0,T2_R2\WObj:=DHI_WO_R2;
     MoveJ [[65.220,63.374,-6.000],[9.73406E-05,-0.156597,-0.987662,-8.78936E-05],[-1,-1,-3,1],[9E+09,9E+09,9E+09,9E+09,9E+09,9E+09]],v50,z0,T2_R2\WObj:=DHI_WO_R2;
     MoveJ [[65.030,63.498,-6.000],[9.73406E-05,-0.156597,-0.987662,-8.78936E-05],[-1,-1,-3,1],[9E+09,9E+09,9E+09,9E+09,9E+09,9E+09]],v50,z0,T2_R2\WObj:=DHI_WO_R2;
     MoveJ [[64.840,63.621,-6.000],[9.73406E-05,-0.156597,-0.987662,-8.78936E-05],[-1,-1,-3,1],[9E+09,9E+09,9E+09,9E+09,9E+09,9E+09]],v50,z0,T2_R2\WObj:=DHI_WO_R2;
     MoveJ [[64.720,63.699,-6.000],[9.73406E-05,-0.156597,-0.987662,-8.78936E-05],[-1,-1,-3,1],[9E+09,9E+09,9E+09,9E+09,9E+09,9E+09]],v50,z0,T2_R2\WObj:=DHI_WO_R2;
     MoveJ [[64.080,64.110,-6.000],[9.73406E-05,-0.156597,-0.987662,-8.78936E-05],[-1,-1,-3,1],[9E+09,9E+09,9E+09,9E+09,9E+09,9E+09]],v50,z0,T2_R2\WObj:=DHI_WO_R2;
     MoveJ [[63.890,64.232,-6.000],[9.73406E-05,-0.156597,-0.987662,-8.78936E-05],[-1,-1,-3,1],[9E+09,9E+09,9E+09,9E+09,9E+09,9E+09]],v50,z0,T2_R2\WObj:=DHI_WO_R2;
     MoveJ [[63.510,64.474,-6.000],[9.73406E-05,-0.156597,-0.987662,-8.78936E-05],[-1,-1,-3,1],[9E+09,9E+09,9E+09,9E+09,9E+09,9E+09]],v50,z0,T2_R2\WObj:=DHI_WO_R2;
     MoveJ [[63.320,64.594,-6.000],[9.73406E-05,-0.156597,-0.987662,-8.78936E-05],[-1,-1,-3,1],[9E+09,9E+09,9E+09,9E+09,9E+09,9E+09]],v50,z0,T2_R2\WObj:=DHI_WO_R2;
     MoveJ [[63.130,64.713,-6.000],[9.73406E-05,-0.156597,-0.987662,-8.78936E-05],[-1,-1,-3,1],[9E+09,9E+09,9E+09,9E+09,9E+09,9E+09]],v50,z0,T2_R2\WObj:=DHI_WO_R2;
     MoveJ [[62.940,64.832,-6.000],[9.73406E-05,-0.156597,-0.987662,-8.78936E-05],[-1,-1,-3,1],[9E+09,9E+09,9E+09,9E+09,9E+09,9E+09]],v50,z0,T2_R2\WObj:=DHI_WO_R2;
     MoveJ [[62.560,65.070,-6.000],[9.73406E-05,-0.156597,-0.987662,-8.78936E-05],[-1,-1,-3,1],[9E+09,9E+09,9E+09,9E+09,9E+09,9E+09]],v50,z0,T2_R2\WObj:=DHI_WO_R2;
     MoveJ [[62.370,65.188,-6.000],[9.73406E-05,-0.156597,-0.987662,-8.78936E-05],[-1,-1,-3,1],[9E+09,9E+09,9E+09,9E+09,9E+09,9E+09]],v50,z0,T2_R2\WObj:=DHI_WO_R2;
     MoveJ [[62.010,65.410,-6.000],[9.73406E-05,-0.156597,-0.987662,-8.78936E-05],[-1,-1,-3,1],[9E+09,9E+09,9E+09,9E+09,9E+09,9E+09]],v50,z0,T2_R2\WObj:=DHI_WO_R2;
     MoveJ [[61.990,65.423,-6.000],[9.73406E-05,-0.156597,-0.987662,-8.78936E-05],[-1,-1,-3,1],[9E+09,9E+09,9E+09,9E+09,9E+09,9E+09]],v50,z0,T2_R2\WObj:=DHI_WO_R2;
     MoveJ [[61.610,65.655,-6.000],[9.73406E-05,-0.156597,-0.987662,-8.78936E-05],[-1,-1,-3,1],[9E+09,9E+09,9E+09,9E+09,9E+09,9E+09]],v50,z0,T2_R2\WObj:=DHI_WO_R2;
     MoveJ [[61.420,65.771,-6.000],[9.73406E-05,-0.156597,-0.987662,-8.78936E-05],[-1,-1,-3,1],[9E+09,9E+09,9E+09,9E+09,9E+09,9E+09]],v50,z0,T2_R2\WObj:=DHI_WO_R2;
     MoveJ [[61.080,65.980,-6.000],[9.73406E-05,-0.156597,-0.987662,-8.78936E-05],[-1,-1,-3,1],[9E+09,9E+09,9E+09,9E+09,9E+09,9E+09]],v50,z0,T2_R2\WObj:=DHI_WO_R2;
     MoveJ [[61.040,66.002,-6.000],[9.73406E-05,-0.156597,-0.987662,-8.78936E-05],[-1,-1,-3,1],[9E+09,9E+09,9E+09,9E+09,9E+09,9E+09]],v50,z0,T2_R2\WObj:=DHI_WO_R2;
     MoveJ [[60.760,66.170,-6.000],[9.73406E-05,-0.156597,-0.987662,-8.78936E-05],[-1,-1,-3,1],[9E+09,9E+09,9E+09,9E+09,9E+09,9E+09]],v50,z0,T2_R2\WObj:=DHI_WO_R2;
     MoveJ [[60.660,66.230,-6.000],[9.73406E-05,-0.156597,-0.987662,-8.78936E-05],[-1,-1,-3,1],[9E+09,9E+09,9E+09,9E+09,9E+09,9E+09]],v50,z0,T2_R2\WObj:=DHI_WO_R2;
     MoveJ [[60.090,66.569,-6.000],[9.73406E-05,-0.156597,-0.987662,-8.78936E-05],[-1,-1,-3,1],[9E+09,9E+09,9E+09,9E+09,9E+09,9E+09]],v50,z0,T2_R2\WObj:=DHI_WO_R2;
     MoveJ [[59.900,66.682,-6.000],[9.73406E-05,-0.156597,-0.987662,-8.78936E-05],[-1,-1,-3,1],[9E+09,9E+09,9E+09,9E+09,9E+09,9E+09]],v50,z0,T2_R2\WObj:=DHI_WO_R2;
     MoveJ [[59.800,66.741,-6.000],[9.73406E-05,-0.156597,-0.987662,-8.78936E-05],[-1,-1,-3,1],[9E+09,9E+09,9E+09,9E+09,9E+09,9E+09]],v50,z0,T2_R2\WObj:=DHI_WO_R2;
     MoveJ [[59.710,66.794,-6.000],[9.73406E-05,-0.156597,-0.987662,-8.78936E-05],[-1,-1,-3,1],[9E+09,9E+09,9E+09,9E+09,9E+09,9E+09]],v50,z0,T2_R2\WObj:=DHI_WO_R2;
     MoveJ [[59.140,67.124,-6.000],[9.73406E-05,-0.156597,-0.987662,-8.78936E-05],[-1,-1,-3,1],[9E+09,9E+09,9E+09,9E+09,9E+09,9E+09]],v50,z0,T2_R2\WObj:=DHI_WO_R2;
     MoveJ [[58.950,67.234,-6.000],[9.73406E-05,-0.156597,-0.987662,-8.78936E-05],[-1,-1,-3,1],[9E+09,9E+09,9E+09,9E+09,9E+09,9E+09]],v50,z0,T2_R2\WObj:=DHI_WO_R2;
     MoveJ [[58.490,67.501,-6.000],[9.73406E-05,-0.156597,-0.987662,-8.78936E-05],[-1,-1,-3,1],[9E+09,9E+09,9E+09,9E+09,9E+09,9E+09]],v50,z0,T2_R2\WObj:=DHI_WO_R2;
     MoveJ [[58.380,67.564,-6.000],[9.73406E-05,-0.156597,-0.987662,-8.78936E-05],[-1,-1,-3,1],[9E+09,9E+09,9E+09,9E+09,9E+09,9E+09]],v50,z0,T2_R2\WObj:=DHI_WO_R2;
     MoveJ [[58.190,67.672,-6.000],[9.73406E-05,-0.156597,-0.987662,-8.78936E-05],[-1,-1,-3,1],[9E+09,9E+09,9E+09,9E+09,9E+09,9E+09]],v50,z0,T2_R2\WObj:=DHI_WO_R2;
     MoveJ [[58.000,67.779,-6.000],[9.73406E-05,-0.156597,-0.987662,-8.78936E-05],[-1,-1,-3,1],[9E+09,9E+09,9E+09,9E+09,9E+09,9E+09]],v50,z0,T2_R2\WObj:=DHI_WO_R2;
     MoveJ [[57.810,67.887,-6.000],[9.73406E-05,-0.156597,-0.987662,-8.78936E-05],[-1,-1,-3,1],[9E+09,9E+09,9E+09,9E+09,9E+09,9E+09]],v50,z0,T2_R2\WObj:=DHI_WO_R2;
     MoveJ [[57.620,67.994,-6.000],[9.73406E-05,-0.156597,-0.987662,-8.78936E-05],[-1,-1,-3,1],[9E+09,9E+09,9E+09,9E+09,9E+09,9E+09]],v50,z0,T2_R2\WObj:=DHI_WO_R2;
     MoveJ [[57.480,68.071,-6.000],[9.73406E-05,-0.156597,-0.987662,-8.78936E-05],[-1,-1,-3,1],[9E+09,9E+09,9E+09,9E+09,9E+09,9E+09]],v50,z0,T2_R2\WObj:=DHI_WO_R2;
     MoveJ [[57.430,68.100,-6.000],[9.73406E-05,-0.156597,-0.987662,-8.78936E-05],[-1,-1,-3,1],[9E+09,9E+09,9E+09,9E+09,9E+09,9E+09]],v50,z0,T2_R2\WObj:=DHI_WO_R2;
     MoveJ [[57.050,68.311,-6.000],[9.73406E-05,-0.156597,-0.987662,-8.78936E-05],[-1,-1,-3,1],[9E+09,9E+09,9E+09,9E+09,9E+09,9E+09]],v50,z0,T2_R2\WObj:=DHI_WO_R2;
     MoveJ [[56.860,68.416,-6.000],[9.73406E-05,-0.156597,-0.987662,-8.78936E-05],[-1,-1,-3,1],[9E+09,9E+09,9E+09,9E+09,9E+09,9E+09]],v50,z0,T2_R2\WObj:=DHI_WO_R2;
     MoveJ [[56.670,68.521,-6.000],[9.73406E-05,-0.156597,-0.987662,-8.78936E-05],[-1,-1,-3,1],[9E+09,9E+09,9E+09,9E+09,9E+09,9E+09]],v50,z0,T2_R2\WObj:=DHI_WO_R2;
     MoveJ [[56.480,68.625,-6.000],[9.73406E-05,-0.156597,-0.987662,-8.78936E-05],[-1,-1,-3,1],[9E+09,9E+09,9E+09,9E+09,9E+09,9E+09]],v50,z0,T2_R2\WObj:=DHI_WO_R2;
     MoveJ [[56.100,68.832,-6.000],[9.73406E-05,-0.156597,-0.987662,-8.78936E-05],[-1,-1,-3,1],[9E+09,9E+09,9E+09,9E+09,9E+09,9E+09]],v50,z0,T2_R2\WObj:=DHI_WO_R2;
     MoveJ [[55.910,68.934,-6.000],[9.73406E-05,-0.156597,-0.987662,-8.78936E-05],[-1,-1,-3,1],[9E+09,9E+09,9E+09,9E+09,9E+09,9E+09]],v50,z0,T2_R2\WObj:=DHI_WO_R2;
     MoveJ [[55.740,69.022,-6.000],[9.73406E-05,-0.156597,-0.987662,-8.78936E-05],[-1,-1,-3,1],[9E+09,9E+09,9E+09,9E+09,9E+09,9E+09]],v50,z0,T2_R2\WObj:=DHI_WO_R2;
     MoveJ [[55.340,69.240,-6.000],[9.73406E-05,-0.156597,-0.987662,-8.78936E-05],[-1,-1,-3,1],[9E+09,9E+09,9E+09,9E+09,9E+09,9E+09]],v50,z0,T2_R2\WObj:=DHI_WO_R2;
     MoveJ [[55.150,69.341,-6.000],[9.73406E-05,-0.156597,-0.987662,-8.78936E-05],[-1,-1,-3,1],[9E+09,9E+09,9E+09,9E+09,9E+09,9E+09]],v50,z0,T2_R2\WObj:=DHI_WO_R2;
     MoveJ [[54.580,69.640,-6.000],[9.73406E-05,-0.156597,-0.987662,-8.78936E-05],[-1,-1,-3,1],[9E+09,9E+09,9E+09,9E+09,9E+09,9E+09]],v50,z0,T2_R2\WObj:=DHI_WO_R2;
     MoveJ [[54.390,69.738,-6.000],[9.73406E-05,-0.156597,-0.987662,-8.78936E-05],[-1,-1,-3,1],[9E+09,9E+09,9E+09,9E+09,9E+09,9E+09]],v50,z0,T2_R2\WObj:=DHI_WO_R2;
     MoveJ [[54.300,69.782,-6.000],[9.73406E-05,-0.156597,-0.987662,-8.78936E-05],[-1,-1,-3,1],[9E+09,9E+09,9E+09,9E+09,9E+09,9E+09]],v50,z0,T2_R2\WObj:=DHI_WO_R2;
     MoveJ [[54.200,69.836,-6.000],[9.73406E-05,-0.156597,-0.987662,-8.78936E-05],[-1,-1,-3,1],[9E+09,9E+09,9E+09,9E+09,9E+09,9E+09]],v50,z0,T2_R2\WObj:=DHI_WO_R2;
     MoveJ [[54.010,69.935,-6.000],[9.73406E-05,-0.156597,-0.987662,-8.78936E-05],[-1,-1,-3,1],[9E+09,9E+09,9E+09,9E+09,9E+09,9E+09]],v50,z0,T2_R2\WObj:=DHI_WO_R2;
     MoveJ [[53.930,69.972,-6.000],[9.73406E-05,-0.156597,-0.987662,-8.78936E-05],[-1,-1,-3,1],[9E+09,9E+09,9E+09,9E+09,9E+09,9E+09]],v50,z0,T2_R2\WObj:=DHI_WO_R2;
     MoveJ [[53.630,70.128,-6.000],[9.73406E-05,-0.156597,-0.987662,-8.78936E-05],[-1,-1,-3,1],[9E+09,9E+09,9E+09,9E+09,9E+09,9E+09]],v50,z0,T2_R2\WObj:=DHI_WO_R2;
     MoveJ [[53.560,70.162,-6.000],[9.73406E-05,-0.156597,-0.987662,-8.78936E-05],[-1,-1,-3,1],[9E+09,9E+09,9E+09,9E+09,9E+09,9E+09]],v50,z0,T2_R2\WObj:=DHI_WO_R2;
     MoveJ [[53.060,70.416,-6.000],[9.73406E-05,-0.156597,-0.987662,-8.78936E-05],[-1,-1,-3,1],[9E+09,9E+09,9E+09,9E+09,9E+09,9E+09]],v50,z0,T2_R2\WObj:=DHI_WO_R2;
     MoveJ [[52.860,70.511,-6.000],[9.73406E-05,-0.156597,-0.987662,-8.78936E-05],[-1,-1,-3,1],[9E+09,9E+09,9E+09,9E+09,9E+09,9E+09]],v50,z0,T2_R2\WObj:=DHI_WO_R2;
     MoveJ [[52.670,70.606,-6.000],[9.73406E-05,-0.156597,-0.987662,-8.78936E-05],[-1,-1,-3,1],[9E+09,9E+09,9E+09,9E+09,9E+09,9E+09]],v50,z0,T2_R2\WObj:=DHI_WO_R2;
     MoveJ [[52.480,70.700,-6.000],[9.73406E-05,-0.156597,-0.987662,-8.78936E-05],[-1,-1,-3,1],[9E+09,9E+09,9E+09,9E+09,9E+09,9E+09]],v50,z0,T2_R2\WObj:=DHI_WO_R2;
     MoveJ [[52.290,70.794,-6.000],[9.73406E-05,-0.156597,-0.987662,-8.78936E-05],[-1,-1,-3,1],[9E+09,9E+09,9E+09,9E+09,9E+09,9E+09]],v50,z0,T2_R2\WObj:=DHI_WO_R2;
     MoveJ [[52.030,70.923,-6.000],[9.73406E-05,-0.156597,-0.987662,-8.78936E-05],[-1,-1,-3,1],[9E+09,9E+09,9E+09,9E+09,9E+09,9E+09]],v50,z0,T2_R2\WObj:=DHI_WO_R2;
     MoveJ [[51.910,70.980,-6.000],[9.73406E-05,-0.156597,-0.987662,-8.78936E-05],[-1,-1,-3,1],[9E+09,9E+09,9E+09,9E+09,9E+09,9E+09]],v50,z0,T2_R2\WObj:=DHI_WO_R2;
     MoveJ [[51.340,71.255,-6.000],[9.73406E-05,-0.156597,-0.987662,-8.78936E-05],[-1,-1,-3,1],[9E+09,9E+09,9E+09,9E+09,9E+09,9E+09]],v50,z0,T2_R2\WObj:=DHI_WO_R2;
     MoveJ [[51.240,71.303,-6.000],[9.73406E-05,-0.156597,-0.987662,-8.78936E-05],[-1,-1,-3,1],[9E+09,9E+09,9E+09,9E+09,9E+09,9E+09]],v50,z0,T2_R2\WObj:=DHI_WO_R2;
     MoveJ [[51.150,71.345,-6.000],[9.73406E-05,-0.156597,-0.987662,-8.78936E-05],[-1,-1,-3,1],[9E+09,9E+09,9E+09,9E+09,9E+09,9E+09]],v50,z0,T2_R2\WObj:=DHI_WO_R2;
     MoveJ [[50.960,71.435,-6.000],[9.73406E-05,-0.156597,-0.987662,-8.78936E-05],[-1,-1,-3,1],[9E+09,9E+09,9E+09,9E+09,9E+09,9E+09]],v50,z0,T2_R2\WObj:=DHI_WO_R2;
     MoveJ [[50.390,71.702,-6.000],[9.73406E-05,-0.156597,-0.987662,-8.78936E-05],[-1,-1,-3,1],[9E+09,9E+09,9E+09,9E+09,9E+09,9E+09]],v50,z0,T2_R2\WObj:=DHI_WO_R2;
     MoveJ [[50.200,71.790,-6.000],[9.73406E-05,-0.156597,-0.987662,-8.78936E-05],[-1,-1,-3,1],[9E+09,9E+09,9E+09,9E+09,9E+09,9E+09]],v50,z0,T2_R2\WObj:=DHI_WO_R2;
     MoveJ [[50.020,71.873,-6.000],[9.73406E-05,-0.156597,-0.987662,-8.78936E-05],[-1,-1,-3,1],[9E+09,9E+09,9E+09,9E+09,9E+09,9E+09]],v50,z0,T2_R2\WObj:=DHI_WO_R2;
     MoveJ [[49.610,72.063,-6.000],[9.73406E-05,-0.156597,-0.987662,-8.78936E-05],[-1,-1,-3,1],[9E+09,9E+09,9E+09,9E+09,9E+09,9E+09]],v50,z0,T2_R2\WObj:=DHI_WO_R2;
     MoveJ [[49.440,72.138,-6.000],[9.73406E-05,-0.156597,-0.987662,-8.78936E-05],[-1,-1,-3,1],[9E+09,9E+09,9E+09,9E+09,9E+09,9E+09]],v50,z0,T2_R2\WObj:=DHI_WO_R2;
     MoveJ [[49.250,72.224,-6.000],[9.73406E-05,-0.156597,-0.987662,-8.78936E-05],[-1,-1,-3,1],[9E+09,9E+09,9E+09,9E+09,9E+09,9E+09]],v50,z0,T2_R2\WObj:=DHI_WO_R2;
     MoveJ [[49.190,72.253,-6.000],[9.73406E-05,-0.156597,-0.987662,-8.78936E-05],[-1,-1,-3,1],[9E+09,9E+09,9E+09,9E+09,9E+09,9E+09]],v50,z0,T2_R2\WObj:=DHI_WO_R2;
     MoveJ [[48.870,72.394,-6.000],[9.73406E-05,-0.156597,-0.987662,-8.78936E-05],[-1,-1,-3,1],[9E+09,9E+09,9E+09,9E+09,9E+09,9E+09]],v50,z0,T2_R2\WObj:=DHI_WO_R2;
     MoveJ [[48.760,72.443,-6.000],[9.73406E-05,-0.156597,-0.987662,-8.78936E-05],[-1,-1,-3,1],[9E+09,9E+09,9E+09,9E+09,9E+09,9E+09]],v50,z0,T2_R2\WObj:=DHI_WO_R2;
     MoveJ [[48.680,72.479,-6.000],[9.73406E-05,-0.156597,-0.987662,-8.78936E-05],[-1,-1,-3,1],[9E+09,9E+09,9E+09,9E+09,9E+09,9E+09]],v50,z0,T2_R2\WObj:=DHI_WO_R2;
     MoveJ [[48.300,72.646,-6.000],[9.73406E-05,-0.156597,-0.987662,-8.78936E-05],[-1,-1,-3,1],[9E+09,9E+09,9E+09,9E+09,9E+09,9E+09]],v50,z0,T2_R2\WObj:=DHI_WO_R2;
     MoveJ [[48.110,72.729,-6.000],[9.73406E-05,-0.156597,-0.987662,-8.78936E-05],[-1,-1,-3,1],[9E+09,9E+09,9E+09,9E+09,9E+09,9E+09]],v50,z0,T2_R2\WObj:=DHI_WO_R2;
     MoveJ [[47.730,72.893,-6.000],[9.73406E-05,-0.156597,-0.987662,-8.78936E-05],[-1,-1,-3,1],[9E+09,9E+09,9E+09,9E+09,9E+09,9E+09]],v50,z0,T2_R2\WObj:=DHI_WO_R2;
     MoveJ [[47.540,72.975,-6.000],[9.73406E-05,-0.156597,-0.987662,-8.78936E-05],[-1,-1,-3,1],[9E+09,9E+09,9E+09,9E+09,9E+09,9E+09]],v50,z0,T2_R2\WObj:=DHI_WO_R2;
     MoveJ [[47.350,73.055,-6.000],[9.73406E-05,-0.156597,-0.987662,-8.78936E-05],[-1,-1,-3,1],[9E+09,9E+09,9E+09,9E+09,9E+09,9E+09]],v50,z0,T2_R2\WObj:=DHI_WO_R2;
     MoveJ [[47.160,73.135,-6.000],[9.73406E-05,-0.156597,-0.987662,-8.78936E-05],[-1,-1,-3,1],[9E+09,9E+09,9E+09,9E+09,9E+09,9E+09]],v50,z0,T2_R2\WObj:=DHI_WO_R2;
     MoveJ [[46.590,73.373,-6.000],[9.73406E-05,-0.156597,-0.987662,-8.78936E-05],[-1,-1,-3,1],[9E+09,9E+09,9E+09,9E+09,9E+09,9E+09]],v50,z0,T2_R2\WObj:=DHI_WO_R2;
     MoveJ [[46.400,73.453,-6.000],[9.73406E-05,-0.156597,-0.987662,-8.78936E-05],[-1,-1,-3,1],[9E+09,9E+09,9E+09,9E+09,9E+09,9E+09]],v50,z0,T2_R2\WObj:=DHI_WO_R2;
     MoveJ [[46.210,73.531,-6.000],[9.73406E-05,-0.156597,-0.987662,-8.78936E-05],[-1,-1,-3,1],[9E+09,9E+09,9E+09,9E+09,9E+09,9E+09]],v50,z0,T2_R2\WObj:=DHI_WO_R2;
     MoveJ [[46.080,73.584,-6.000],[9.73406E-05,-0.156597,-0.987662,-8.78936E-05],[-1,-1,-3,1],[9E+09,9E+09,9E+09,9E+09,9E+09,9E+09]],v50,z0,T2_R2\WObj:=DHI_WO_R2;
     MoveJ [[46.020,73.609,-6.000],[9.73406E-05,-0.156597,-0.987662,-8.78936E-05],[-1,-1,-3,1],[9E+09,9E+09,9E+09,9E+09,9E+09,9E+09]],v50,z0,T2_R2\WObj:=DHI_WO_R2;
     MoveJ [[45.610,73.774,-6.000],[9.73406E-05,-0.156597,-0.987662,-8.78936E-05],[-1,-1,-3,1],[9E+09,9E+09,9E+09,9E+09,9E+09,9E+09]],v50,z0,T2_R2\WObj:=DHI_WO_R2;
     MoveJ [[45.450,73.839,-6.000],[9.73406E-05,-0.156597,-0.987662,-8.78936E-05],[-1,-1,-3,1],[9E+09,9E+09,9E+09,9E+09,9E+09,9E+09]],v50,z0,T2_R2\WObj:=DHI_WO_R2;
     MoveJ [[45.070,73.990,-6.000],[9.73406E-05,-0.156597,-0.987662,-8.78936E-05],[-1,-1,-3,1],[9E+09,9E+09,9E+09,9E+09,9E+09,9E+09]],v50,z0,T2_R2\WObj:=DHI_WO_R2;
     MoveJ [[44.880,74.065,-6.000],[9.73406E-05,-0.156597,-0.987662,-8.78936E-05],[-1,-1,-3,1],[9E+09,9E+09,9E+09,9E+09,9E+09,9E+09]],v50,z0,T2_R2\WObj:=DHI_WO_R2;
     MoveJ [[44.650,74.154,-6.000],[9.73406E-05,-0.156597,-0.987662,-8.78936E-05],[-1,-1,-3,1],[9E+09,9E+09,9E+09,9E+09,9E+09,9E+09]],v50,z0,T2_R2\WObj:=DHI_WO_R2;
     MoveJ [[44.500,74.213,-6.000],[9.73406E-05,-0.156597,-0.987662,-8.78936E-05],[-1,-1,-3,1],[9E+09,9E+09,9E+09,9E+09,9E+09,9E+09]],v50,z0,T2_R2\WObj:=DHI_WO_R2;
     MoveJ [[44.160,74.344,-6.000],[9.73406E-05,-0.156597,-0.987662,-8.78936E-05],[-1,-1,-3,1],[9E+09,9E+09,9E+09,9E+09,9E+09,9E+09]],v50,z0,T2_R2\WObj:=DHI_WO_R2;
     MoveJ [[44.120,74.359,-6.000],[9.73406E-05,-0.156597,-0.987662,-8.78936E-05],[-1,-1,-3,1],[9E+09,9E+09,9E+09,9E+09,9E+09,9E+09]],v50,z0,T2_R2\WObj:=DHI_WO_R2;
     MoveJ [[43.930,74.431,-6.000],[9.73406E-05,-0.156597,-0.987662,-8.78936E-05],[-1,-1,-3,1],[9E+09,9E+09,9E+09,9E+09,9E+09,9E+09]],v50,z0,T2_R2\WObj:=DHI_WO_R2;
     MoveJ [[43.660,74.534,-6.000],[9.73406E-05,-0.156597,-0.987662,-8.78936E-05],[-1,-1,-3,1],[9E+09,9E+09,9E+09,9E+09,9E+09,9E+09]],v50,z0,T2_R2\WObj:=DHI_WO_R2;
     MoveJ [[43.550,74.575,-6.000],[9.73406E-05,-0.156597,-0.987662,-8.78936E-05],[-1,-1,-3,1],[9E+09,9E+09,9E+09,9E+09,9E+09,9E+09]],v50,z0,T2_R2\WObj:=DHI_WO_R2;
     MoveJ [[43.360,74.646,-6.000],[9.73406E-05,-0.156597,-0.987662,-8.78936E-05],[-1,-1,-3,1],[9E+09,9E+09,9E+09,9E+09,9E+09,9E+09]],v50,z0,T2_R2\WObj:=DHI_WO_R2;
     MoveJ [[43.170,74.717,-6.000],[9.73406E-05,-0.156597,-0.987662,-8.78936E-05],[-1,-1,-3,1],[9E+09,9E+09,9E+09,9E+09,9E+09,9E+09]],v50,z0,T2_R2\WObj:=DHI_WO_R2;
     MoveJ [[42.980,74.787,-6.000],[9.73406E-05,-0.156597,-0.987662,-8.78936E-05],[-1,-1,-3,1],[9E+09,9E+09,9E+09,9E+09,9E+09,9E+09]],v50,z0,T2_R2\WObj:=DHI_WO_R2;
     MoveJ [[42.790,74.857,-6.000],[9.73406E-05,-0.156597,-0.987662,-8.78936E-05],[-1,-1,-3,1],[9E+09,9E+09,9E+09,9E+09,9E+09,9E+09]],v50,z0,T2_R2\WObj:=DHI_WO_R2;
     MoveJ [[42.600,74.926,-6.000],[9.73406E-05,-0.156597,-0.987662,-8.78936E-05],[-1,-1,-3,1],[9E+09,9E+09,9E+09,9E+09,9E+09,9E+09]],v50,z0,T2_R2\WObj:=DHI_WO_R2;
     MoveJ [[42.410,74.995,-6.000],[9.73406E-05,-0.156597,-0.987662,-8.78936E-05],[-1,-1,-3,1],[9E+09,9E+09,9E+09,9E+09,9E+09,9E+09]],v50,z0,T2_R2\WObj:=DHI_WO_R2;
     MoveJ [[42.220,75.064,-6.000],[9.73406E-05,-0.156597,-0.987662,-8.78936E-05],[-1,-1,-3,1],[9E+09,9E+09,9E+09,9E+09,9E+09,9E+09]],v50,z0,T2_R2\WObj:=DHI_WO_R2;
     MoveJ [[42.100,75.104,-6.000],[9.73406E-05,-0.156597,-0.987662,-8.78936E-05],[-1,-1,-3,1],[9E+09,9E+09,9E+09,9E+09,9E+09,9E+09]],v50,z0,T2_R2\WObj:=DHI_WO_R2;
     MoveJ [[42.030,75.132,-6.000],[9.73406E-05,-0.156597,-0.987662,-8.78936E-05],[-1,-1,-3,1],[9E+09,9E+09,9E+09,9E+09,9E+09,9E+09]],v50,z0,T2_R2\WObj:=DHI_WO_R2;
     MoveJ [[41.840,75.199,-6.000],[9.73406E-05,-0.156597,-0.987662,-8.78936E-05],[-1,-1,-3,1],[9E+09,9E+09,9E+09,9E+09,9E+09,9E+09]],v50,z0,T2_R2\WObj:=DHI_WO_R2;
     MoveJ [[41.650,75.266,-6.000],[9.73406E-05,-0.156597,-0.987662,-8.78936E-05],[-1,-1,-3,1],[9E+09,9E+09,9E+09,9E+09,9E+09,9E+09]],v50,z0,T2_R2\WObj:=DHI_WO_R2;
     MoveJ [[41.460,75.333,-6.000],[9.73406E-05,-0.156597,-0.987662,-8.78936E-05],[-1,-1,-3,1],[9E+09,9E+09,9E+09,9E+09,9E+09,9E+09]],v50,z0,T2_R2\WObj:=DHI_WO_R2;
     MoveJ [[41.270,75.399,-6.000],[9.73406E-05,-0.156597,-0.987662,-8.78936E-05],[-1,-1,-3,1],[9E+09,9E+09,9E+09,9E+09,9E+09,9E+09]],v50,z0,T2_R2\WObj:=DHI_WO_R2;
     MoveJ [[41.080,75.465,-6.000],[9.73406E-05,-0.156597,-0.987662,-8.78936E-05],[-1,-1,-3,1],[9E+09,9E+09,9E+09,9E+09,9E+09,9E+09]],v50,z0,T2_R2\WObj:=DHI_WO_R2;
     MoveJ [[41.020,75.485,-6.000],[9.73406E-05,-0.156597,-0.987662,-8.78936E-05],[-1,-1,-3,1],[9E+09,9E+09,9E+09,9E+09,9E+09,9E+09]],v50,z0,T2_R2\WObj:=DHI_WO_R2;
     MoveJ [[40.890,75.530,-6.000],[9.73406E-05,-0.156597,-0.987662,-8.78936E-05],[-1,-1,-3,1],[9E+09,9E+09,9E+09,9E+09,9E+09,9E+09]],v50,z0,T2_R2\WObj:=DHI_WO_R2;
     MoveJ [[40.700,75.595,-6.000],[9.73406E-05,-0.156597,-0.987662,-8.78936E-05],[-1,-1,-3,1],[9E+09,9E+09,9E+09,9E+09,9E+09,9E+09]],v50,z0,T2_R2\WObj:=DHI_WO_R2;
     MoveJ [[40.510,75.660,-6.000],[9.73406E-05,-0.156597,-0.987662,-8.78936E-05],[-1,-1,-3,1],[9E+09,9E+09,9E+09,9E+09,9E+09,9E+09]],v50,z0,T2_R2\WObj:=DHI_WO_R2;
     MoveJ [[40.460,75.675,-6.000],[9.73406E-05,-0.156597,-0.987662,-8.78936E-05],[-1,-1,-3,1],[9E+09,9E+09,9E+09,9E+09,9E+09,9E+09]],v50,z0,T2_R2\WObj:=DHI_WO_R2;
     MoveJ [[40.320,75.724,-6.000],[9.73406E-05,-0.156597,-0.987662,-8.78936E-05],[-1,-1,-3,1],[9E+09,9E+09,9E+09,9E+09,9E+09,9E+09]],v50,z0,T2_R2\WObj:=DHI_WO_R2;
     MoveJ [[40.130,75.787,-6.000],[9.73406E-05,-0.156597,-0.987662,-8.78936E-05],[-1,-1,-3,1],[9E+09,9E+09,9E+09,9E+09,9E+09,9E+09]],v50,z0,T2_R2\WObj:=DHI_WO_R2;
     MoveJ [[39.940,75.850,-6.000],[9.73406E-05,-0.156597,-0.987662,-8.78936E-05],[-1,-1,-3,1],[9E+09,9E+09,9E+09,9E+09,9E+09,9E+09]],v50,z0,T2_R2\WObj:=DHI_WO_R2;
     MoveJ [[39.890,75.865,-6.000],[9.73406E-05,-0.156597,-0.987662,-8.78936E-05],[-1,-1,-3,1],[9E+09,9E+09,9E+09,9E+09,9E+09,9E+09]],v50,z0,T2_R2\WObj:=DHI_WO_R2;
     MoveJ [[39.750,75.913,-6.000],[9.73406E-05,-0.156597,-0.987662,-8.78936E-05],[-1,-1,-3,1],[9E+09,9E+09,9E+09,9E+09,9E+09,9E+09]],v50,z0,T2_R2\WObj:=DHI_WO_R2;
     MoveJ [[39.560,75.975,-6.000],[9.73406E-05,-0.156597,-0.987662,-8.78936E-05],[-1,-1,-3,1],[9E+09,9E+09,9E+09,9E+09,9E+09,9E+09]],v50,z0,T2_R2\WObj:=DHI_WO_R2;
     MoveJ [[39.460,76.006,-6.000],[9.73406E-05,-0.156597,-0.987662,-8.78936E-05],[-1,-1,-3,1],[9E+09,9E+09,9E+09,9E+09,9E+09,9E+09]],v50,z0,T2_R2\WObj:=DHI_WO_R2;
     MoveJ [[39.390,76.031,-6.000],[9.73406E-05,-0.156597,-0.987662,-8.78936E-05],[-1,-1,-3,1],[9E+09,9E+09,9E+09,9E+09,9E+09,9E+09]],v50,z0,T2_R2\WObj:=DHI_WO_R2;
     MoveJ [[39.380,76.031,-6.000],[9.73406E-05,-0.156597,-0.987662,-8.78936E-05],[-1,-1,-3,1],[9E+09,9E+09,9E+09,9E+09,9E+09,9E+09]],v50,z0,T2_R2\WObj:=DHI_WO_R2;
     MoveJ [[38.660,76.031,-6.000],[9.73406E-05,-0.156597,-0.987662,-8.78936E-05],[-1,-1,-3,1],[9E+09,9E+09,9E+09,9E+09,9E+09,9E+09]],v50,z0,T2_R2\WObj:=DHI_WO_R2;
     MoveJ [[38.660,76.031,-6.000],[9.73406E-05,-0.156597,-0.987662,-8.78936E-05],[-1,-1,-3,1],[9E+09,9E+09,9E+09,9E+09,9E+09,9E+09]],v50,z0,T2_R2\WObj:=DHI_WO_R2;
     MoveJ [[32.140,75.805,-6.000],[9.73406E-05,-0.156597,-0.987662,-8.78936E-05],[-1,-1,-3,1],[9E+09,9E+09,9E+09,9E+09,9E+09,9E+09]],v50,z0,T2_R2\WObj:=DHI_WO_R2;
     MoveJ [[31.950,75.798,-6.000],[9.73406E-05,-0.156597,-0.987662,-8.78936E-05],[-1,-1,-3,1],[9E+09,9E+09,9E+09,9E+09,9E+09,9E+09]],v50,z0,T2_R2\WObj:=DHI_WO_R2;
     MoveJ [[31.380,75.777,-6.000],[9.73406E-05,-0.156597,-0.987662,-8.78936E-05],[-1,-1,-3,1],[9E+09,9E+09,9E+09,9E+09,9E+09,9E+09]],v50,z0,T2_R2\WObj:=DHI_WO_R2;
     MoveJ [[31.190,75.770,-6.000],[9.73406E-05,-0.156597,-0.987662,-8.78936E-05],[-1,-1,-3,1],[9E+09,9E+09,9E+09,9E+09,9E+09,9E+09]],v50,z0,T2_R2\WObj:=DHI_WO_R2;
     MoveJ [[29.480,75.707,-6.000],[9.73406E-05,-0.156597,-0.987662,-8.78936E-05],[-1,-1,-3,1],[9E+09,9E+09,9E+09,9E+09,9E+09,9E+09]],v50,z0,T2_R2\WObj:=DHI_WO_R2;
     MoveJ [[29.290,75.700,-6.000],[9.73406E-05,-0.156597,-0.987662,-8.78936E-05],[-1,-1,-3,1],[9E+09,9E+09,9E+09,9E+09,9E+09,9E+09]],v50,z0,T2_R2\WObj:=DHI_WO_R2;
     MoveJ [[29.100,75.693,-6.000],[9.73406E-05,-0.156597,-0.987662,-8.78936E-05],[-1,-1,-3,1],[9E+09,9E+09,9E+09,9E+09,9E+09,9E+09]],v50,z0,T2_R2\WObj:=DHI_WO_R2;
     MoveJ [[28.910,75.686,-6.000],[9.73406E-05,-0.156597,-0.987662,-8.78936E-05],[-1,-1,-3,1],[9E+09,9E+09,9E+09,9E+09,9E+09,9E+09]],v50,z0,T2_R2\WObj:=DHI_WO_R2;
     MoveJ [[27.390,75.631,-6.000],[9.73406E-05,-0.156597,-0.987662,-8.78936E-05],[-1,-1,-3,1],[9E+09,9E+09,9E+09,9E+09,9E+09,9E+09]],v50,z0,T2_R2\WObj:=DHI_WO_R2;
     MoveJ [[26.820,75.610,-6.000],[9.73406E-05,-0.156597,-0.987662,-8.78936E-05],[-1,-1,-3,1],[9E+09,9E+09,9E+09,9E+09,9E+09,9E+09]],v50,z0,T2_R2\WObj:=DHI_WO_R2;
     MoveJ [[26.630,75.603,-6.000],[9.73406E-05,-0.156597,-0.987662,-8.78936E-05],[-1,-1,-3,1],[9E+09,9E+09,9E+09,9E+09,9E+09,9E+09]],v50,z0,T2_R2\WObj:=DHI_WO_R2;
     MoveJ [[25.870,75.576,-6.000],[9.73406E-05,-0.156597,-0.987662,-8.78936E-05],[-1,-1,-3,1],[9E+09,9E+09,9E+09,9E+09,9E+09,9E+09]],v50,z0,T2_R2\WObj:=DHI_WO_R2;
     MoveJ [[22.260,75.445,-6.000],[9.73406E-05,-0.156597,-0.987662,-8.78936E-05],[-1,-1,-3,1],[9E+09,9E+09,9E+09,9E+09,9E+09,9E+09]],v50,z0,T2_R2\WObj:=DHI_WO_R2;
     MoveJ [[22.070,75.438,-6.000],[9.73406E-05,-0.156597,-0.987662,-8.78936E-05],[-1,-1,-3,1],[9E+09,9E+09,9E+09,9E+09,9E+09,9E+09]],v50,z0,T2_R2\WObj:=DHI_WO_R2;
     MoveJ [[21.300,75.411,-6.000],[9.73406E-05,-0.156597,-0.987662,-8.78936E-05],[-1,-1,-3,1],[9E+09,9E+09,9E+09,9E+09,9E+09,9E+09]],v50,z0,T2_R2\WObj:=DHI_WO_R2;
     MoveJ [[21.110,75.404,-6.000],[9.73406E-05,-0.156597,-0.987662,-8.78936E-05],[-1,-1,-3,1],[9E+09,9E+09,9E+09,9E+09,9E+09,9E+09]],v50,z0,T2_R2\WObj:=DHI_WO_R2;
     MoveJ [[19.780,75.356,-6.000],[9.73406E-05,-0.156597,-0.987662,-8.78936E-05],[-1,-1,-3,1],[9E+09,9E+09,9E+09,9E+09,9E+09,9E+09]],v50,z0,T2_R2\WObj:=DHI_WO_R2;
     MoveJ [[19.590,75.350,-6.000],[9.73406E-05,-0.156597,-0.987662,-8.78936E-05],[-1,-1,-3,1],[9E+09,9E+09,9E+09,9E+09,9E+09,9E+09]],v50,z0,T2_R2\WObj:=DHI_WO_R2;
     MoveJ [[18.450,75.309,-6.000],[9.73406E-05,-0.156597,-0.987662,-8.78936E-05],[-1,-1,-3,1],[9E+09,9E+09,9E+09,9E+09,9E+09,9E+09]],v50,z0,T2_R2\WObj:=DHI_WO_R2;
     MoveJ [[18.260,75.303,-6.000],[9.73406E-05,-0.156597,-0.987662,-8.78936E-05],[-1,-1,-3,1],[9E+09,9E+09,9E+09,9E+09,9E+09,9E+09]],v50,z0,T2_R2\WObj:=DHI_WO_R2;
     MoveJ [[17.500,75.275,-6.000],[9.73406E-05,-0.156597,-0.987662,-8.78936E-05],[-1,-1,-3,1],[9E+09,9E+09,9E+09,9E+09,9E+09,9E+09]],v50,z0,T2_R2\WObj:=DHI_WO_R2;
     MoveJ [[17.310,75.269,-6.000],[9.73406E-05,-0.156597,-0.987662,-8.78936E-05],[-1,-1,-3,1],[9E+09,9E+09,9E+09,9E+09,9E+09,9E+09]],v50,z0,T2_R2\WObj:=DHI_WO_R2;
     MoveJ [[15.600,75.208,-6.000],[9.73406E-05,-0.156597,-0.987662,-8.78936E-05],[-1,-1,-3,1],[9E+09,9E+09,9E+09,9E+09,9E+09,9E+09]],v50,z0,T2_R2\WObj:=DHI_WO_R2;
     MoveJ [[15.410,75.201,-6.000],[9.73406E-05,-0.156597,-0.987662,-8.78936E-05],[-1,-1,-3,1],[9E+09,9E+09,9E+09,9E+09,9E+09,9E+09]],v50,z0,T2_R2\WObj:=DHI_WO_R2;
     MoveJ [[15.030,75.188,-6.000],[9.73406E-05,-0.156597,-0.987662,-8.78936E-05],[-1,-1,-3,1],[9E+09,9E+09,9E+09,9E+09,9E+09,9E+09]],v50,z0,T2_R2\WObj:=DHI_WO_R2;
     MoveJ [[14.840,75.181,-6.000],[9.73406E-05,-0.156597,-0.987662,-8.78936E-05],[-1,-1,-3,1],[9E+09,9E+09,9E+09,9E+09,9E+09,9E+09]],v50,z0,T2_R2\WObj:=DHI_WO_R2;
     MoveJ [[12.660,75.104,-6.000],[9.73406E-05,-0.156597,-0.987662,-8.78936E-05],[-1,-1,-3,1],[9E+09,9E+09,9E+09,9E+09,9E+09,9E+09]],v50,z0,T2_R2\WObj:=DHI_WO_R2;
     MoveJ [[12.560,75.101,-6.000],[9.73406E-05,-0.156597,-0.987662,-8.78936E-05],[-1,-1,-3,1],[9E+09,9E+09,9E+09,9E+09,9E+09,9E+09]],v50,z0,T2_R2\WObj:=DHI_WO_R2;
     MoveJ [[12.370,75.094,-6.000],[9.73406E-05,-0.156597,-0.987662,-8.78936E-05],[-1,-1,-3,1],[9E+09,9E+09,9E+09,9E+09,9E+09,9E+09]],v50,z0,T2_R2\WObj:=DHI_WO_R2;
     MoveJ [[11.990,75.081,-6.000],[9.73406E-05,-0.156597,-0.987662,-8.78936E-05],[-1,-1,-3,1],[9E+09,9E+09,9E+09,9E+09,9E+09,9E+09]],v50,z0,T2_R2\WObj:=DHI_WO_R2;
     MoveJ [[11.230,75.054,-6.000],[9.73406E-05,-0.156597,-0.987662,-8.78936E-05],[-1,-1,-3,1],[9E+09,9E+09,9E+09,9E+09,9E+09,9E+09]],v50,z0,T2_R2\WObj:=DHI_WO_R2;
     MoveJ [[11.040,75.048,-6.000],[9.73406E-05,-0.156597,-0.987662,-8.78936E-05],[-1,-1,-3,1],[9E+09,9E+09,9E+09,9E+09,9E+09,9E+09]],v50,z0,T2_R2\WObj:=DHI_WO_R2;
     MoveJ [[10.090,75.014,-6.000],[9.73406E-05,-0.156597,-0.987662,-8.78936E-05],[-1,-1,-3,1],[9E+09,9E+09,9E+09,9E+09,9E+09,9E+09]],v50,z0,T2_R2\WObj:=DHI_WO_R2;
     MoveJ [[9.900,75.008,-6.000],[9.73406E-05,-0.156597,-0.987662,-8.78936E-05],[-1,-1,-3,1],[9E+09,9E+09,9E+09,9E+09,9E+09,9E+09]],v50,z0,T2_R2\WObj:=DHI_WO_R2;
     MoveJ [[9.710,75.001,-6.000],[9.73406E-05,-0.156597,-0.987662,-8.78936E-05],[-1,-1,-3,1],[9E+09,9E+09,9E+09,9E+09,9E+09,9E+09]],v50,z0,T2_R2\WObj:=DHI_WO_R2;
     MoveJ [[8.760,74.968,-6.000],[9.73406E-05,-0.156597,-0.987662,-8.78936E-05],[-1,-1,-3,1],[9E+09,9E+09,9E+09,9E+09,9E+09,9E+09]],v50,z0,T2_R2\WObj:=DHI_WO_R2;
     MoveJ [[8.380,74.955,-6.000],[9.73406E-05,-0.156597,-0.987662,-8.78936E-05],[-1,-1,-3,1],[9E+09,9E+09,9E+09,9E+09,9E+09,9E+09]],v50,z0,T2_R2\WObj:=DHI_WO_R2;
     MoveJ [[8.190,74.948,-6.000],[9.73406E-05,-0.156597,-0.987662,-8.78936E-05],[-1,-1,-3,1],[9E+09,9E+09,9E+09,9E+09,9E+09,9E+09]],v50,z0,T2_R2\WObj:=DHI_WO_R2;
     MoveJ [[7.620,74.928,-6.000],[9.73406E-05,-0.156597,-0.987662,-8.78936E-05],[-1,-1,-3,1],[9E+09,9E+09,9E+09,9E+09,9E+09,9E+09]],v50,z0,T2_R2\WObj:=DHI_WO_R2;
     MoveJ [[7.430,74.921,-6.000],[9.73406E-05,-0.156597,-0.987662,-8.78936E-05],[-1,-1,-3,1],[9E+09,9E+09,9E+09,9E+09,9E+09,9E+09]],v50,z0,T2_R2\WObj:=DHI_WO_R2;
     MoveJ [[7.050,74.908,-6.000],[9.73406E-05,-0.156597,-0.987662,-8.78936E-05],[-1,-1,-3,1],[9E+09,9E+09,9E+09,9E+09,9E+09,9E+09]],v50,z0,T2_R2\WObj:=DHI_WO_R2;
     MoveJ [[6.860,74.902,-6.000],[9.73406E-05,-0.156597,-0.987662,-8.78936E-05],[-1,-1,-3,1],[9E+09,9E+09,9E+09,9E+09,9E+09,9E+09]],v50,z0,T2_R2\WObj:=DHI_WO_R2;
     MoveJ [[6.290,74.882,-6.000],[9.73406E-05,-0.156597,-0.987662,-8.78936E-05],[-1,-1,-3,1],[9E+09,9E+09,9E+09,9E+09,9E+09,9E+09]],v50,z0,T2_R2\WObj:=DHI_WO_R2;
     MoveJ [[6.100,74.875,-6.000],[9.73406E-05,-0.156597,-0.987662,-8.78936E-05],[-1,-1,-3,1],[9E+09,9E+09,9E+09,9E+09,9E+09,9E+09]],v50,z0,T2_R2\WObj:=DHI_WO_R2;
     MoveJ [[5.520,74.855,-6.000],[9.73406E-05,-0.156597,-0.987662,-8.78936E-05],[-1,-1,-3,1],[9E+09,9E+09,9E+09,9E+09,9E+09,9E+09]],v50,z0,T2_R2\WObj:=DHI_WO_R2;
     MoveJ [[5.140,74.842,-6.000],[9.73406E-05,-0.156597,-0.987662,-8.78936E-05],[-1,-1,-3,1],[9E+09,9E+09,9E+09,9E+09,9E+09,9E+09]],v50,z0,T2_R2\WObj:=DHI_WO_R2;
     MoveJ [[4.950,74.835,-6.000],[9.73406E-05,-0.156597,-0.987662,-8.78936E-05],[-1,-1,-3,1],[9E+09,9E+09,9E+09,9E+09,9E+09,9E+09]],v50,z0,T2_R2\WObj:=DHI_WO_R2;
     MoveJ [[4.190,74.809,-6.000],[9.73406E-05,-0.156597,-0.987662,-8.78936E-05],[-1,-1,-3,1],[9E+09,9E+09,9E+09,9E+09,9E+09,9E+09]],v50,z0,T2_R2\WObj:=DHI_WO_R2;
     MoveJ [[4.000,74.803,-6.000],[9.73406E-05,-0.156597,-0.987662,-8.78936E-05],[-1,-1,-3,1],[9E+09,9E+09,9E+09,9E+09,9E+09,9E+09]],v50,z0,T2_R2\WObj:=DHI_WO_R2;
     MoveJ [[3.810,74.796,-6.000],[9.73406E-05,-0.156597,-0.987662,-8.78936E-05],[-1,-1,-3,1],[9E+09,9E+09,9E+09,9E+09,9E+09,9E+09]],v50,z0,T2_R2\WObj:=DHI_WO_R2;
     MoveJ [[3.620,74.789,-6.000],[9.73406E-05,-0.156597,-0.987662,-8.78936E-05],[-1,-1,-3,1],[9E+09,9E+09,9E+09,9E+09,9E+09,9E+09]],v50,z0,T2_R2\WObj:=DHI_WO_R2;
     MoveJ [[3.200,74.775,-6.000],[9.73406E-05,-0.156597,-0.987662,-8.78936E-05],[-1,-1,-3,1],[9E+09,9E+09,9E+09,9E+09,9E+09,9E+09]],v50,z0,T2_R2\WObj:=DHI_WO_R2;
     MoveJ [[3.050,74.765,-6.000],[9.73406E-05,-0.156597,-0.987662,-8.78936E-05],[-1,-1,-3,1],[9E+09,9E+09,9E+09,9E+09,9E+09,9E+09]],v50,z0,T2_R2\WObj:=DHI_WO_R2;
     MoveJ [[2.860,74.753,-6.000],[9.73406E-05,-0.156597,-0.987662,-8.78936E-05],[-1,-1,-3,1],[9E+09,9E+09,9E+09,9E+09,9E+09,9E+09]],v50,z0,T2_R2\WObj:=DHI_WO_R2;
     MoveJ [[2.480,74.729,-6.000],[9.73406E-05,-0.156597,-0.987662,-8.78936E-05],[-1,-1,-3,1],[9E+09,9E+09,9E+09,9E+09,9E+09,9E+09]],v50,z0,T2_R2\WObj:=DHI_WO_R2;
     MoveJ [[2.100,74.704,-6.000],[9.73406E-05,-0.156597,-0.987662,-8.78936E-05],[-1,-1,-3,1],[9E+09,9E+09,9E+09,9E+09,9E+09,9E+09]],v50,z0,T2_R2\WObj:=DHI_WO_R2;
     MoveJ [[1.910,74.692,-6.000],[9.73406E-05,-0.156597,-0.987662,-8.78936E-05],[-1,-1,-3,1],[9E+09,9E+09,9E+09,9E+09,9E+09,9E+09]],v50,z0,T2_R2\WObj:=DHI_WO_R2;
     MoveJ [[1.530,74.667,-6.000],[9.73406E-05,-0.156597,-0.987662,-8.78936E-05],[-1,-1,-3,1],[9E+09,9E+09,9E+09,9E+09,9E+09,9E+09]],v50,z0,T2_R2\WObj:=DHI_WO_R2;
     MoveJ [[1.340,74.654,-6.000],[9.73406E-05,-0.156597,-0.987662,-8.78936E-05],[-1,-1,-3,1],[9E+09,9E+09,9E+09,9E+09,9E+09,9E+09]],v50,z0,T2_R2\WObj:=DHI_WO_R2;
     MoveJ [[1.150,74.641,-6.000],[9.73406E-05,-0.156597,-0.987662,-8.78936E-05],[-1,-1,-3,1],[9E+09,9E+09,9E+09,9E+09,9E+09,9E+09]],v50,z0,T2_R2\WObj:=DHI_WO_R2;
     MoveJ [[0.390,74.589,-6.000],[9.73406E-05,-0.156597,-0.987662,-8.78936E-05],[-1,-1,-3,1],[9E+09,9E+09,9E+09,9E+09,9E+09,9E+09]],v50,z0,T2_R2\WObj:=DHI_WO_R2;
     MoveJ [[0.200,74.576,-6.000],[9.73406E-05,-0.156597,-0.987662,-8.78936E-05],[-1,-1,-3,1],[9E+09,9E+09,9E+09,9E+09,9E+09,9E+09]],v50,z0,T2_R2\WObj:=DHI_WO_R2;
     MoveJ [[-0.560,74.524,-6.000],[9.73406E-05,-0.156597,-0.987662,-8.78936E-05],[-1,-1,-3,1],[9E+09,9E+09,9E+09,9E+09,9E+09,9E+09]],v50,z0,T2_R2\WObj:=DHI_WO_R2;
     MoveJ [[-0.750,74.510,-6.000],[9.73406E-05,-0.156597,-0.987662,-8.78936E-05],[-1,-1,-3,1],[9E+09,9E+09,9E+09,9E+09,9E+09,9E+09]],v50,z0,T2_R2\WObj:=DHI_WO_R2;
     MoveJ [[-1.320,74.471,-6.000],[9.73406E-05,-0.156597,-0.987662,-8.78936E-05],[-1,-1,-3,1],[9E+09,9E+09,9E+09,9E+09,9E+09,9E+09]],v50,z0,T2_R2\WObj:=DHI_WO_R2;
     MoveJ [[-1.510,74.457,-6.000],[9.73406E-05,-0.156597,-0.987662,-8.78936E-05],[-1,-1,-3,1],[9E+09,9E+09,9E+09,9E+09,9E+09,9E+09]],v50,z0,T2_R2\WObj:=DHI_WO_R2;
     MoveJ [[-1.700,74.444,-6.000],[9.73406E-05,-0.156597,-0.987662,-8.78936E-05],[-1,-1,-3,1],[9E+09,9E+09,9E+09,9E+09,9E+09,9E+09]],v50,z0,T2_R2\WObj:=DHI_WO_R2;
     MoveJ [[-2.650,74.377,-6.000],[9.73406E-05,-0.156597,-0.987662,-8.78936E-05],[-1,-1,-3,1],[9E+09,9E+09,9E+09,9E+09,9E+09,9E+09]],v50,z0,T2_R2\WObj:=DHI_WO_R2;
     MoveJ [[-3.220,74.336,-6.000],[9.73406E-05,-0.156597,-0.987662,-8.78936E-05],[-1,-1,-3,1],[9E+09,9E+09,9E+09,9E+09,9E+09,9E+09]],v50,z0,T2_R2\WObj:=DHI_WO_R2;
     MoveJ [[-3.410,74.322,-6.000],[9.73406E-05,-0.156597,-0.987662,-8.78936E-05],[-1,-1,-3,1],[9E+09,9E+09,9E+09,9E+09,9E+09,9E+09]],v50,z0,T2_R2\WObj:=DHI_WO_R2;
     MoveJ [[-3.790,74.293,-6.000],[9.73406E-05,-0.156597,-0.987662,-8.78936E-05],[-1,-1,-3,1],[9E+09,9E+09,9E+09,9E+09,9E+09,9E+09]],v50,z0,T2_R2\WObj:=DHI_WO_R2;
     MoveJ [[-3.980,74.279,-6.000],[9.73406E-05,-0.156597,-0.987662,-8.78936E-05],[-1,-1,-3,1],[9E+09,9E+09,9E+09,9E+09,9E+09,9E+09]],v50,z0,T2_R2\WObj:=DHI_WO_R2;
     MoveJ [[-5.120,74.193,-6.000],[9.73406E-05,-0.156597,-0.987662,-8.78936E-05],[-1,-1,-3,1],[9E+09,9E+09,9E+09,9E+09,9E+09,9E+09]],v50,z0,T2_R2\WObj:=DHI_WO_R2;
     MoveJ [[-5.310,74.178,-6.000],[9.73406E-05,-0.156597,-0.987662,-8.78936E-05],[-1,-1,-3,1],[9E+09,9E+09,9E+09,9E+09,9E+09,9E+09]],v50,z0,T2_R2\WObj:=DHI_WO_R2;
     MoveJ [[-5.880,74.134,-6.000],[9.73406E-05,-0.156597,-0.987662,-8.78936E-05],[-1,-1,-3,1],[9E+09,9E+09,9E+09,9E+09,9E+09,9E+09]],v50,z0,T2_R2\WObj:=DHI_WO_R2;
     MoveJ [[-6.070,74.120,-6.000],[9.73406E-05,-0.156597,-0.987662,-8.78936E-05],[-1,-1,-3,1],[9E+09,9E+09,9E+09,9E+09,9E+09,9E+09]],v50,z0,T2_R2\WObj:=DHI_WO_R2;
     MoveJ [[-6.450,74.091,-6.000],[9.73406E-05,-0.156597,-0.987662,-8.78936E-05],[-1,-1,-3,1],[9E+09,9E+09,9E+09,9E+09,9E+09,9E+09]],v50,z0,T2_R2\WObj:=DHI_WO_R2;
     MoveJ [[-6.640,74.076,-6.000],[9.73406E-05,-0.156597,-0.987662,-8.78936E-05],[-1,-1,-3,1],[9E+09,9E+09,9E+09,9E+09,9E+09,9E+09]],v50,z0,T2_R2\WObj:=DHI_WO_R2;
     MoveJ [[-7.970,73.972,-6.000],[9.73406E-05,-0.156597,-0.987662,-8.78936E-05],[-1,-1,-3,1],[9E+09,9E+09,9E+09,9E+09,9E+09,9E+09]],v50,z0,T2_R2\WObj:=DHI_WO_R2;
     MoveJ [[-8.080,73.964,-6.000],[9.73406E-05,-0.156597,-0.987662,-8.78936E-05],[-1,-1,-3,1],[9E+09,9E+09,9E+09,9E+09,9E+09,9E+09]],v50,z0,T2_R2\WObj:=DHI_WO_R2;
     MoveJ [[-8.160,73.957,-6.000],[9.73406E-05,-0.156597,-0.987662,-8.78936E-05],[-1,-1,-3,1],[9E+09,9E+09,9E+09,9E+09,9E+09,9E+09]],v50,z0,T2_R2\WObj:=DHI_WO_R2;
     MoveJ [[-9.500,73.848,-6.000],[9.73406E-05,-0.156597,-0.987662,-8.78936E-05],[-1,-1,-3,1],[9E+09,9E+09,9E+09,9E+09,9E+09,9E+09]],v50,z0,T2_R2\WObj:=DHI_WO_R2;
     MoveJ [[-9.690,73.832,-6.000],[9.73406E-05,-0.156597,-0.987662,-8.78936E-05],[-1,-1,-3,1],[9E+09,9E+09,9E+09,9E+09,9E+09,9E+09]],v50,z0,T2_R2\WObj:=DHI_WO_R2;
     MoveJ [[-10.450,73.769,-6.000],[9.73406E-05,-0.156597,-0.987662,-8.78936E-05],[-1,-1,-3,1],[9E+09,9E+09,9E+09,9E+09,9E+09,9E+09]],v50,z0,T2_R2\WObj:=DHI_WO_R2;
     MoveJ [[-10.640,73.753,-6.000],[9.73406E-05,-0.156597,-0.987662,-8.78936E-05],[-1,-1,-3,1],[9E+09,9E+09,9E+09,9E+09,9E+09,9E+09]],v50,z0,T2_R2\WObj:=DHI_WO_R2;
     MoveJ [[-11.210,73.705,-6.000],[9.73406E-05,-0.156597,-0.987662,-8.78936E-05],[-1,-1,-3,1],[9E+09,9E+09,9E+09,9E+09,9E+09,9E+09]],v50,z0,T2_R2\WObj:=DHI_WO_R2;
     MoveJ [[-11.400,73.689,-6.000],[9.73406E-05,-0.156597,-0.987662,-8.78936E-05],[-1,-1,-3,1],[9E+09,9E+09,9E+09,9E+09,9E+09,9E+09]],v50,z0,T2_R2\WObj:=DHI_WO_R2;
     MoveJ [[-12.730,73.577,-6.000],[9.73406E-05,-0.156597,-0.987662,-8.78936E-05],[-1,-1,-3,1],[9E+09,9E+09,9E+09,9E+09,9E+09,9E+09]],v50,z0,T2_R2\WObj:=DHI_WO_R2;
     MoveJ [[-12.920,73.560,-6.000],[9.73406E-05,-0.156597,-0.987662,-8.78936E-05],[-1,-1,-3,1],[9E+09,9E+09,9E+09,9E+09,9E+09,9E+09]],v50,z0,T2_R2\WObj:=DHI_WO_R2;
     MoveJ [[-13.110,73.543,-6.000],[9.73406E-05,-0.156597,-0.987662,-8.78936E-05],[-1,-1,-3,1],[9E+09,9E+09,9E+09,9E+09,9E+09,9E+09]],v50,z0,T2_R2\WObj:=DHI_WO_R2;
     MoveJ [[-14.630,73.408,-6.000],[9.73406E-05,-0.156597,-0.987662,-8.78936E-05],[-1,-1,-3,1],[9E+09,9E+09,9E+09,9E+09,9E+09,9E+09]],v50,z0,T2_R2\WObj:=DHI_WO_R2;
     MoveJ [[-14.790,73.394,-6.000],[9.73406E-05,-0.156597,-0.987662,-8.78936E-05],[-1,-1,-3,1],[9E+09,9E+09,9E+09,9E+09,9E+09,9E+09]],v50,z0,T2_R2\WObj:=DHI_WO_R2;
     MoveJ [[-15.770,73.305,-6.000],[9.73406E-05,-0.156597,-0.987662,-8.78936E-05],[-1,-1,-3,1],[9E+09,9E+09,9E+09,9E+09,9E+09,9E+09]],v50,z0,T2_R2\WObj:=DHI_WO_R2;
     MoveJ [[-15.960,73.288,-6.000],[9.73406E-05,-0.156597,-0.987662,-8.78936E-05],[-1,-1,-3,1],[9E+09,9E+09,9E+09,9E+09,9E+09,9E+09]],v50,z0,T2_R2\WObj:=DHI_WO_R2;
     MoveJ [[-16.530,73.236,-6.000],[9.73406E-05,-0.156597,-0.987662,-8.78936E-05],[-1,-1,-3,1],[9E+09,9E+09,9E+09,9E+09,9E+09,9E+09]],v50,z0,T2_R2\WObj:=DHI_WO_R2;
     MoveJ [[-16.720,73.219,-6.000],[9.73406E-05,-0.156597,-0.987662,-8.78936E-05],[-1,-1,-3,1],[9E+09,9E+09,9E+09,9E+09,9E+09,9E+09]],v50,z0,T2_R2\WObj:=DHI_WO_R2;
     MoveJ [[-17.290,73.167,-6.000],[9.73406E-05,-0.156597,-0.987662,-8.78936E-05],[-1,-1,-3,1],[9E+09,9E+09,9E+09,9E+09,9E+09,9E+09]],v50,z0,T2_R2\WObj:=DHI_WO_R2;
     MoveJ [[-17.480,73.149,-6.000],[9.73406E-05,-0.156597,-0.987662,-8.78936E-05],[-1,-1,-3,1],[9E+09,9E+09,9E+09,9E+09,9E+09,9E+09]],v50,z0,T2_R2\WObj:=DHI_WO_R2;
     MoveJ [[-18.240,73.077,-6.000],[9.73406E-05,-0.156597,-0.987662,-8.78936E-05],[-1,-1,-3,1],[9E+09,9E+09,9E+09,9E+09,9E+09,9E+09]],v50,z0,T2_R2\WObj:=DHI_WO_R2;
     MoveJ [[-18.430,73.059,-6.000],[9.73406E-05,-0.156597,-0.987662,-8.78936E-05],[-1,-1,-3,1],[9E+09,9E+09,9E+09,9E+09,9E+09,9E+09]],v50,z0,T2_R2\WObj:=DHI_WO_R2;
     MoveJ [[-19.000,73.004,-6.000],[9.73406E-05,-0.156597,-0.987662,-8.78936E-05],[-1,-1,-3,1],[9E+09,9E+09,9E+09,9E+09,9E+09,9E+09]],v50,z0,T2_R2\WObj:=DHI_WO_R2;
     MoveJ [[-19.190,72.985,-6.000],[9.73406E-05,-0.156597,-0.987662,-8.78936E-05],[-1,-1,-3,1],[9E+09,9E+09,9E+09,9E+09,9E+09,9E+09]],v50,z0,T2_R2\WObj:=DHI_WO_R2;
     MoveJ [[-20.520,72.858,-6.000],[9.73406E-05,-0.156597,-0.987662,-8.78936E-05],[-1,-1,-3,1],[9E+09,9E+09,9E+09,9E+09,9E+09,9E+09]],v50,z0,T2_R2\WObj:=DHI_WO_R2;
     MoveJ [[-21.850,72.728,-6.000],[9.73406E-05,-0.156597,-0.987662,-8.78936E-05],[-1,-1,-3,1],[9E+09,9E+09,9E+09,9E+09,9E+09,9E+09]],v50,z0,T2_R2\WObj:=DHI_WO_R2;
     MoveJ [[-22.040,72.709,-6.000],[9.73406E-05,-0.156597,-0.987662,-8.78936E-05],[-1,-1,-3,1],[9E+09,9E+09,9E+09,9E+09,9E+09,9E+09]],v50,z0,T2_R2\WObj:=DHI_WO_R2;
     MoveJ [[-22.420,72.671,-6.000],[9.73406E-05,-0.156597,-0.987662,-8.78936E-05],[-1,-1,-3,1],[9E+09,9E+09,9E+09,9E+09,9E+09,9E+09]],v50,z0,T2_R2\WObj:=DHI_WO_R2;
     MoveJ [[-22.610,72.651,-6.000],[9.73406E-05,-0.156597,-0.987662,-8.78936E-05],[-1,-1,-3,1],[9E+09,9E+09,9E+09,9E+09,9E+09,9E+09]],v50,z0,T2_R2\WObj:=DHI_WO_R2;
     MoveJ [[-25.280,72.380,-6.000],[9.73406E-05,-0.156597,-0.987662,-8.78936E-05],[-1,-1,-3,1],[9E+09,9E+09,9E+09,9E+09,9E+09,9E+09]],v50,z0,T2_R2\WObj:=DHI_WO_R2;
     MoveJ [[-25.470,72.360,-6.000],[9.73406E-05,-0.156597,-0.987662,-8.78936E-05],[-1,-1,-3,1],[9E+09,9E+09,9E+09,9E+09,9E+09,9E+09]],v50,z0,T2_R2\WObj:=DHI_WO_R2;
     MoveJ [[-26.420,72.261,-6.000],[9.73406E-05,-0.156597,-0.987662,-8.78936E-05],[-1,-1,-3,1],[9E+09,9E+09,9E+09,9E+09,9E+09,9E+09]],v50,z0,T2_R2\WObj:=DHI_WO_R2;
     MoveJ [[-26.490,72.253,-6.000],[9.73406E-05,-0.156597,-0.987662,-8.78936E-05],[-1,-1,-3,1],[9E+09,9E+09,9E+09,9E+09,9E+09,9E+09]],v50,z0,T2_R2\WObj:=DHI_WO_R2;
     MoveJ [[-26.800,72.220,-6.000],[9.73406E-05,-0.156597,-0.987662,-8.78936E-05],[-1,-1,-3,1],[9E+09,9E+09,9E+09,9E+09,9E+09,9E+09]],v50,z0,T2_R2\WObj:=DHI_WO_R2;
     MoveJ [[-26.990,72.200,-6.000],[9.73406E-05,-0.156597,-0.987662,-8.78936E-05],[-1,-1,-3,1],[9E+09,9E+09,9E+09,9E+09,9E+09,9E+09]],v50,z0,T2_R2\WObj:=DHI_WO_R2;
     MoveJ [[-29.080,71.975,-6.000],[9.73406E-05,-0.156597,-0.987662,-8.78936E-05],[-1,-1,-3,1],[9E+09,9E+09,9E+09,9E+09,9E+09,9E+09]],v50,z0,T2_R2\WObj:=DHI_WO_R2;
     MoveJ [[-29.270,71.954,-6.000],[9.73406E-05,-0.156597,-0.987662,-8.78936E-05],[-1,-1,-3,1],[9E+09,9E+09,9E+09,9E+09,9E+09,9E+09]],v50,z0,T2_R2\WObj:=DHI_WO_R2;
     MoveJ [[-32.310,71.615,-6.000],[9.73406E-05,-0.156597,-0.987662,-8.78936E-05],[-1,-1,-3,1],[9E+09,9E+09,9E+09,9E+09,9E+09,9E+09]],v50,z0,T2_R2\WObj:=DHI_WO_R2;
     MoveJ [[-32.500,71.593,-6.000],[9.73406E-05,-0.156597,-0.987662,-8.78936E-05],[-1,-1,-3,1],[9E+09,9E+09,9E+09,9E+09,9E+09,9E+09]],v50,z0,T2_R2\WObj:=DHI_WO_R2;
     MoveJ [[-32.690,71.571,-6.000],[9.73406E-05,-0.156597,-0.987662,-8.78936E-05],[-1,-1,-3,1],[9E+09,9E+09,9E+09,9E+09,9E+09,9E+09]],v50,z0,T2_R2\WObj:=DHI_WO_R2;
     MoveJ [[-32.880,71.549,-6.000],[9.73406E-05,-0.156597,-0.987662,-8.78936E-05],[-1,-1,-3,1],[9E+09,9E+09,9E+09,9E+09,9E+09,9E+09]],v50,z0,T2_R2\WObj:=DHI_WO_R2;
     MoveJ [[-33.070,71.527,-6.000],[9.73406E-05,-0.156597,-0.987662,-8.78936E-05],[-1,-1,-3,1],[9E+09,9E+09,9E+09,9E+09,9E+09,9E+09]],v50,z0,T2_R2\WObj:=DHI_WO_R2;
     MoveJ [[-33.370,71.493,-6.000],[9.73406E-05,-0.156597,-0.987662,-8.78936E-05],[-1,-1,-3,1],[9E+09,9E+09,9E+09,9E+09,9E+09,9E+09]],v50,z0,T2_R2\WObj:=DHI_WO_R2;
     MoveJ [[-33.640,71.461,-6.000],[9.73406E-05,-0.156597,-0.987662,-8.78936E-05],[-1,-1,-3,1],[9E+09,9E+09,9E+09,9E+09,9E+09,9E+09]],v50,z0,T2_R2\WObj:=DHI_WO_R2;
     MoveJ [[-33.830,71.439,-6.000],[9.73406E-05,-0.156597,-0.987662,-8.78936E-05],[-1,-1,-3,1],[9E+09,9E+09,9E+09,9E+09,9E+09,9E+09]],v50,z0,T2_R2\WObj:=DHI_WO_R2;
     MoveJ [[-34.020,71.417,-6.000],[9.73406E-05,-0.156597,-0.987662,-8.78936E-05],[-1,-1,-3,1],[9E+09,9E+09,9E+09,9E+09,9E+09,9E+09]],v50,z0,T2_R2\WObj:=DHI_WO_R2;
     MoveJ [[-34.210,71.395,-6.000],[9.73406E-05,-0.156597,-0.987662,-8.78936E-05],[-1,-1,-3,1],[9E+09,9E+09,9E+09,9E+09,9E+09,9E+09]],v50,z0,T2_R2\WObj:=DHI_WO_R2;
     MoveJ [[-34.400,71.373,-6.000],[9.73406E-05,-0.156597,-0.987662,-8.78936E-05],[-1,-1,-3,1],[9E+09,9E+09,9E+09,9E+09,9E+09,9E+09]],v50,z0,T2_R2\WObj:=DHI_WO_R2;
     MoveJ [[-34.590,71.351,-6.000],[9.73406E-05,-0.156597,-0.987662,-8.78936E-05],[-1,-1,-3,1],[9E+09,9E+09,9E+09,9E+09,9E+09,9E+09]],v50,z0,T2_R2\WObj:=DHI_WO_R2;
     MoveJ [[-34.780,71.329,-6.000],[9.73406E-05,-0.156597,-0.987662,-8.78936E-05],[-1,-1,-3,1],[9E+09,9E+09,9E+09,9E+09,9E+09,9E+09]],v50,z0,T2_R2\WObj:=DHI_WO_R2;
     MoveJ [[-35.010,71.303,-6.000],[9.73406E-05,-0.156597,-0.987662,-8.78936E-05],[-1,-1,-3,1],[9E+09,9E+09,9E+09,9E+09,9E+09,9E+09]],v50,z0,T2_R2\WObj:=DHI_WO_R2;
     MoveJ [[-35.350,71.263,-6.000],[9.73406E-05,-0.156597,-0.987662,-8.78936E-05],[-1,-1,-3,1],[9E+09,9E+09,9E+09,9E+09,9E+09,9E+09]],v50,z0,T2_R2\WObj:=DHI_WO_R2;
     MoveJ [[-35.540,71.241,-6.000],[9.73406E-05,-0.156597,-0.987662,-8.78936E-05],[-1,-1,-3,1],[9E+09,9E+09,9E+09,9E+09,9E+09,9E+09]],v50,z0,T2_R2\WObj:=DHI_WO_R2;
     MoveJ [[-35.730,71.220,-6.000],[9.73406E-05,-0.156597,-0.987662,-8.78936E-05],[-1,-1,-3,1],[9E+09,9E+09,9E+09,9E+09,9E+09,9E+09]],v50,z0,T2_R2\WObj:=DHI_WO_R2;
     MoveJ [[-35.920,71.198,-6.000],[9.73406E-05,-0.156597,-0.987662,-8.78936E-05],[-1,-1,-3,1],[9E+09,9E+09,9E+09,9E+09,9E+09,9E+09]],v50,z0,T2_R2\WObj:=DHI_WO_R2;
     MoveJ [[-36.110,71.175,-6.000],[9.73406E-05,-0.156597,-0.987662,-8.78936E-05],[-1,-1,-3,1],[9E+09,9E+09,9E+09,9E+09,9E+09,9E+09]],v50,z0,T2_R2\WObj:=DHI_WO_R2;
     MoveJ [[-36.300,71.152,-6.000],[9.73406E-05,-0.156597,-0.987662,-8.78936E-05],[-1,-1,-3,1],[9E+09,9E+09,9E+09,9E+09,9E+09,9E+09]],v50,z0,T2_R2\WObj:=DHI_WO_R2;
     MoveJ [[-36.640,71.113,-6.000],[9.73406E-05,-0.156597,-0.987662,-8.78936E-05],[-1,-1,-3,1],[9E+09,9E+09,9E+09,9E+09,9E+09,9E+09]],v50,z0,T2_R2\WObj:=DHI_WO_R2;
     MoveJ [[-36.870,71.084,-6.000],[9.73406E-05,-0.156597,-0.987662,-8.78936E-05],[-1,-1,-3,1],[9E+09,9E+09,9E+09,9E+09,9E+09,9E+09]],v50,z0,T2_R2\WObj:=DHI_WO_R2;
     MoveJ [[-37.060,71.062,-6.000],[9.73406E-05,-0.156597,-0.987662,-8.78936E-05],[-1,-1,-3,1],[9E+09,9E+09,9E+09,9E+09,9E+09,9E+09]],v50,z0,T2_R2\WObj:=DHI_WO_R2;
     MoveJ [[-37.250,71.039,-6.000],[9.73406E-05,-0.156597,-0.987662,-8.78936E-05],[-1,-1,-3,1],[9E+09,9E+09,9E+09,9E+09,9E+09,9E+09]],v50,z0,T2_R2\WObj:=DHI_WO_R2;
     MoveJ [[-37.440,71.016,-6.000],[9.73406E-05,-0.156597,-0.987662,-8.78936E-05],[-1,-1,-3,1],[9E+09,9E+09,9E+09,9E+09,9E+09,9E+09]],v50,z0,T2_R2\WObj:=DHI_WO_R2;
     MoveJ [[-37.630,70.994,-6.000],[9.73406E-05,-0.156597,-0.987662,-8.78936E-05],[-1,-1,-3,1],[9E+09,9E+09,9E+09,9E+09,9E+09,9E+09]],v50,z0,T2_R2\WObj:=DHI_WO_R2;
     MoveJ [[-37.820,70.971,-6.000],[9.73406E-05,-0.156597,-0.987662,-8.78936E-05],[-1,-1,-3,1],[9E+09,9E+09,9E+09,9E+09,9E+09,9E+09]],v50,z0,T2_R2\WObj:=DHI_WO_R2;
     MoveJ [[-38.010,70.948,-6.000],[9.73406E-05,-0.156597,-0.987662,-8.78936E-05],[-1,-1,-3,1],[9E+09,9E+09,9E+09,9E+09,9E+09,9E+09]],v50,z0,T2_R2\WObj:=DHI_WO_R2;
     MoveJ [[-38.230,70.923,-6.000],[9.73406E-05,-0.156597,-0.987662,-8.78936E-05],[-1,-1,-3,1],[9E+09,9E+09,9E+09,9E+09,9E+09,9E+09]],v50,z0,T2_R2\WObj:=DHI_WO_R2;
     MoveJ [[-38.390,70.903,-6.000],[9.73406E-05,-0.156597,-0.987662,-8.78936E-05],[-1,-1,-3,1],[9E+09,9E+09,9E+09,9E+09,9E+09,9E+09]],v50,z0,T2_R2\WObj:=DHI_WO_R2;
     MoveJ [[-38.580,70.881,-6.000],[9.73406E-05,-0.156597,-0.987662,-8.78936E-05],[-1,-1,-3,1],[9E+09,9E+09,9E+09,9E+09,9E+09,9E+09]],v50,z0,T2_R2\WObj:=DHI_WO_R2;
     MoveJ [[-38.770,70.858,-6.000],[9.73406E-05,-0.156597,-0.987662,-8.78936E-05],[-1,-1,-3,1],[9E+09,9E+09,9E+09,9E+09,9E+09,9E+09]],v50,z0,T2_R2\WObj:=DHI_WO_R2;
     MoveJ [[-38.960,70.835,-6.000],[9.73406E-05,-0.156597,-0.987662,-8.78936E-05],[-1,-1,-3,1],[9E+09,9E+09,9E+09,9E+09,9E+09,9E+09]],v50,z0,T2_R2\WObj:=DHI_WO_R2;
     MoveJ [[-39.150,70.813,-6.000],[9.73406E-05,-0.156597,-0.987662,-8.78936E-05],[-1,-1,-3,1],[9E+09,9E+09,9E+09,9E+09,9E+09,9E+09]],v50,z0,T2_R2\WObj:=DHI_WO_R2;
     MoveJ [[-39.340,70.790,-6.000],[9.73406E-05,-0.156597,-0.987662,-8.78936E-05],[-1,-1,-3,1],[9E+09,9E+09,9E+09,9E+09,9E+09,9E+09]],v50,z0,T2_R2\WObj:=DHI_WO_R2;
     MoveJ [[-39.530,70.768,-6.000],[9.73406E-05,-0.156597,-0.987662,-8.78936E-05],[-1,-1,-3,1],[9E+09,9E+09,9E+09,9E+09,9E+09,9E+09]],v50,z0,T2_R2\WObj:=DHI_WO_R2;
     MoveJ [[-39.820,70.732,-6.000],[9.73406E-05,-0.156597,-0.987662,-8.78936E-05],[-1,-1,-3,1],[9E+09,9E+09,9E+09,9E+09,9E+09,9E+09]],v50,z0,T2_R2\WObj:=DHI_WO_R2;
     MoveJ [[-40.110,70.697,-6.000],[9.73406E-05,-0.156597,-0.987662,-8.78936E-05],[-1,-1,-3,1],[9E+09,9E+09,9E+09,9E+09,9E+09,9E+09]],v50,z0,T2_R2\WObj:=DHI_WO_R2;
     MoveJ [[-40.300,70.674,-6.000],[9.73406E-05,-0.156597,-0.987662,-8.78936E-05],[-1,-1,-3,1],[9E+09,9E+09,9E+09,9E+09,9E+09,9E+09]],v50,z0,T2_R2\WObj:=DHI_WO_R2;
     MoveJ [[-40.490,70.651,-6.000],[9.73406E-05,-0.156597,-0.987662,-8.78936E-05],[-1,-1,-3,1],[9E+09,9E+09,9E+09,9E+09,9E+09,9E+09]],v50,z0,T2_R2\WObj:=DHI_WO_R2;
     MoveJ [[-40.680,70.627,-6.000],[9.73406E-05,-0.156597,-0.987662,-8.78936E-05],[-1,-1,-3,1],[9E+09,9E+09,9E+09,9E+09,9E+09,9E+09]],v50,z0,T2_R2\WObj:=DHI_WO_R2;
     MoveJ [[-40.870,70.604,-6.000],[9.73406E-05,-0.156597,-0.987662,-8.78936E-05],[-1,-1,-3,1],[9E+09,9E+09,9E+09,9E+09,9E+09,9E+09]],v50,z0,T2_R2\WObj:=DHI_WO_R2;
     MoveJ [[-41.060,70.581,-6.000],[9.73406E-05,-0.156597,-0.987662,-8.78936E-05],[-1,-1,-3,1],[9E+09,9E+09,9E+09,9E+09,9E+09,9E+09]],v50,z0,T2_R2\WObj:=DHI_WO_R2;
     MoveJ [[-41.370,70.542,-6.000],[9.73406E-05,-0.156597,-0.987662,-8.78936E-05],[-1,-1,-3,1],[9E+09,9E+09,9E+09,9E+09,9E+09,9E+09]],v50,z0,T2_R2\WObj:=DHI_WO_R2;
     MoveJ [[-41.630,70.511,-6.000],[9.73406E-05,-0.156597,-0.987662,-8.78936E-05],[-1,-1,-3,1],[9E+09,9E+09,9E+09,9E+09,9E+09,9E+09]],v50,z0,T2_R2\WObj:=DHI_WO_R2;
     MoveJ [[-41.820,70.488,-6.000],[9.73406E-05,-0.156597,-0.987662,-8.78936E-05],[-1,-1,-3,1],[9E+09,9E+09,9E+09,9E+09,9E+09,9E+09]],v50,z0,T2_R2\WObj:=DHI_WO_R2;
     MoveJ [[-42.010,70.464,-6.000],[9.73406E-05,-0.156597,-0.987662,-8.78936E-05],[-1,-1,-3,1],[9E+09,9E+09,9E+09,9E+09,9E+09,9E+09]],v50,z0,T2_R2\WObj:=DHI_WO_R2;
     MoveJ [[-42.200,70.441,-6.000],[9.73406E-05,-0.156597,-0.987662,-8.78936E-05],[-1,-1,-3,1],[9E+09,9E+09,9E+09,9E+09,9E+09,9E+09]],v50,z0,T2_R2\WObj:=DHI_WO_R2;
     MoveJ [[-42.390,70.418,-6.000],[9.73406E-05,-0.156597,-0.987662,-8.78936E-05],[-1,-1,-3,1],[9E+09,9E+09,9E+09,9E+09,9E+09,9E+09]],v50,z0,T2_R2\WObj:=DHI_WO_R2;
     MoveJ [[-42.580,70.395,-6.000],[9.73406E-05,-0.156597,-0.987662,-8.78936E-05],[-1,-1,-3,1],[9E+09,9E+09,9E+09,9E+09,9E+09,9E+09]],v50,z0,T2_R2\WObj:=DHI_WO_R2;
     MoveJ [[-42.920,70.352,-6.000],[9.73406E-05,-0.156597,-0.987662,-8.78936E-05],[-1,-1,-3,1],[9E+09,9E+09,9E+09,9E+09,9E+09,9E+09]],v50,z0,T2_R2\WObj:=DHI_WO_R2;
     MoveJ [[-42.960,70.348,-6.000],[9.73406E-05,-0.156597,-0.987662,-8.78936E-05],[-1,-1,-3,1],[9E+09,9E+09,9E+09,9E+09,9E+09,9E+09]],v50,z0,T2_R2\WObj:=DHI_WO_R2;
     MoveJ [[-43.150,70.325,-6.000],[9.73406E-05,-0.156597,-0.987662,-8.78936E-05],[-1,-1,-3,1],[9E+09,9E+09,9E+09,9E+09,9E+09,9E+09]],v50,z0,T2_R2\WObj:=DHI_WO_R2;
     MoveJ [[-43.340,70.301,-6.000],[9.73406E-05,-0.156597,-0.987662,-8.78936E-05],[-1,-1,-3,1],[9E+09,9E+09,9E+09,9E+09,9E+09,9E+09]],v50,z0,T2_R2\WObj:=DHI_WO_R2;
     MoveJ [[-43.530,70.276,-6.000],[9.73406E-05,-0.156597,-0.987662,-8.78936E-05],[-1,-1,-3,1],[9E+09,9E+09,9E+09,9E+09,9E+09,9E+09]],v50,z0,T2_R2\WObj:=DHI_WO_R2;
     MoveJ [[-43.720,70.252,-6.000],[9.73406E-05,-0.156597,-0.987662,-8.78936E-05],[-1,-1,-3,1],[9E+09,9E+09,9E+09,9E+09,9E+09,9E+09]],v50,z0,T2_R2\WObj:=DHI_WO_R2;
     MoveJ [[-43.910,70.228,-6.000],[9.73406E-05,-0.156597,-0.987662,-8.78936E-05],[-1,-1,-3,1],[9E+09,9E+09,9E+09,9E+09,9E+09,9E+09]],v50,z0,T2_R2\WObj:=DHI_WO_R2;
     MoveJ [[-44.100,70.204,-6.000],[9.73406E-05,-0.156597,-0.987662,-8.78936E-05],[-1,-1,-3,1],[9E+09,9E+09,9E+09,9E+09,9E+09,9E+09]],v50,z0,T2_R2\WObj:=DHI_WO_R2;
     MoveJ [[-44.430,70.162,-6.000],[9.73406E-05,-0.156597,-0.987662,-8.78936E-05],[-1,-1,-3,1],[9E+09,9E+09,9E+09,9E+09,9E+09,9E+09]],v50,z0,T2_R2\WObj:=DHI_WO_R2;
     MoveJ [[-44.670,70.132,-6.000],[9.73406E-05,-0.156597,-0.987662,-8.78936E-05],[-1,-1,-3,1],[9E+09,9E+09,9E+09,9E+09,9E+09,9E+09]],v50,z0,T2_R2\WObj:=DHI_WO_R2;
     MoveJ [[-44.860,70.109,-6.000],[9.73406E-05,-0.156597,-0.987662,-8.78936E-05],[-1,-1,-3,1],[9E+09,9E+09,9E+09,9E+09,9E+09,9E+09]],v50,z0,T2_R2\WObj:=DHI_WO_R2;
     MoveJ [[-45.050,70.085,-6.000],[9.73406E-05,-0.156597,-0.987662,-8.78936E-05],[-1,-1,-3,1],[9E+09,9E+09,9E+09,9E+09,9E+09,9E+09]],v50,z0,T2_R2\WObj:=DHI_WO_R2;
     MoveJ [[-45.240,70.061,-6.000],[9.73406E-05,-0.156597,-0.987662,-8.78936E-05],[-1,-1,-3,1],[9E+09,9E+09,9E+09,9E+09,9E+09,9E+09]],v50,z0,T2_R2\WObj:=DHI_WO_R2;
     MoveJ [[-45.430,70.037,-6.000],[9.73406E-05,-0.156597,-0.987662,-8.78936E-05],[-1,-1,-3,1],[9E+09,9E+09,9E+09,9E+09,9E+09,9E+09]],v50,z0,T2_R2\WObj:=DHI_WO_R2;
     MoveJ [[-45.620,70.013,-6.000],[9.73406E-05,-0.156597,-0.987662,-8.78936E-05],[-1,-1,-3,1],[9E+09,9E+09,9E+09,9E+09,9E+09,9E+09]],v50,z0,T2_R2\WObj:=DHI_WO_R2;
     MoveJ [[-45.940,69.972,-6.000],[9.73406E-05,-0.156597,-0.987662,-8.78936E-05],[-1,-1,-3,1],[9E+09,9E+09,9E+09,9E+09,9E+09,9E+09]],v50,z0,T2_R2\WObj:=DHI_WO_R2;
     MoveJ [[-46.190,69.941,-6.000],[9.73406E-05,-0.156597,-0.987662,-8.78936E-05],[-1,-1,-3,1],[9E+09,9E+09,9E+09,9E+09,9E+09,9E+09]],v50,z0,T2_R2\WObj:=DHI_WO_R2;
     MoveJ [[-46.380,69.917,-6.000],[9.73406E-05,-0.156597,-0.987662,-8.78936E-05],[-1,-1,-3,1],[9E+09,9E+09,9E+09,9E+09,9E+09,9E+09]],v50,z0,T2_R2\WObj:=DHI_WO_R2;
     MoveJ [[-46.570,69.893,-6.000],[9.73406E-05,-0.156597,-0.987662,-8.78936E-05],[-1,-1,-3,1],[9E+09,9E+09,9E+09,9E+09,9E+09,9E+09]],v50,z0,T2_R2\WObj:=DHI_WO_R2;
     MoveJ [[-46.760,69.869,-6.000],[9.73406E-05,-0.156597,-0.987662,-8.78936E-05],[-1,-1,-3,1],[9E+09,9E+09,9E+09,9E+09,9E+09,9E+09]],v50,z0,T2_R2\WObj:=DHI_WO_R2;
     MoveJ [[-46.950,69.844,-6.000],[9.73406E-05,-0.156597,-0.987662,-8.78936E-05],[-1,-1,-3,1],[9E+09,9E+09,9E+09,9E+09,9E+09,9E+09]],v50,z0,T2_R2\WObj:=DHI_WO_R2;
     MoveJ [[-47.140,69.819,-6.000],[9.73406E-05,-0.156597,-0.987662,-8.78936E-05],[-1,-1,-3,1],[9E+09,9E+09,9E+09,9E+09,9E+09,9E+09]],v50,z0,T2_R2\WObj:=DHI_WO_R2;
     MoveJ [[-47.430,69.782,-6.000],[9.73406E-05,-0.156597,-0.987662,-8.78936E-05],[-1,-1,-3,1],[9E+09,9E+09,9E+09,9E+09,9E+09,9E+09]],v50,z0,T2_R2\WObj:=DHI_WO_R2;
     MoveJ [[-47.710,69.745,-6.000],[9.73406E-05,-0.156597,-0.987662,-8.78936E-05],[-1,-1,-3,1],[9E+09,9E+09,9E+09,9E+09,9E+09,9E+09]],v50,z0,T2_R2\WObj:=DHI_WO_R2;
     MoveJ [[-47.900,69.721,-6.000],[9.73406E-05,-0.156597,-0.987662,-8.78936E-05],[-1,-1,-3,1],[9E+09,9E+09,9E+09,9E+09,9E+09,9E+09]],v50,z0,T2_R2\WObj:=DHI_WO_R2;
     MoveJ [[-48.090,69.696,-6.000],[9.73406E-05,-0.156597,-0.987662,-8.78936E-05],[-1,-1,-3,1],[9E+09,9E+09,9E+09,9E+09,9E+09,9E+09]],v50,z0,T2_R2\WObj:=DHI_WO_R2;
     MoveJ [[-48.280,69.671,-6.000],[9.73406E-05,-0.156597,-0.987662,-8.78936E-05],[-1,-1,-3,1],[9E+09,9E+09,9E+09,9E+09,9E+09,9E+09]],v50,z0,T2_R2\WObj:=DHI_WO_R2;
     MoveJ [[-48.470,69.647,-6.000],[9.73406E-05,-0.156597,-0.987662,-8.78936E-05],[-1,-1,-3,1],[9E+09,9E+09,9E+09,9E+09,9E+09,9E+09]],v50,z0,T2_R2\WObj:=DHI_WO_R2;
     MoveJ [[-48.660,69.622,-6.000],[9.73406E-05,-0.156597,-0.987662,-8.78936E-05],[-1,-1,-3,1],[9E+09,9E+09,9E+09,9E+09,9E+09,9E+09]],v50,z0,T2_R2\WObj:=DHI_WO_R2;
     MoveJ [[-48.900,69.592,-6.000],[9.73406E-05,-0.156597,-0.987662,-8.78936E-05],[-1,-1,-3,1],[9E+09,9E+09,9E+09,9E+09,9E+09,9E+09]],v50,z0,T2_R2\WObj:=DHI_WO_R2;
     MoveJ [[-49.230,69.549,-6.000],[9.73406E-05,-0.156597,-0.987662,-8.78936E-05],[-1,-1,-3,1],[9E+09,9E+09,9E+09,9E+09,9E+09,9E+09]],v50,z0,T2_R2\WObj:=DHI_WO_R2;
     MoveJ [[-49.420,69.524,-6.000],[9.73406E-05,-0.156597,-0.987662,-8.78936E-05],[-1,-1,-3,1],[9E+09,9E+09,9E+09,9E+09,9E+09,9E+09]],v50,z0,T2_R2\WObj:=DHI_WO_R2;
     MoveJ [[-49.610,69.499,-6.000],[9.73406E-05,-0.156597,-0.987662,-8.78936E-05],[-1,-1,-3,1],[9E+09,9E+09,9E+09,9E+09,9E+09,9E+09]],v50,z0,T2_R2\WObj:=DHI_WO_R2;
     MoveJ [[-49.800,69.475,-6.000],[9.73406E-05,-0.156597,-0.987662,-8.78936E-05],[-1,-1,-3,1],[9E+09,9E+09,9E+09,9E+09,9E+09,9E+09]],v50,z0,T2_R2\WObj:=DHI_WO_R2;
     MoveJ [[-49.990,69.450,-6.000],[9.73406E-05,-0.156597,-0.987662,-8.78936E-05],[-1,-1,-3,1],[9E+09,9E+09,9E+09,9E+09,9E+09,9E+09]],v50,z0,T2_R2\WObj:=DHI_WO_R2;
     MoveJ [[-50.180,69.426,-6.000],[9.73406E-05,-0.156597,-0.987662,-8.78936E-05],[-1,-1,-3,1],[9E+09,9E+09,9E+09,9E+09,9E+09,9E+09]],v50,z0,T2_R2\WObj:=DHI_WO_R2;
     MoveJ [[-50.370,69.400,-6.000],[9.73406E-05,-0.156597,-0.987662,-8.78936E-05],[-1,-1,-3,1],[9E+09,9E+09,9E+09,9E+09,9E+09,9E+09]],v50,z0,T2_R2\WObj:=DHI_WO_R2;
     MoveJ [[-50.560,69.375,-6.000],[9.73406E-05,-0.156597,-0.987662,-8.78936E-05],[-1,-1,-3,1],[9E+09,9E+09,9E+09,9E+09,9E+09,9E+09]],v50,z0,T2_R2\WObj:=DHI_WO_R2;
     MoveJ [[-50.750,69.350,-6.000],[9.73406E-05,-0.156597,-0.987662,-8.78936E-05],[-1,-1,-3,1],[9E+09,9E+09,9E+09,9E+09,9E+09,9E+09]],v50,z0,T2_R2\WObj:=DHI_WO_R2;
     MoveJ [[-50.940,69.324,-6.000],[9.73406E-05,-0.156597,-0.987662,-8.78936E-05],[-1,-1,-3,1],[9E+09,9E+09,9E+09,9E+09,9E+09,9E+09]],v50,z0,T2_R2\WObj:=DHI_WO_R2;
     MoveJ [[-51.130,69.299,-6.000],[9.73406E-05,-0.156597,-0.987662,-8.78936E-05],[-1,-1,-3,1],[9E+09,9E+09,9E+09,9E+09,9E+09,9E+09]],v50,z0,T2_R2\WObj:=DHI_WO_R2;
     MoveJ [[-51.320,69.274,-6.000],[9.73406E-05,-0.156597,-0.987662,-8.78936E-05],[-1,-1,-3,1],[9E+09,9E+09,9E+09,9E+09,9E+09,9E+09]],v50,z0,T2_R2\WObj:=DHI_WO_R2;
     MoveJ [[-51.510,69.248,-6.000],[9.73406E-05,-0.156597,-0.987662,-8.78936E-05],[-1,-1,-3,1],[9E+09,9E+09,9E+09,9E+09,9E+09,9E+09]],v50,z0,T2_R2\WObj:=DHI_WO_R2;
     MoveJ [[-51.790,69.212,-6.000],[9.73406E-05,-0.156597,-0.987662,-8.78936E-05],[-1,-1,-3,1],[9E+09,9E+09,9E+09,9E+09,9E+09,9E+09]],v50,z0,T2_R2\WObj:=DHI_WO_R2;
     MoveJ [[-52.080,69.172,-6.000],[9.73406E-05,-0.156597,-0.987662,-8.78936E-05],[-1,-1,-3,1],[9E+09,9E+09,9E+09,9E+09,9E+09,9E+09]],v50,z0,T2_R2\WObj:=DHI_WO_R2;
     MoveJ [[-52.270,69.147,-6.000],[9.73406E-05,-0.156597,-0.987662,-8.78936E-05],[-1,-1,-3,1],[9E+09,9E+09,9E+09,9E+09,9E+09,9E+09]],v50,z0,T2_R2\WObj:=DHI_WO_R2;
     MoveJ [[-52.460,69.122,-6.000],[9.73406E-05,-0.156597,-0.987662,-8.78936E-05],[-1,-1,-3,1],[9E+09,9E+09,9E+09,9E+09,9E+09,9E+09]],v50,z0,T2_R2\WObj:=DHI_WO_R2;
     MoveJ [[-52.650,69.097,-6.000],[9.73406E-05,-0.156597,-0.987662,-8.78936E-05],[-1,-1,-3,1],[9E+09,9E+09,9E+09,9E+09,9E+09,9E+09]],v50,z0,T2_R2\WObj:=DHI_WO_R2;
     MoveJ [[-52.840,69.072,-6.000],[9.73406E-05,-0.156597,-0.987662,-8.78936E-05],[-1,-1,-3,1],[9E+09,9E+09,9E+09,9E+09,9E+09,9E+09]],v50,z0,T2_R2\WObj:=DHI_WO_R2;
     MoveJ [[-53.030,69.046,-6.000],[9.73406E-05,-0.156597,-0.987662,-8.78936E-05],[-1,-1,-3,1],[9E+09,9E+09,9E+09,9E+09,9E+09,9E+09]],v50,z0,T2_R2\WObj:=DHI_WO_R2;
     MoveJ [[-53.220,69.021,-6.000],[9.73406E-05,-0.156597,-0.987662,-8.78936E-05],[-1,-1,-3,1],[9E+09,9E+09,9E+09,9E+09,9E+09,9E+09]],v50,z0,T2_R2\WObj:=DHI_WO_R2;
     MoveJ [[-53.410,68.996,-6.000],[9.73406E-05,-0.156597,-0.987662,-8.78936E-05],[-1,-1,-3,1],[9E+09,9E+09,9E+09,9E+09,9E+09,9E+09]],v50,z0,T2_R2\WObj:=DHI_WO_R2;
     MoveJ [[-53.600,68.971,-6.000],[9.73406E-05,-0.156597,-0.987662,-8.78936E-05],[-1,-1,-3,1],[9E+09,9E+09,9E+09,9E+09,9E+09,9E+09]],v50,z0,T2_R2\WObj:=DHI_WO_R2;
     MoveJ [[-53.790,68.945,-6.000],[9.73406E-05,-0.156597,-0.987662,-8.78936E-05],[-1,-1,-3,1],[9E+09,9E+09,9E+09,9E+09,9E+09,9E+09]],v50,z0,T2_R2\WObj:=DHI_WO_R2;
     MoveJ [[-53.980,68.919,-6.000],[9.73406E-05,-0.156597,-0.987662,-8.78936E-05],[-1,-1,-3,1],[9E+09,9E+09,9E+09,9E+09,9E+09,9E+09]],v50,z0,T2_R2\WObj:=DHI_WO_R2;
     MoveJ [[-54.170,68.893,-6.000],[9.73406E-05,-0.156597,-0.987662,-8.78936E-05],[-1,-1,-3,1],[9E+09,9E+09,9E+09,9E+09,9E+09,9E+09]],v50,z0,T2_R2\WObj:=DHI_WO_R2;
     MoveJ [[-54.360,68.867,-6.000],[9.73406E-05,-0.156597,-0.987662,-8.78936E-05],[-1,-1,-3,1],[9E+09,9E+09,9E+09,9E+09,9E+09,9E+09]],v50,z0,T2_R2\WObj:=DHI_WO_R2;
     MoveJ [[-54.620,68.832,-6.000],[9.73406E-05,-0.156597,-0.987662,-8.78936E-05],[-1,-1,-3,1],[9E+09,9E+09,9E+09,9E+09,9E+09,9E+09]],v50,z0,T2_R2\WObj:=DHI_WO_R2;
     MoveJ [[-54.930,68.789,-6.000],[9.73406E-05,-0.156597,-0.987662,-8.78936E-05],[-1,-1,-3,1],[9E+09,9E+09,9E+09,9E+09,9E+09,9E+09]],v50,z0,T2_R2\WObj:=DHI_WO_R2;
     MoveJ [[-55.120,68.763,-6.000],[9.73406E-05,-0.156597,-0.987662,-8.78936E-05],[-1,-1,-3,1],[9E+09,9E+09,9E+09,9E+09,9E+09,9E+09]],v50,z0,T2_R2\WObj:=DHI_WO_R2;
     MoveJ [[-55.310,68.737,-6.000],[9.73406E-05,-0.156597,-0.987662,-8.78936E-05],[-1,-1,-3,1],[9E+09,9E+09,9E+09,9E+09,9E+09,9E+09]],v50,z0,T2_R2\WObj:=DHI_WO_R2;
     MoveJ [[-55.510,68.711,-6.000],[9.73406E-05,-0.156597,-0.987662,-8.78936E-05],[-1,-1,-3,1],[9E+09,9E+09,9E+09,9E+09,9E+09,9E+09]],v50,z0,T2_R2\WObj:=DHI_WO_R2;
     MoveJ [[-55.700,68.685,-6.000],[9.73406E-05,-0.156597,-0.987662,-8.78936E-05],[-1,-1,-3,1],[9E+09,9E+09,9E+09,9E+09,9E+09,9E+09]],v50,z0,T2_R2\WObj:=DHI_WO_R2;
     MoveJ [[-56.020,68.642,-6.000],[9.73406E-05,-0.156597,-0.987662,-8.78936E-05],[-1,-1,-3,1],[9E+09,9E+09,9E+09,9E+09,9E+09,9E+09]],v50,z0,T2_R2\WObj:=DHI_WO_R2;
     MoveJ [[-56.270,68.608,-6.000],[9.73406E-05,-0.156597,-0.987662,-8.78936E-05],[-1,-1,-3,1],[9E+09,9E+09,9E+09,9E+09,9E+09,9E+09]],v50,z0,T2_R2\WObj:=DHI_WO_R2;
     MoveJ [[-56.460,68.582,-6.000],[9.73406E-05,-0.156597,-0.987662,-8.78936E-05],[-1,-1,-3,1],[9E+09,9E+09,9E+09,9E+09,9E+09,9E+09]],v50,z0,T2_R2\WObj:=DHI_WO_R2;
     MoveJ [[-56.650,68.556,-6.000],[9.73406E-05,-0.156597,-0.987662,-8.78936E-05],[-1,-1,-3,1],[9E+09,9E+09,9E+09,9E+09,9E+09,9E+09]],v50,z0,T2_R2\WObj:=DHI_WO_R2;
     MoveJ [[-56.840,68.530,-6.000],[9.73406E-05,-0.156597,-0.987662,-8.78936E-05],[-1,-1,-3,1],[9E+09,9E+09,9E+09,9E+09,9E+09,9E+09]],v50,z0,T2_R2\WObj:=DHI_WO_R2;
     MoveJ [[-57.030,68.504,-6.000],[9.73406E-05,-0.156597,-0.987662,-8.78936E-05],[-1,-1,-3,1],[9E+09,9E+09,9E+09,9E+09,9E+09,9E+09]],v50,z0,T2_R2\WObj:=DHI_WO_R2;
     MoveJ [[-57.220,68.479,-6.000],[9.73406E-05,-0.156597,-0.987662,-8.78936E-05],[-1,-1,-3,1],[9E+09,9E+09,9E+09,9E+09,9E+09,9E+09]],v50,z0,T2_R2\WObj:=DHI_WO_R2;
     MoveJ [[-57.410,68.451,-6.000],[9.73406E-05,-0.156597,-0.987662,-8.78936E-05],[-1,-1,-3,1],[9E+09,9E+09,9E+09,9E+09,9E+09,9E+09]],v50,z0,T2_R2\WObj:=DHI_WO_R2;
     MoveJ [[-57.600,68.425,-6.000],[9.73406E-05,-0.156597,-0.987662,-8.78936E-05],[-1,-1,-3,1],[9E+09,9E+09,9E+09,9E+09,9E+09,9E+09]],v50,z0,T2_R2\WObj:=DHI_WO_R2;
     MoveJ [[-57.790,68.399,-6.000],[9.73406E-05,-0.156597,-0.987662,-8.78936E-05],[-1,-1,-3,1],[9E+09,9E+09,9E+09,9E+09,9E+09,9E+09]],v50,z0,T2_R2\WObj:=DHI_WO_R2;
     MoveJ [[-57.980,68.372,-6.000],[9.73406E-05,-0.156597,-0.987662,-8.78936E-05],[-1,-1,-3,1],[9E+09,9E+09,9E+09,9E+09,9E+09,9E+09]],v50,z0,T2_R2\WObj:=DHI_WO_R2;
     MoveJ [[-58.170,68.346,-6.000],[9.73406E-05,-0.156597,-0.987662,-8.78936E-05],[-1,-1,-3,1],[9E+09,9E+09,9E+09,9E+09,9E+09,9E+09]],v50,z0,T2_R2\WObj:=DHI_WO_R2;
     MoveJ [[-58.360,68.319,-6.000],[9.73406E-05,-0.156597,-0.987662,-8.78936E-05],[-1,-1,-3,1],[9E+09,9E+09,9E+09,9E+09,9E+09,9E+09]],v50,z0,T2_R2\WObj:=DHI_WO_R2;
     MoveJ [[-58.550,68.293,-6.000],[9.73406E-05,-0.156597,-0.987662,-8.78936E-05],[-1,-1,-3,1],[9E+09,9E+09,9E+09,9E+09,9E+09,9E+09]],v50,z0,T2_R2\WObj:=DHI_WO_R2;
     MoveJ [[-58.770,68.261,-6.000],[9.73406E-05,-0.156597,-0.987662,-8.78936E-05],[-1,-1,-3,1],[9E+09,9E+09,9E+09,9E+09,9E+09,9E+09]],v50,z0,T2_R2\WObj:=DHI_WO_R2;
     MoveJ [[-58.930,68.240,-6.000],[9.73406E-05,-0.156597,-0.987662,-8.78936E-05],[-1,-1,-3,1],[9E+09,9E+09,9E+09,9E+09,9E+09,9E+09]],v50,z0,T2_R2\WObj:=DHI_WO_R2;
     MoveJ [[-59.120,68.213,-6.000],[9.73406E-05,-0.156597,-0.987662,-8.78936E-05],[-1,-1,-3,1],[9E+09,9E+09,9E+09,9E+09,9E+09,9E+09]],v50,z0,T2_R2\WObj:=DHI_WO_R2;
     MoveJ [[-59.310,68.187,-6.000],[9.73406E-05,-0.156597,-0.987662,-8.78936E-05],[-1,-1,-3,1],[9E+09,9E+09,9E+09,9E+09,9E+09,9E+09]],v50,z0,T2_R2\WObj:=DHI_WO_R2;
     MoveJ [[-59.500,68.161,-6.000],[9.73406E-05,-0.156597,-0.987662,-8.78936E-05],[-1,-1,-3,1],[9E+09,9E+09,9E+09,9E+09,9E+09,9E+09]],v50,z0,T2_R2\WObj:=DHI_WO_R2;
     MoveJ [[-59.690,68.134,-6.000],[9.73406E-05,-0.156597,-0.987662,-8.78936E-05],[-1,-1,-3,1],[9E+09,9E+09,9E+09,9E+09,9E+09,9E+09]],v50,z0,T2_R2\WObj:=DHI_WO_R2;
     MoveJ [[-59.880,68.108,-6.000],[9.73406E-05,-0.156597,-0.987662,-8.78936E-05],[-1,-1,-3,1],[9E+09,9E+09,9E+09,9E+09,9E+09,9E+09]],v50,z0,T2_R2\WObj:=DHI_WO_R2;
     MoveJ [[-60.070,68.081,-6.000],[9.73406E-05,-0.156597,-0.987662,-8.78936E-05],[-1,-1,-3,1],[9E+09,9E+09,9E+09,9E+09,9E+09,9E+09]],v50,z0,T2_R2\WObj:=DHI_WO_R2;
     MoveJ [[-60.260,68.054,-6.000],[9.73406E-05,-0.156597,-0.987662,-8.78936E-05],[-1,-1,-3,1],[9E+09,9E+09,9E+09,9E+09,9E+09,9E+09]],v50,z0,T2_R2\WObj:=DHI_WO_R2;
     MoveJ [[-60.450,68.027,-6.000],[9.73406E-05,-0.156597,-0.987662,-8.78936E-05],[-1,-1,-3,1],[9E+09,9E+09,9E+09,9E+09,9E+09,9E+09]],v50,z0,T2_R2\WObj:=DHI_WO_R2;
     MoveJ [[-60.640,68.000,-6.000],[9.73406E-05,-0.156597,-0.987662,-8.78936E-05],[-1,-1,-3,1],[9E+09,9E+09,9E+09,9E+09,9E+09,9E+09]],v50,z0,T2_R2\WObj:=DHI_WO_R2;
     MoveJ [[-60.830,67.973,-6.000],[9.73406E-05,-0.156597,-0.987662,-8.78936E-05],[-1,-1,-3,1],[9E+09,9E+09,9E+09,9E+09,9E+09,9E+09]],v50,z0,T2_R2\WObj:=DHI_WO_R2;
     MoveJ [[-61.020,67.946,-6.000],[9.73406E-05,-0.156597,-0.987662,-8.78936E-05],[-1,-1,-3,1],[9E+09,9E+09,9E+09,9E+09,9E+09,9E+09]],v50,z0,T2_R2\WObj:=DHI_WO_R2;
     MoveJ [[-61.210,67.919,-6.000],[9.73406E-05,-0.156597,-0.987662,-8.78936E-05],[-1,-1,-3,1],[9E+09,9E+09,9E+09,9E+09,9E+09,9E+09]],v50,z0,T2_R2\WObj:=DHI_WO_R2;
     MoveJ [[-61.470,67.881,-6.000],[9.73406E-05,-0.156597,-0.987662,-8.78936E-05],[-1,-1,-3,1],[9E+09,9E+09,9E+09,9E+09,9E+09,9E+09]],v50,z0,T2_R2\WObj:=DHI_WO_R2;
     MoveJ [[-61.780,67.838,-6.000],[9.73406E-05,-0.156597,-0.987662,-8.78936E-05],[-1,-1,-3,1],[9E+09,9E+09,9E+09,9E+09,9E+09,9E+09]],v50,z0,T2_R2\WObj:=DHI_WO_R2;
     MoveJ [[-61.970,67.811,-6.000],[9.73406E-05,-0.156597,-0.987662,-8.78936E-05],[-1,-1,-3,1],[9E+09,9E+09,9E+09,9E+09,9E+09,9E+09]],v50,z0,T2_R2\WObj:=DHI_WO_R2;
     MoveJ [[-62.160,67.784,-6.000],[9.73406E-05,-0.156597,-0.987662,-8.78936E-05],[-1,-1,-3,1],[9E+09,9E+09,9E+09,9E+09,9E+09,9E+09]],v50,z0,T2_R2\WObj:=DHI_WO_R2;
     MoveJ [[-62.350,67.757,-6.000],[9.73406E-05,-0.156597,-0.987662,-8.78936E-05],[-1,-1,-3,1],[9E+09,9E+09,9E+09,9E+09,9E+09,9E+09]],v50,z0,T2_R2\WObj:=DHI_WO_R2;
     MoveJ [[-62.540,67.730,-6.000],[9.73406E-05,-0.156597,-0.987662,-8.78936E-05],[-1,-1,-3,1],[9E+09,9E+09,9E+09,9E+09,9E+09,9E+09]],v50,z0,T2_R2\WObj:=DHI_WO_R2;
     MoveJ [[-62.730,67.703,-6.000],[9.73406E-05,-0.156597,-0.987662,-8.78936E-05],[-1,-1,-3,1],[9E+09,9E+09,9E+09,9E+09,9E+09,9E+09]],v50,z0,T2_R2\WObj:=DHI_WO_R2;
     MoveJ [[-62.920,67.675,-6.000],[9.73406E-05,-0.156597,-0.987662,-8.78936E-05],[-1,-1,-3,1],[9E+09,9E+09,9E+09,9E+09,9E+09,9E+09]],v50,z0,T2_R2\WObj:=DHI_WO_R2;
     MoveJ [[-63.110,67.648,-6.000],[9.73406E-05,-0.156597,-0.987662,-8.78936E-05],[-1,-1,-3,1],[9E+09,9E+09,9E+09,9E+09,9E+09,9E+09]],v50,z0,T2_R2\WObj:=DHI_WO_R2;
     MoveJ [[-63.300,67.620,-6.000],[9.73406E-05,-0.156597,-0.987662,-8.78936E-05],[-1,-1,-3,1],[9E+09,9E+09,9E+09,9E+09,9E+09,9E+09]],v50,z0,T2_R2\WObj:=DHI_WO_R2;
     MoveJ [[-63.490,67.593,-6.000],[9.73406E-05,-0.156597,-0.987662,-8.78936E-05],[-1,-1,-3,1],[9E+09,9E+09,9E+09,9E+09,9E+09,9E+09]],v50,z0,T2_R2\WObj:=DHI_WO_R2;
     MoveJ [[-63.680,67.565,-6.000],[9.73406E-05,-0.156597,-0.987662,-8.78936E-05],[-1,-1,-3,1],[9E+09,9E+09,9E+09,9E+09,9E+09,9E+09]],v50,z0,T2_R2\WObj:=DHI_WO_R2;
     MoveJ [[-63.870,67.538,-6.000],[9.73406E-05,-0.156597,-0.987662,-8.78936E-05],[-1,-1,-3,1],[9E+09,9E+09,9E+09,9E+09,9E+09,9E+09]],v50,z0,T2_R2\WObj:=DHI_WO_R2;
     MoveJ [[-64.120,67.501,-6.000],[9.73406E-05,-0.156597,-0.987662,-8.78936E-05],[-1,-1,-3,1],[9E+09,9E+09,9E+09,9E+09,9E+09,9E+09]],v50,z0,T2_R2\WObj:=DHI_WO_R2;
     MoveJ [[-64.440,67.455,-6.000],[9.73406E-05,-0.156597,-0.987662,-8.78936E-05],[-1,-1,-3,1],[9E+09,9E+09,9E+09,9E+09,9E+09,9E+09]],v50,z0,T2_R2\WObj:=DHI_WO_R2;
     MoveJ [[-64.630,67.428,-6.000],[9.73406E-05,-0.156597,-0.987662,-8.78936E-05],[-1,-1,-3,1],[9E+09,9E+09,9E+09,9E+09,9E+09,9E+09]],v50,z0,T2_R2\WObj:=DHI_WO_R2;
     MoveJ [[-64.820,67.400,-6.000],[9.73406E-05,-0.156597,-0.987662,-8.78936E-05],[-1,-1,-3,1],[9E+09,9E+09,9E+09,9E+09,9E+09,9E+09]],v50,z0,T2_R2\WObj:=DHI_WO_R2;
     MoveJ [[-65.010,67.373,-6.000],[9.73406E-05,-0.156597,-0.987662,-8.78936E-05],[-1,-1,-3,1],[9E+09,9E+09,9E+09,9E+09,9E+09,9E+09]],v50,z0,T2_R2\WObj:=DHI_WO_R2;
     MoveJ [[-65.200,67.346,-6.000],[9.73406E-05,-0.156597,-0.987662,-8.78936E-05],[-1,-1,-3,1],[9E+09,9E+09,9E+09,9E+09,9E+09,9E+09]],v50,z0,T2_R2\WObj:=DHI_WO_R2;
     MoveJ [[-65.390,67.318,-6.000],[9.73406E-05,-0.156597,-0.987662,-8.78936E-05],[-1,-1,-3,1],[9E+09,9E+09,9E+09,9E+09,9E+09,9E+09]],v50,z0,T2_R2\WObj:=DHI_WO_R2;
     MoveJ [[-65.580,67.290,-6.000],[9.73406E-05,-0.156597,-0.987662,-8.78936E-05],[-1,-1,-3,1],[9E+09,9E+09,9E+09,9E+09,9E+09,9E+09]],v50,z0,T2_R2\WObj:=DHI_WO_R2;
     MoveJ [[-65.770,67.262,-6.000],[9.73406E-05,-0.156597,-0.987662,-8.78936E-05],[-1,-1,-3,1],[9E+09,9E+09,9E+09,9E+09,9E+09,9E+09]],v50,z0,T2_R2\WObj:=DHI_WO_R2;
     MoveJ [[-65.960,67.234,-6.000],[9.73406E-05,-0.156597,-0.987662,-8.78936E-05],[-1,-1,-3,1],[9E+09,9E+09,9E+09,9E+09,9E+09,9E+09]],v50,z0,T2_R2\WObj:=DHI_WO_R2;
     MoveJ [[-66.150,67.206,-6.000],[9.73406E-05,-0.156597,-0.987662,-8.78936E-05],[-1,-1,-3,1],[9E+09,9E+09,9E+09,9E+09,9E+09,9E+09]],v50,z0,T2_R2\WObj:=DHI_WO_R2;
     MoveJ [[-66.340,67.178,-6.000],[9.73406E-05,-0.156597,-0.987662,-8.78936E-05],[-1,-1,-3,1],[9E+09,9E+09,9E+09,9E+09,9E+09,9E+09]],v50,z0,T2_R2\WObj:=DHI_WO_R2;
     MoveJ [[-66.530,67.150,-6.000],[9.73406E-05,-0.156597,-0.987662,-8.78936E-05],[-1,-1,-3,1],[9E+09,9E+09,9E+09,9E+09,9E+09,9E+09]],v50,z0,T2_R2\WObj:=DHI_WO_R2;
     MoveJ [[-66.730,67.121,-6.000],[9.73406E-05,-0.156597,-0.987662,-8.78936E-05],[-1,-1,-3,1],[9E+09,9E+09,9E+09,9E+09,9E+09,9E+09]],v50,z0,T2_R2\WObj:=DHI_WO_R2;
     MoveJ [[-66.910,67.094,-6.000],[9.73406E-05,-0.156597,-0.987662,-8.78936E-05],[-1,-1,-3,1],[9E+09,9E+09,9E+09,9E+09,9E+09,9E+09]],v50,z0,T2_R2\WObj:=DHI_WO_R2;
     MoveJ [[-67.100,67.066,-6.000],[9.73406E-05,-0.156597,-0.987662,-8.78936E-05],[-1,-1,-3,1],[9E+09,9E+09,9E+09,9E+09,9E+09,9E+09]],v50,z0,T2_R2\WObj:=DHI_WO_R2;
     MoveJ [[-67.290,67.038,-6.000],[9.73406E-05,-0.156597,-0.987662,-8.78936E-05],[-1,-1,-3,1],[9E+09,9E+09,9E+09,9E+09,9E+09,9E+09]],v50,z0,T2_R2\WObj:=DHI_WO_R2;
     MoveJ [[-67.480,67.010,-6.000],[9.73406E-05,-0.156597,-0.987662,-8.78936E-05],[-1,-1,-3,1],[9E+09,9E+09,9E+09,9E+09,9E+09,9E+09]],v50,z0,T2_R2\WObj:=DHI_WO_R2;
     MoveJ [[-67.670,66.982,-6.000],[9.73406E-05,-0.156597,-0.987662,-8.78936E-05],[-1,-1,-3,1],[9E+09,9E+09,9E+09,9E+09,9E+09,9E+09]],v50,z0,T2_R2\WObj:=DHI_WO_R2;
     MoveJ [[-67.860,66.955,-6.000],[9.73406E-05,-0.156597,-0.987662,-8.78936E-05],[-1,-1,-3,1],[9E+09,9E+09,9E+09,9E+09,9E+09,9E+09]],v50,z0,T2_R2\WObj:=DHI_WO_R2;
     MoveJ [[-68.050,66.927,-6.000],[9.73406E-05,-0.156597,-0.987662,-8.78936E-05],[-1,-1,-3,1],[9E+09,9E+09,9E+09,9E+09,9E+09,9E+09]],v50,z0,T2_R2\WObj:=DHI_WO_R2;
     MoveJ [[-68.240,66.898,-6.000],[9.73406E-05,-0.156597,-0.987662,-8.78936E-05],[-1,-1,-3,1],[9E+09,9E+09,9E+09,9E+09,9E+09,9E+09]],v50,z0,T2_R2\WObj:=DHI_WO_R2;
     MoveJ [[-68.430,66.870,-6.000],[9.73406E-05,-0.156597,-0.987662,-8.78936E-05],[-1,-1,-3,1],[9E+09,9E+09,9E+09,9E+09,9E+09,9E+09]],v50,z0,T2_R2\WObj:=DHI_WO_R2;
     MoveJ [[-68.620,66.841,-6.000],[9.73406E-05,-0.156597,-0.987662,-8.78936E-05],[-1,-1,-3,1],[9E+09,9E+09,9E+09,9E+09,9E+09,9E+09]],v50,z0,T2_R2\WObj:=DHI_WO_R2;
     MoveJ [[-68.810,66.813,-6.000],[9.73406E-05,-0.156597,-0.987662,-8.78936E-05],[-1,-1,-3,1],[9E+09,9E+09,9E+09,9E+09,9E+09,9E+09]],v50,z0,T2_R2\WObj:=DHI_WO_R2;
     MoveJ [[-69.000,66.784,-6.000],[9.73406E-05,-0.156597,-0.987662,-8.78936E-05],[-1,-1,-3,1],[9E+09,9E+09,9E+09,9E+09,9E+09,9E+09]],v50,z0,T2_R2\WObj:=DHI_WO_R2;
     MoveJ [[-69.290,66.741,-6.000],[9.73406E-05,-0.156597,-0.987662,-8.78936E-05],[-1,-1,-3,1],[9E+09,9E+09,9E+09,9E+09,9E+09,9E+09]],v50,z0,T2_R2\WObj:=DHI_WO_R2;
     MoveJ [[-69.570,66.699,-6.000],[9.73406E-05,-0.156597,-0.987662,-8.78936E-05],[-1,-1,-3,1],[9E+09,9E+09,9E+09,9E+09,9E+09,9E+09]],v50,z0,T2_R2\WObj:=DHI_WO_R2;
     MoveJ [[-69.760,66.670,-6.000],[9.73406E-05,-0.156597,-0.987662,-8.78936E-05],[-1,-1,-3,1],[9E+09,9E+09,9E+09,9E+09,9E+09,9E+09]],v50,z0,T2_R2\WObj:=DHI_WO_R2;
     MoveJ [[-69.950,66.642,-6.000],[9.73406E-05,-0.156597,-0.987662,-8.78936E-05],[-1,-1,-3,1],[9E+09,9E+09,9E+09,9E+09,9E+09,9E+09]],v50,z0,T2_R2\WObj:=DHI_WO_R2;
     MoveJ [[-70.140,66.614,-6.000],[9.73406E-05,-0.156597,-0.987662,-8.78936E-05],[-1,-1,-3,1],[9E+09,9E+09,9E+09,9E+09,9E+09,9E+09]],v50,z0,T2_R2\WObj:=DHI_WO_R2;
     MoveJ [[-70.330,66.585,-6.000],[9.73406E-05,-0.156597,-0.987662,-8.78936E-05],[-1,-1,-3,1],[9E+09,9E+09,9E+09,9E+09,9E+09,9E+09]],v50,z0,T2_R2\WObj:=DHI_WO_R2;
     MoveJ [[-70.570,66.551,-6.000],[9.73406E-05,-0.156597,-0.987662,-8.78936E-05],[-1,-1,-3,1],[9E+09,9E+09,9E+09,9E+09,9E+09,9E+09]],v50,z0,T2_R2\WObj:=DHI_WO_R2;
     MoveJ [[-70.710,66.528,-6.000],[9.73406E-05,-0.156597,-0.987662,-8.78936E-05],[-1,-1,-3,1],[9E+09,9E+09,9E+09,9E+09,9E+09,9E+09]],v50,z0,T2_R2\WObj:=DHI_WO_R2;
     MoveJ [[-70.900,66.500,-6.000],[9.73406E-05,-0.156597,-0.987662,-8.78936E-05],[-1,-1,-3,1],[9E+09,9E+09,9E+09,9E+09,9E+09,9E+09]],v50,z0,T2_R2\WObj:=DHI_WO_R2;
     MoveJ [[-71.100,66.471,-6.000],[9.73406E-05,-0.156597,-0.987662,-8.78936E-05],[-1,-1,-3,1],[9E+09,9E+09,9E+09,9E+09,9E+09,9E+09]],v50,z0,T2_R2\WObj:=DHI_WO_R2;
     MoveJ [[-71.290,66.442,-6.000],[9.73406E-05,-0.156597,-0.987662,-8.78936E-05],[-1,-1,-3,1],[9E+09,9E+09,9E+09,9E+09,9E+09,9E+09]],v50,z0,T2_R2\WObj:=DHI_WO_R2;
     MoveJ [[-71.480,66.413,-6.000],[9.73406E-05,-0.156597,-0.987662,-8.78936E-05],[-1,-1,-3,1],[9E+09,9E+09,9E+09,9E+09,9E+09,9E+09]],v50,z0,T2_R2\WObj:=DHI_WO_R2;
     MoveJ [[-71.670,66.384,-6.000],[9.73406E-05,-0.156597,-0.987662,-8.78936E-05],[-1,-1,-3,1],[9E+09,9E+09,9E+09,9E+09,9E+09,9E+09]],v50,z0,T2_R2\WObj:=DHI_WO_R2;
     MoveJ [[-71.860,66.355,-6.000],[9.73406E-05,-0.156597,-0.987662,-8.78936E-05],[-1,-1,-3,1],[9E+09,9E+09,9E+09,9E+09,9E+09,9E+09]],v50,z0,T2_R2\WObj:=DHI_WO_R2;
     MoveJ [[-72.050,66.326,-6.000],[9.73406E-05,-0.156597,-0.987662,-8.78936E-05],[-1,-1,-3,1],[9E+09,9E+09,9E+09,9E+09,9E+09,9E+09]],v50,z0,T2_R2\WObj:=DHI_WO_R2;
     MoveJ [[-72.240,66.297,-6.000],[9.73406E-05,-0.156597,-0.987662,-8.78936E-05],[-1,-1,-3,1],[9E+09,9E+09,9E+09,9E+09,9E+09,9E+09]],v50,z0,T2_R2\WObj:=DHI_WO_R2;
     MoveJ [[-72.430,66.268,-6.000],[9.73406E-05,-0.156597,-0.987662,-8.78936E-05],[-1,-1,-3,1],[9E+09,9E+09,9E+09,9E+09,9E+09,9E+09]],v50,z0,T2_R2\WObj:=DHI_WO_R2;
     MoveJ [[-72.620,66.239,-6.000],[9.73406E-05,-0.156597,-0.987662,-8.78936E-05],[-1,-1,-3,1],[9E+09,9E+09,9E+09,9E+09,9E+09,9E+09]],v50,z0,T2_R2\WObj:=DHI_WO_R2;
     MoveJ [[-72.810,66.210,-6.000],[9.73406E-05,-0.156597,-0.987662,-8.78936E-05],[-1,-1,-3,1],[9E+09,9E+09,9E+09,9E+09,9E+09,9E+09]],v50,z0,T2_R2\WObj:=DHI_WO_R2;
     MoveJ [[-73.070,66.170,-6.000],[9.73406E-05,-0.156597,-0.987662,-8.78936E-05],[-1,-1,-3,1],[9E+09,9E+09,9E+09,9E+09,9E+09,9E+09]],v50,z0,T2_R2\WObj:=DHI_WO_R2;
     MoveJ [[-73.380,66.124,-6.000],[9.73406E-05,-0.156597,-0.987662,-8.78936E-05],[-1,-1,-3,1],[9E+09,9E+09,9E+09,9E+09,9E+09,9E+09]],v50,z0,T2_R2\WObj:=DHI_WO_R2;
     MoveJ [[-73.570,66.094,-6.000],[9.73406E-05,-0.156597,-0.987662,-8.78936E-05],[-1,-1,-3,1],[9E+09,9E+09,9E+09,9E+09,9E+09,9E+09]],v50,z0,T2_R2\WObj:=DHI_WO_R2;
     MoveJ [[-73.760,66.065,-6.000],[9.73406E-05,-0.156597,-0.987662,-8.78936E-05],[-1,-1,-3,1],[9E+09,9E+09,9E+09,9E+09,9E+09,9E+09]],v50,z0,T2_R2\WObj:=DHI_WO_R2;
     MoveJ [[-73.950,66.035,-6.000],[9.73406E-05,-0.156597,-0.987662,-8.78936E-05],[-1,-1,-3,1],[9E+09,9E+09,9E+09,9E+09,9E+09,9E+09]],v50,z0,T2_R2\WObj:=DHI_WO_R2;
     MoveJ [[-74.140,66.006,-6.000],[9.73406E-05,-0.156597,-0.987662,-8.78936E-05],[-1,-1,-3,1],[9E+09,9E+09,9E+09,9E+09,9E+09,9E+09]],v50,z0,T2_R2\WObj:=DHI_WO_R2;
     MoveJ [[-74.330,65.976,-6.000],[9.73406E-05,-0.156597,-0.987662,-8.78936E-05],[-1,-1,-3,1],[9E+09,9E+09,9E+09,9E+09,9E+09,9E+09]],v50,z0,T2_R2\WObj:=DHI_WO_R2;
     MoveJ [[-74.520,65.947,-6.000],[9.73406E-05,-0.156597,-0.987662,-8.78936E-05],[-1,-1,-3,1],[9E+09,9E+09,9E+09,9E+09,9E+09,9E+09]],v50,z0,T2_R2\WObj:=DHI_WO_R2;
     MoveJ [[-74.710,65.918,-6.000],[9.73406E-05,-0.156597,-0.987662,-8.78936E-05],[-1,-1,-3,1],[9E+09,9E+09,9E+09,9E+09,9E+09,9E+09]],v50,z0,T2_R2\WObj:=DHI_WO_R2;
     MoveJ [[-74.900,65.888,-6.000],[9.73406E-05,-0.156597,-0.987662,-8.78936E-05],[-1,-1,-3,1],[9E+09,9E+09,9E+09,9E+09,9E+09,9E+09]],v50,z0,T2_R2\WObj:=DHI_WO_R2;
     MoveJ [[-75.090,65.859,-6.000],[9.73406E-05,-0.156597,-0.987662,-8.78936E-05],[-1,-1,-3,1],[9E+09,9E+09,9E+09,9E+09,9E+09,9E+09]],v50,z0,T2_R2\WObj:=DHI_WO_R2;
     MoveJ [[-75.280,65.830,-6.000],[9.73406E-05,-0.156597,-0.987662,-8.78936E-05],[-1,-1,-3,1],[9E+09,9E+09,9E+09,9E+09,9E+09,9E+09]],v50,z0,T2_R2\WObj:=DHI_WO_R2;
     MoveJ [[-75.530,65.790,-6.000],[9.73406E-05,-0.156597,-0.987662,-8.78936E-05],[-1,-1,-3,1],[9E+09,9E+09,9E+09,9E+09,9E+09,9E+09]],v50,z0,T2_R2\WObj:=DHI_WO_R2;
     MoveJ [[-75.850,65.742,-6.000],[9.73406E-05,-0.156597,-0.987662,-8.78936E-05],[-1,-1,-3,1],[9E+09,9E+09,9E+09,9E+09,9E+09,9E+09]],v50,z0,T2_R2\WObj:=DHI_WO_R2;
     MoveJ [[-76.040,65.712,-6.000],[9.73406E-05,-0.156597,-0.987662,-8.78936E-05],[-1,-1,-3,1],[9E+09,9E+09,9E+09,9E+09,9E+09,9E+09]],v50,z0,T2_R2\WObj:=DHI_WO_R2;
     MoveJ [[-76.230,65.682,-6.000],[9.73406E-05,-0.156597,-0.987662,-8.78936E-05],[-1,-1,-3,1],[9E+09,9E+09,9E+09,9E+09,9E+09,9E+09]],v50,z0,T2_R2\WObj:=DHI_WO_R2;
     MoveJ [[-76.420,65.652,-6.000],[9.73406E-05,-0.156597,-0.987662,-8.78936E-05],[-1,-1,-3,1],[9E+09,9E+09,9E+09,9E+09,9E+09,9E+09]],v50,z0,T2_R2\WObj:=DHI_WO_R2;
     MoveJ [[-76.610,65.622,-6.000],[9.73406E-05,-0.156597,-0.987662,-8.78936E-05],[-1,-1,-3,1],[9E+09,9E+09,9E+09,9E+09,9E+09,9E+09]],v50,z0,T2_R2\WObj:=DHI_WO_R2;
     MoveJ [[-76.800,65.593,-6.000],[9.73406E-05,-0.156597,-0.987662,-8.78936E-05],[-1,-1,-3,1],[9E+09,9E+09,9E+09,9E+09,9E+09,9E+09]],v50,z0,T2_R2\WObj:=DHI_WO_R2;
     MoveJ [[-76.990,65.563,-6.000],[9.73406E-05,-0.156597,-0.987662,-8.78936E-05],[-1,-1,-3,1],[9E+09,9E+09,9E+09,9E+09,9E+09,9E+09]],v50,z0,T2_R2\WObj:=DHI_WO_R2;
     MoveJ [[-77.180,65.533,-6.000],[9.73406E-05,-0.156597,-0.987662,-8.78936E-05],[-1,-1,-3,1],[9E+09,9E+09,9E+09,9E+09,9E+09,9E+09]],v50,z0,T2_R2\WObj:=DHI_WO_R2;
     MoveJ [[-77.370,65.503,-6.000],[9.73406E-05,-0.156597,-0.987662,-8.78936E-05],[-1,-1,-3,1],[9E+09,9E+09,9E+09,9E+09,9E+09,9E+09]],v50,z0,T2_R2\WObj:=DHI_WO_R2;
     MoveJ [[-77.560,65.473,-6.000],[9.73406E-05,-0.156597,-0.987662,-8.78936E-05],[-1,-1,-3,1],[9E+09,9E+09,9E+09,9E+09,9E+09,9E+09]],v50,z0,T2_R2\WObj:=DHI_WO_R2;
     MoveJ [[-77.750,65.443,-6.000],[9.73406E-05,-0.156597,-0.987662,-8.78936E-05],[-1,-1,-3,1],[9E+09,9E+09,9E+09,9E+09,9E+09,9E+09]],v50,z0,T2_R2\WObj:=DHI_WO_R2;
     MoveJ [[-77.960,65.410,-6.000],[9.73406E-05,-0.156597,-0.987662,-8.78936E-05],[-1,-1,-3,1],[9E+09,9E+09,9E+09,9E+09,9E+09,9E+09]],v50,z0,T2_R2\WObj:=DHI_WO_R2;
     MoveJ [[-78.130,65.384,-6.000],[9.73406E-05,-0.156597,-0.987662,-8.78936E-05],[-1,-1,-3,1],[9E+09,9E+09,9E+09,9E+09,9E+09,9E+09]],v50,z0,T2_R2\WObj:=DHI_WO_R2;
     MoveJ [[-78.320,65.354,-6.000],[9.73406E-05,-0.156597,-0.987662,-8.78936E-05],[-1,-1,-3,1],[9E+09,9E+09,9E+09,9E+09,9E+09,9E+09]],v50,z0,T2_R2\WObj:=DHI_WO_R2;
     MoveJ [[-78.510,65.324,-6.000],[9.73406E-05,-0.156597,-0.987662,-8.78936E-05],[-1,-1,-3,1],[9E+09,9E+09,9E+09,9E+09,9E+09,9E+09]],v50,z0,T2_R2\WObj:=DHI_WO_R2;
     MoveJ [[-78.700,65.294,-6.000],[9.73406E-05,-0.156597,-0.987662,-8.78936E-05],[-1,-1,-3,1],[9E+09,9E+09,9E+09,9E+09,9E+09,9E+09]],v50,z0,T2_R2\WObj:=DHI_WO_R2;
     MoveJ [[-78.890,65.264,-6.000],[9.73406E-05,-0.156597,-0.987662,-8.78936E-05],[-1,-1,-3,1],[9E+09,9E+09,9E+09,9E+09,9E+09,9E+09]],v50,z0,T2_R2\WObj:=DHI_WO_R2;
     MoveJ [[-79.160,65.220,-6.000],[9.73406E-05,-0.156597,-0.987662,-8.78936E-05],[-1,-1,-3,1],[9E+09,9E+09,9E+09,9E+09,9E+09,9E+09]],v50,z0,T2_R2\WObj:=DHI_WO_R2;
     MoveJ [[-79.460,65.173,-6.000],[9.73406E-05,-0.156597,-0.987662,-8.78936E-05],[-1,-1,-3,1],[9E+09,9E+09,9E+09,9E+09,9E+09,9E+09]],v50,z0,T2_R2\WObj:=DHI_WO_R2;
     MoveJ [[-79.650,65.142,-6.000],[9.73406E-05,-0.156597,-0.987662,-8.78936E-05],[-1,-1,-3,1],[9E+09,9E+09,9E+09,9E+09,9E+09,9E+09]],v50,z0,T2_R2\WObj:=DHI_WO_R2;
     MoveJ [[-79.840,65.112,-6.000],[9.73406E-05,-0.156597,-0.987662,-8.78936E-05],[-1,-1,-3,1],[9E+09,9E+09,9E+09,9E+09,9E+09,9E+09]],v50,z0,T2_R2\WObj:=DHI_WO_R2;
     MoveJ [[-80.030,65.082,-6.000],[9.73406E-05,-0.156597,-0.987662,-8.78936E-05],[-1,-1,-3,1],[9E+09,9E+09,9E+09,9E+09,9E+09,9E+09]],v50,z0,T2_R2\WObj:=DHI_WO_R2;
     MoveJ [[-80.220,65.051,-6.000],[9.73406E-05,-0.156597,-0.987662,-8.78936E-05],[-1,-1,-3,1],[9E+09,9E+09,9E+09,9E+09,9E+09,9E+09]],v50,z0,T2_R2\WObj:=DHI_WO_R2;
     MoveJ [[-80.410,65.021,-6.000],[9.73406E-05,-0.156597,-0.987662,-8.78936E-05],[-1,-1,-3,1],[9E+09,9E+09,9E+09,9E+09,9E+09,9E+09]],v50,z0,T2_R2\WObj:=DHI_WO_R2;
     MoveJ [[-80.600,64.991,-6.000],[9.73406E-05,-0.156597,-0.987662,-8.78936E-05],[-1,-1,-3,1],[9E+09,9E+09,9E+09,9E+09,9E+09,9E+09]],v50,z0,T2_R2\WObj:=DHI_WO_R2;
     MoveJ [[-80.790,64.960,-6.000],[9.73406E-05,-0.156597,-0.987662,-8.78936E-05],[-1,-1,-3,1],[9E+09,9E+09,9E+09,9E+09,9E+09,9E+09]],v50,z0,T2_R2\WObj:=DHI_WO_R2;
     MoveJ [[-80.980,64.930,-6.000],[9.73406E-05,-0.156597,-0.987662,-8.78936E-05],[-1,-1,-3,1],[9E+09,9E+09,9E+09,9E+09,9E+09,9E+09]],v50,z0,T2_R2\WObj:=DHI_WO_R2;
     MoveJ [[-81.170,64.900,-6.000],[9.73406E-05,-0.156597,-0.987662,-8.78936E-05],[-1,-1,-3,1],[9E+09,9E+09,9E+09,9E+09,9E+09,9E+09]],v50,z0,T2_R2\WObj:=DHI_WO_R2;
     MoveJ [[-81.360,64.869,-6.000],[9.73406E-05,-0.156597,-0.987662,-8.78936E-05],[-1,-1,-3,1],[9E+09,9E+09,9E+09,9E+09,9E+09,9E+09]],v50,z0,T2_R2\WObj:=DHI_WO_R2;
     MoveJ [[-81.550,64.839,-6.000],[9.73406E-05,-0.156597,-0.987662,-8.78936E-05],[-1,-1,-3,1],[9E+09,9E+09,9E+09,9E+09,9E+09,9E+09]],v50,z0,T2_R2\WObj:=DHI_WO_R2;
     MoveJ [[-81.740,64.808,-6.000],[9.73406E-05,-0.156597,-0.987662,-8.78936E-05],[-1,-1,-3,1],[9E+09,9E+09,9E+09,9E+09,9E+09,9E+09]],v50,z0,T2_R2\WObj:=DHI_WO_R2;
     MoveJ [[-81.930,64.777,-6.000],[9.73406E-05,-0.156597,-0.987662,-8.78936E-05],[-1,-1,-3,1],[9E+09,9E+09,9E+09,9E+09,9E+09,9E+09]],v50,z0,T2_R2\WObj:=DHI_WO_R2;
     MoveJ [[-82.120,64.746,-6.000],[9.73406E-05,-0.156597,-0.987662,-8.78936E-05],[-1,-1,-3,1],[9E+09,9E+09,9E+09,9E+09,9E+09,9E+09]],v50,z0,T2_R2\WObj:=DHI_WO_R2;
     MoveJ [[-82.310,64.715,-6.000],[9.73406E-05,-0.156597,-0.987662,-8.78936E-05],[-1,-1,-3,1],[9E+09,9E+09,9E+09,9E+09,9E+09,9E+09]],v50,z0,T2_R2\WObj:=DHI_WO_R2;
     MoveJ [[-82.500,64.685,-6.000],[9.73406E-05,-0.156597,-0.987662,-8.78936E-05],[-1,-1,-3,1],[9E+09,9E+09,9E+09,9E+09,9E+09,9E+09]],v50,z0,T2_R2\WObj:=DHI_WO_R2;
     MoveJ [[-82.720,64.650,-6.000],[9.73406E-05,-0.156597,-0.987662,-8.78936E-05],[-1,-1,-3,1],[9E+09,9E+09,9E+09,9E+09,9E+09,9E+09]],v50,z0,T2_R2\WObj:=DHI_WO_R2;
     MoveJ [[-82.880,64.623,-6.000],[9.73406E-05,-0.156597,-0.987662,-8.78936E-05],[-1,-1,-3,1],[9E+09,9E+09,9E+09,9E+09,9E+09,9E+09]],v50,z0,T2_R2\WObj:=DHI_WO_R2;
     MoveJ [[-83.070,64.592,-6.000],[9.73406E-05,-0.156597,-0.987662,-8.78936E-05],[-1,-1,-3,1],[9E+09,9E+09,9E+09,9E+09,9E+09,9E+09]],v50,z0,T2_R2\WObj:=DHI_WO_R2;
     MoveJ [[-83.260,64.562,-6.000],[9.73406E-05,-0.156597,-0.987662,-8.78936E-05],[-1,-1,-3,1],[9E+09,9E+09,9E+09,9E+09,9E+09,9E+09]],v50,z0,T2_R2\WObj:=DHI_WO_R2;
     MoveJ [[-83.450,64.531,-6.000],[9.73406E-05,-0.156597,-0.987662,-8.78936E-05],[-1,-1,-3,1],[9E+09,9E+09,9E+09,9E+09,9E+09,9E+09]],v50,z0,T2_R2\WObj:=DHI_WO_R2;
     MoveJ [[-83.640,64.500,-6.000],[9.73406E-05,-0.156597,-0.987662,-8.78936E-05],[-1,-1,-3,1],[9E+09,9E+09,9E+09,9E+09,9E+09,9E+09]],v50,z0,T2_R2\WObj:=DHI_WO_R2;
     MoveJ [[-83.830,64.469,-6.000],[9.73406E-05,-0.156597,-0.987662,-8.78936E-05],[-1,-1,-3,1],[9E+09,9E+09,9E+09,9E+09,9E+09,9E+09]],v50,z0,T2_R2\WObj:=DHI_WO_R2;
     MoveJ [[-84.210,64.407,-6.000],[9.73406E-05,-0.156597,-0.987662,-8.78936E-05],[-1,-1,-3,1],[9E+09,9E+09,9E+09,9E+09,9E+09,9E+09]],v50,z0,T2_R2\WObj:=DHI_WO_R2;
     MoveJ [[-86.200,64.079,-6.000],[9.73406E-05,-0.156597,-0.987662,-8.78936E-05],[-1,-1,-3,1],[9E+09,9E+09,9E+09,9E+09,9E+09,9E+09]],v50,z0,T2_R2\WObj:=DHI_WO_R2;
     MoveJ [[-86.300,64.061,-6.000],[9.73406E-05,-0.156597,-0.987662,-8.78936E-05],[-1,-1,-3,1],[9E+09,9E+09,9E+09,9E+09,9E+09,9E+09]],v50,z0,T2_R2\WObj:=DHI_WO_R2;
     MoveJ [[-86.490,64.029,-6.000],[9.73406E-05,-0.156597,-0.987662,-8.78936E-05],[-1,-1,-3,1],[9E+09,9E+09,9E+09,9E+09,9E+09,9E+09]],v50,z0,T2_R2\WObj:=DHI_WO_R2;
     MoveJ [[-88.590,63.676,-6.000],[9.73406E-05,-0.156597,-0.987662,-8.78936E-05],[-1,-1,-3,1],[9E+09,9E+09,9E+09,9E+09,9E+09,9E+09]],v50,z0,T2_R2\WObj:=DHI_WO_R2;
     MoveJ [[-88.780,63.643,-6.000],[9.73406E-05,-0.156597,-0.987662,-8.78936E-05],[-1,-1,-3,1],[9E+09,9E+09,9E+09,9E+09,9E+09,9E+09]],v50,z0,T2_R2\WObj:=DHI_WO_R2;
     MoveJ [[-88.970,63.610,-6.000],[9.73406E-05,-0.156597,-0.987662,-8.78936E-05],[-1,-1,-3,1],[9E+09,9E+09,9E+09,9E+09,9E+09,9E+09]],v50,z0,T2_R2\WObj:=DHI_WO_R2;
     MoveJ [[-89.160,63.576,-6.000],[9.73406E-05,-0.156597,-0.987662,-8.78936E-05],[-1,-1,-3,1],[9E+09,9E+09,9E+09,9E+09,9E+09,9E+09]],v50,z0,T2_R2\WObj:=DHI_WO_R2;
